;Component Drawers
;Printer Name: Creality Ender 3
;Print time: 31888s
;Extruder 1 Material used: 3478mm
;Extruder 1 Material name: PLA 2.85mm
;Extruder 1 Filament diameter: 2.85mm
;Extruder 1 Nozzle diameter: 0.4mm
;Extruder 1 offset x: 0mm
;Extruder 1 offset y: 0mm
;Extruder 1 offset z: 0mm
;Max temp: 220
;Bed temp: 60
;Layer Count: 345
;width: 220mm
;depth: 220mm
;height: 250mm
;Count of bodies: 1
;Version of Fusion: 2.0.7805
;--------------------------------
;Selected Profile: PLA 2.85mm, 0.4mm Nozzle
;Selected Printer: Creality, Ender 3
;--------------------------------
M140 S60
M190 S60
M104 S220 T0
M109 S220 T0
G1 F15000
G21
G90
M82
G28 Z0
G1 Z10 F6000
G28 X0 Y0
G28 Z0
G29 L1 A J
G92 E0
G0 X0 Y0
G92 E0
;--------------------------------
;Layer : 1 of 345
M107
;rapid-leaky
G0 X10 Y10.75 Z0.2
G1 F1500 E7
;bead-prime
G1 X210 F216 E16.405
G1 F1500 E9.405
;rapid-dry
G1 F15000
G0 X141 Y50.941
G1 F1500 E16.405
;bead-skirt/brim
G1 X141.004 Y174.791 F780 E17.57
G1 X78.996 E18.153
G1 X79 Y50.941 E19.318
G1 X82.953 Y49.567 E19.358
G1 X85.317 Y48.824 E19.381
G1 X87.974 Y48.073 E19.407
G1 X90.518 Y47.441 E19.431
G1 X93.079 Y46.888 E19.456
G1 X95.516 Y46.438 E19.479
G1 X98.244 Y46.015 E19.505
G1 X100.847 Y45.697 E19.53
G1 X103.456 Y45.457 E19.555
G1 X106.072 Y45.298 E19.579
G1 X108.69 Y45.219 E19.604
G1 X111.31 E19.629
G1 X113.928 Y45.298 E19.653
G1 X116.544 Y45.457 E19.678
G1 X119.153 Y45.697 E19.703
G1 X121.754 Y46.015 E19.727
G1 X124.344 Y46.412 E19.752
G1 X126.921 Y46.888 E19.776
G1 X129.343 Y47.411 E19.8
G1 X132.023 Y48.072 E19.826
G1 X134.548 Y48.781 E19.85
G1 X137.047 Y49.567 E19.875
G1 X141 Y50.941 E19.914
;rapid-leaky
G1 F15000
G0 X140.7 Y51.154
;bead-skirt/brim
G1 X140.704 Y174.491 F780 E21.074
G1 X79.296 E21.652
G1 X79.3 Y51.154 E22.812
G1 X83.047 Y49.852 E22.849
G1 X85.402 Y49.111 E22.873
G1 X88.051 Y48.363 E22.898
G1 X90.586 Y47.733 E22.923
G1 X93.138 Y47.182 E22.948
G1 X95.567 Y46.733 E22.971
G1 X98.285 Y46.312 E22.997
G1 X100.879 Y45.995 E23.021
G1 X103.479 Y45.756 E23.046
G1 X106.085 Y45.598 E23.07
G1 X108.695 Y45.519 E23.095
G1 X111.305 E23.119
G1 X113.915 Y45.598 E23.144
G1 X116.521 Y45.756 E23.169
G1 X119.121 Y45.995 E23.193
G1 X121.713 Y46.312 E23.218
G1 X124.294 Y46.708 E23.242
G1 X126.862 Y47.182 E23.267
G1 X129.276 Y47.703 E23.29
G1 X131.946 Y48.362 E23.316
G1 X134.462 Y49.069 E23.34
G1 X136.953 Y49.852 E23.365
G1 X140.7 Y51.154 E23.402
;rapid-leaky
G1 F15000
G0 X140.4 Y51.368
;bead-skirt/brim
G1 X140.404 Y174.191 F780 E24.558
G1 X79.596 E25.129
G1 X79.6 Y51.368 E26.285
G1 X83.142 Y50.136 E26.32
G1 X85.488 Y49.399 E26.343
G1 X88.128 Y48.653 E26.369
G1 X90.654 Y48.026 E26.393
G1 X93.197 Y47.476 E26.418
G1 X95.617 Y47.029 E26.441
G1 X98.326 Y46.609 E26.467
G1 X100.91 Y46.293 E26.491
G1 X103.501 Y46.056 E26.516
G1 X106.099 Y45.898 E26.54
G1 X108.699 Y45.819 E26.565
G1 X111.301 E26.589
G1 X113.901 Y45.898 E26.614
G1 X116.499 Y46.056 E26.638
G1 X119.09 Y46.293 E26.662
G1 X121.672 Y46.609 E26.687
G1 X124.244 Y47.004 E26.711
G1 X126.803 Y47.476 E26.736
G1 X129.208 Y47.995 E26.759
G1 X131.87 Y48.652 E26.785
G1 X134.377 Y49.356 E26.809
G1 X136.859 Y50.136 E26.834
G1 X140.4 Y51.368 E26.869
;rapid-leaky
G1 F15000
G0 X140.1 Y51.581
;bead-skirt/brim
G1 X140.104 Y173.891 F780 E28.019
G1 X79.896 E28.586
G1 X79.9 Y51.581 E29.736
G1 X83.236 Y50.421 E29.769
G1 X85.574 Y49.686 E29.792
G1 X88.205 Y48.943 E29.818
G1 X90.722 Y48.318 E29.842
G1 X93.256 Y47.77 E29.867
G1 X95.667 Y47.325 E29.89
G1 X98.368 Y46.907 E29.916
G1 X100.942 Y46.591 E29.94
G1 X103.524 Y46.355 E29.964
G1 X106.113 Y46.197 E29.989
G1 X108.704 Y46.119 E30.013
G1 X111.296 E30.037
G1 X113.887 Y46.197 E30.062
G1 X116.476 Y46.355 E30.086
G1 X119.058 Y46.591 E30.111
G1 X121.631 Y46.907 E30.135
G1 X124.194 Y47.3 E30.159
G1 X126.744 Y47.77 E30.184
G1 X129.14 Y48.288 E30.207
G1 X131.793 Y48.942 E30.233
G1 X134.291 Y49.644 E30.257
G1 X136.764 Y50.421 E30.281
G1 X140.1 Y51.581 E30.315
;rapid-leaky
G1 F15000
G0 X139.8 Y51.794
;bead-skirt/brim
G1 X139.804 Y173.591 F780 E31.46
G1 X80.196 E32.021
G1 X80.2 Y51.794 E33.166
G1 X83.33 Y50.706 E33.197
G1 X85.66 Y49.974 E33.22
G1 X88.282 Y49.233 E33.246
G1 X90.789 Y48.61 E33.27
G1 X93.315 Y48.064 E33.295
G1 X95.717 Y47.621 E33.318
G1 X98.409 Y47.204 E33.343
G1 X100.974 Y46.89 E33.368
G1 X103.547 Y46.654 E33.392
G1 X106.126 Y46.497 E33.416
G1 X108.708 Y46.419 E33.44
G1 X111.292 E33.465
G1 X113.874 Y46.497 E33.489
G1 X116.453 Y46.654 E33.513
G1 X119.026 Y46.89 E33.538
G1 X121.59 Y47.204 E33.562
G1 X124.144 Y47.596 E33.586
G1 X126.685 Y48.064 E33.611
G1 X129.073 Y48.58 E33.633
G1 X131.717 Y49.233 E33.659
G1 X134.205 Y49.931 E33.683
G1 X136.67 Y50.706 E33.708
G1 X139.8 Y51.794 E33.739
;rapid-leaky
G1 F15000
G0 X139.5 Y52.008
;bead-skirt/brim
G1 X139.504 Y173.291 F780 E34.88
G1 X80.496 E35.435
G1 X80.5 Y52.008 E36.575
G1 X83.424 Y50.991 E36.604
G1 X85.746 Y50.261 E36.627
G1 X88.359 Y49.523 E36.653
G1 X90.857 Y48.902 E36.677
G1 X93.374 Y48.359 E36.701
G1 X95.768 Y47.917 E36.724
G1 X98.45 Y47.501 E36.75
G1 X101.006 Y47.188 E36.774
G1 X103.57 Y46.953 E36.798
G1 X106.14 Y46.797 E36.822
G1 X108.713 Y46.719 E36.847
G1 X111.287 E36.871
G1 X113.86 Y46.797 E36.895
G1 X116.43 Y46.953 E36.919
G1 X118.994 Y47.188 E36.943
G1 X121.549 Y47.501 E36.968
G1 X124.094 Y47.891 E36.992
G1 X126.626 Y48.359 E37.016
G1 X129.005 Y48.872 E37.039
G1 X131.64 Y49.523 E37.064
G1 X134.12 Y50.219 E37.089
G1 X136.576 Y50.991 E37.113
G1 X139.5 Y52.008 E37.142
;rapid-leaky
G1 F15000
G0 X139.2 Y52.221
;bead-skirt/brim
G1 X139.204 Y172.991 F780 E38.278
G1 X80.796 E38.827
G1 X80.8 Y52.221 E39.963
G1 X83.519 Y51.276 E39.99
G1 X85.831 Y50.549 E40.013
G1 X88.436 Y49.813 E40.038
G1 X90.925 Y49.195 E40.063
G1 X93.433 Y48.653 E40.087
G1 X95.818 Y48.212 E40.109
G1 X98.491 Y47.798 E40.135
G1 X101.038 Y47.486 E40.159
G1 X103.593 Y47.252 E40.183
G1 X106.154 Y47.096 E40.207
G1 X108.717 Y47.019 E40.231
G1 X111.283 E40.256
G1 X113.846 Y47.096 E40.28
G1 X116.407 Y47.252 E40.304
G1 X118.962 Y47.486 E40.328
G1 X121.508 Y47.798 E40.352
G1 X124.044 Y48.187 E40.376
G1 X126.567 Y48.653 E40.4
G1 X128.938 Y49.165 E40.423
G1 X131.564 Y49.813 E40.449
G1 X134.034 Y50.507 E40.473
G1 X136.481 Y51.276 E40.497
G1 X139.2 Y52.221 E40.524
;rapid-leaky
G1 F15000
G0 X138.9 Y52.434
;bead-skirt/brim
G1 X138.904 Y172.691 F780 E41.655
G1 X81.096 E42.199
G1 X81.1 Y52.434 E43.33
G1 X83.613 Y51.561 E43.355
G1 X85.917 Y50.836 E43.377
G1 X88.513 Y50.103 E43.403
G1 X90.993 Y49.487 E43.427
G1 X93.492 Y48.947 E43.451
G1 X95.868 Y48.508 E43.474
G1 X98.532 Y48.095 E43.499
G1 X101.07 Y47.785 E43.523
G1 X103.616 Y47.551 E43.547
G1 X106.167 Y47.396 E43.571
G1 X108.722 Y47.319 E43.595
G1 X111.278 E43.619
G1 X113.833 Y47.396 E43.643
G1 X116.385 Y47.551 E43.667
G1 X118.93 Y47.785 E43.691
G1 X121.467 Y48.095 E43.715
G1 X123.994 Y48.483 E43.739
G1 X126.508 Y48.947 E43.763
G1 X128.87 Y49.457 E43.786
G1 X131.487 Y50.103 E43.812
G1 X133.949 Y50.794 E43.836
G1 X136.387 Y51.561 E43.86
G1 X138.9 Y52.434 E43.885
G1 F1500 E36.885
;rapid-dry
G1 F15000
G0 X81.4 Y52.648
G1 F1500 E43.885
;bead-perimeter_outer
G1 X83.707 Y51.845 F540 E43.908
G1 X86.003 Y51.124 E43.93
G1 X88.589 Y50.393 E43.956
G1 X91.061 Y49.779 E43.979
G1 X93.55 Y49.241 E44.003
G1 X95.918 Y48.804 E44.026
G1 X98.574 Y48.393 E44.051
G1 X101.102 Y48.083 E44.075
G1 X103.638 Y47.851 E44.099
G1 X106.181 Y47.696 E44.123
G1 X108.726 Y47.619 E44.147
G1 X111.274 E44.171
G1 X113.819 Y47.696 E44.195
G1 X116.362 Y47.851 E44.219
G1 X118.898 Y48.083 E44.243
G1 X121.427 Y48.393 E44.267
G1 X123.944 Y48.779 E44.291
G1 X126.45 Y49.241 E44.315
G1 X128.802 Y49.749 E44.338
G1 X131.411 Y50.393 E44.363
G1 X133.863 Y51.082 E44.387
G1 X136.293 Y51.845 E44.411
G1 X138.6 Y52.648 E44.434
G1 X138.604 Y172.391 E45.56
G1 X81.396 E46.098
G1 X81.4 Y52.648 E47.224
;rapid-leaky
G1 F15000
G0 X81.67 Y52.84
;bead-perimeter_inner
G1 X83.792 Y52.102 F780 E47.245
G1 X86.08 Y51.383 E47.268
G1 X88.659 Y50.654 E47.293
G1 X91.122 Y50.042 E47.317
G1 X93.604 Y49.506 E47.341
G1 X95.963 Y49.07 E47.363
G1 X98.611 Y48.66 E47.389
G1 X101.131 Y48.352 E47.412
G1 X103.659 Y48.12 E47.436
G1 X106.193 Y47.966 E47.46
G1 X108.73 Y47.889 E47.484
G1 X111.27 E47.508
G1 X113.807 Y47.966 E47.532
G1 X116.341 Y48.12 E47.556
G1 X118.869 Y48.352 E47.58
G1 X121.39 Y48.66 E47.603
G1 X123.899 Y49.045 E47.627
G1 X126.397 Y49.506 E47.651
G1 X128.741 Y50.012 E47.674
G1 X131.342 Y50.654 E47.699
G1 X133.786 Y51.341 E47.723
G1 X136.208 Y52.102 E47.747
G1 X138.33 Y52.84 E47.768
G1 X138.334 Y172.121 E48.89
G1 X81.666 E49.423
G1 X81.67 Y52.84 E50.545
;rapid-leaky
G1 F15000
G0 X81.94 Y53.032
;bead-perimeter_inner
G1 X83.877 Y52.358 F780 E50.564
G1 X86.157 Y51.641 E50.586
G1 X88.728 Y50.915 E50.612
G1 X91.183 Y50.305 E50.635
G1 X93.657 Y49.771 E50.659
G1 X96.009 Y49.336 E50.682
G1 X98.648 Y48.928 E50.707
G1 X101.159 Y48.62 E50.731
G1 X103.679 Y48.389 E50.754
G1 X106.205 Y48.235 E50.778
G1 X108.734 Y48.159 E50.802
G1 X111.266 E50.826
G1 X113.795 Y48.235 E50.85
G1 X116.321 Y48.389 E50.873
G1 X118.841 Y48.62 E50.897
G1 X121.353 Y48.928 E50.921
G1 X123.854 Y49.311 E50.945
G1 X126.344 Y49.771 E50.969
G1 X128.68 Y50.275 E50.991
G1 X131.273 Y50.915 E51.016
G1 X133.709 Y51.599 E51.04
G1 X136.123 Y52.358 E51.064
G1 X138.06 Y53.032 E51.083
G1 X138.064 Y171.851 E52.201
G1 X81.936 E52.728
G1 X81.94 Y53.032 E53.846
;rapid-leaky
G1 F15000
G0 X82.53 Y53.081
;bead-solid_infill
G1 X82.18 Y53.43 F1800 E53.851
G1 Y53.855 E53.855
G1 X83.18 Y52.855 E53.868
G1 X83.364 Y52.79 E53.87
G1 X83.83 Y52.628 E53.874
G1 X82.18 Y54.279 E53.896
G1 Y54.703 E53.9
G1 X84.455 Y52.428 E53.931
G1 X85.074 Y52.233 E53.937
G1 X82.18 Y55.127 E53.975
G1 Y55.552 E53.979
G1 X85.693 Y52.039 E54.026
G1 X86.226 Y51.871 E54.031
G1 X86.308 Y51.848 E54.032
G1 X82.18 Y55.976 E54.087
G1 Y56.4 E54.091
G1 X86.899 Y51.681 E54.154
G1 X87.49 Y51.514 E54.159
G1 X82.18 Y56.824 E54.23
G1 Y57.249 E54.234
G1 X88.082 Y51.347 E54.313
G1 X88.673 Y51.18 E54.318
G1 X82.18 Y57.673 E54.405
G1 Y58.097 E54.409
G1 X89.243 Y51.034 E54.503
G1 X89.807 Y50.894 E54.508
G1 X82.18 Y58.522 E54.61
G1 Y58.946 E54.614
G1 X90.372 Y50.754 E54.722
G1 X90.936 Y50.614 E54.728
G1 X82.18 Y59.37 E54.844
G1 Y59.794 E54.848
G1 X91.49 Y50.484 E54.972
G1 X92.031 Y50.368 E54.977
G1 X82.18 Y60.219 E55.108
G1 Y60.643 E55.112
G1 X92.572 Y50.251 E55.251
G1 X93.113 Y50.134 E55.256
G1 X82.18 Y61.067 E55.401
G1 Y61.492 E55.405
G1 X93.655 Y50.017 E55.558
G1 X93.704 Y50.006
G1 X94.177 Y49.919 E55.563
G1 X82.18 Y61.916 E55.723
G1 Y62.34 E55.727
G1 X94.697 Y49.823 E55.893
G1 X95.218 Y49.726 E55.898
G1 X82.18 Y62.764 E56.071
G1 Y63.189 E56.075
G1 X95.738 Y49.63 E56.256
G1 X96.049 Y49.573 E56.259
G1 X96.251 Y49.542 E56.261
G1 X82.18 Y63.613 E56.448
G1 Y64.037 E56.452
G1 X96.753 Y49.464 E56.646
G1 X97.255 Y49.386 E56.65
G1 X82.18 Y64.461 E56.851
G1 Y64.886 E56.855
G1 X97.757 Y49.308 E57.062
G1 X98.259 Y49.231 E57.067
G1 X82.18 Y65.31 E57.281
G1 Y65.734 E57.285
G1 X98.758 Y49.156 E57.505
G1 X99.241 Y49.097 E57.51
G1 X82.18 Y66.159 E57.737
G1 Y66.583 E57.741
G1 X99.725 Y49.038 E57.974
G1 X100.208 Y48.978 E57.979
G1 X82.18 Y67.007 E58.219
G1 Y67.431 E58.223
G1 X100.692 Y48.919 E58.469
G1 X101.175 Y48.86 E58.473
G1 X82.18 Y67.856 E58.726
G1 X82.179 Y68.28 E58.73
G1 X101.643 Y48.817 E58.989
G1 X102.11 Y48.774 E58.993
G1 X82.179 Y68.704 E59.258
G1 Y69.129 E59.262
G1 X102.577 Y48.731 E59.534
G1 X102.734 Y48.717 E59.535
G1 X103.044 Y48.688 E59.538
G1 X82.179 Y69.553 E59.816
G1 Y69.977 E59.82
G1 X103.511 Y48.646 E60.103
G1 X103.698 Y48.628 E60.105
G1 X103.969 Y48.612 E60.108
G1 X82.179 Y70.401 E60.397
G1 Y70.826 E60.401
G1 X104.421 Y48.584 E60.697
G1 X104.872 Y48.557 E60.702
G1 X82.179 Y71.25 E61.003
G1 Y71.674 E61.007
G1 X105.324 Y48.529 E61.315
G1 X105.776 Y48.502 E61.319
G1 X82.179 Y72.098 E61.633
G1 Y72.523 E61.637
G1 X106.227 Y48.475 E61.957
G1 X106.665 Y48.462 E61.961
G1 X82.179 Y72.947 E62.287
G1 Y73.371 E62.291
G1 X107.102 Y48.448 E62.622
G1 X107.54 Y48.435 E62.627
G1 X82.179 Y73.796 E62.964
G1 Y74.22 E62.968
G1 X107.977 Y48.422 E63.311
G1 X108.415 Y48.409 E63.315
G1 X82.179 Y74.644 E63.664
G1 Y75.068 E63.668
G1 X108.849 Y48.399 E64.023
G1 X109.273 E64.027
G1 X82.179 Y75.493 E64.387
G1 Y75.917 E64.391
G1 X109.697 Y48.399 E64.757
G1 X110.121 E64.761
G1 X82.179 Y76.341 E65.133
G1 Y76.766 E65.137
G1 X110.546 Y48.399 E65.514
G1 X110.97 E65.518
G1 X82.179 Y77.19 E65.901
G1 Y77.614 E65.905
G1 X111.39 Y48.403 E66.294
G1 X111.802 Y48.415 E66.298
G1 X82.179 Y78.038 E66.692
G1 Y78.463 E66.696
G1 X112.214 Y48.428 E67.095
G1 X112.626 Y48.44 E67.099
G1 X82.179 Y78.887 E67.504
G1 Y79.311 E67.508
G1 X113.038 Y48.453 E67.918
G1 X113.45 Y48.465 E67.922
G1 X82.179 Y79.735 E68.338
G1 Y80.16 E68.342
G1 X113.859 Y48.48 E68.763
G1 X114.259 Y48.504 E68.767
G1 X82.179 Y80.584 E69.194
G1 Y81.008 E69.198
G1 X114.659 Y48.528 E69.63
G1 X115.059 Y48.553 E69.634
G1 X82.179 Y81.433 E70.071
G1 Y81.857 E70.075
G1 X115.459 Y48.577 E70.518
G1 X115.859 Y48.601 E70.521
G1 X82.179 Y82.281 E70.969
G1 Y82.705 E70.973
G1 X116.259 Y48.626 E71.427
G1 X116.302 Y48.628
G1 X116.649 Y48.66 E71.43
G1 X82.179 Y83.13 E71.889
G1 Y83.554 E71.893
G1 X117.037 Y48.696 E72.357
G1 X117.322 Y48.722 E72.359
G1 X117.426 Y48.731 E72.36
G1 X82.179 Y83.978 E72.829
G1 Y84.403 E72.833
G1 X117.814 Y48.767 E73.307
G1 X118.203 Y48.803 E73.311
G1 X82.179 Y84.827 E73.79
G1 Y85.251 E73.794
G1 X118.592 Y48.838 E74.278
G1 X118.815 Y48.859 E74.28
G1 X118.976 Y48.878 E74.282
G1 X82.179 Y85.675 E74.771
G1 Y86.1 E74.775
G1 X119.354 Y48.925 E75.27
G1 X119.732 Y48.971 E75.273
G1 X82.179 Y86.524 E75.773
G1 Y86.948 E75.777
G1 X120.11 Y49.017 E76.281
G1 X120.488 Y49.064 E76.285
G1 X82.179 Y87.372 E76.794
G1 Y87.797 E76.798
G1 X120.866 Y49.11 E77.313
G1 X121.244 Y49.156 E77.317
G1 X82.179 Y88.221 E77.836
G1 Y88.645 E77.84
G1 X121.614 Y49.21 E78.365
G1 X121.982 Y49.267 E78.368
G1 X82.179 Y89.07 E78.898
G1 Y89.494 E78.902
G1 X122.349 Y49.323 E79.436
G1 X122.717 Y49.38 E79.439
G1 X82.179 Y89.918 E79.979
G1 Y90.342 E79.983
G1 X123.085 Y49.436 E80.527
G1 X123.453 Y49.493 E80.53
G1 X82.179 Y90.767 E81.079
G1 Y91.191 E81.083
G1 X123.82 Y49.549 E81.637
G1 X124.179 Y49.615 E81.64
G1 X82.179 Y91.615 E82.199
G1 Y92.04 E82.203
G1 X124.537 Y49.681 E82.767
G1 X124.895 Y49.748 E82.77
G1 X82.179 Y92.464 E83.338
G1 Y92.888 E83.342
G1 X125.253 Y49.814 E83.915
G1 X125.611 Y49.88 E83.918
G1 X82.179 Y93.312 E84.496
G1 Y93.737 E84.5
G1 X125.97 Y49.946 E85.083
G1 X126.296 Y50.006 E85.086
G1 X126.327 Y50.013
G1 X82.179 Y94.161 E85.673
G1 Y94.585 E85.677
G1 X126.676 Y50.088 E86.269
G1 X127.025 Y50.163 E86.272
G1 X82.179 Y95.01 E86.869
G1 Y95.434 E86.873
G1 X127.374 Y50.239 E87.474
G1 X127.723 Y50.314 E87.477
G1 X82.179 Y95.858 E88.083
G1 Y96.282 E88.087
G1 X128.072 Y50.389 E88.698
G1 X128.42 Y50.465 E88.701
G1 X82.179 Y96.707 E89.316
G1 Y97.131 E89.32
G1 X128.766 Y50.544 E89.94
G1 X129.106 Y50.628 E89.943
G1 X82.179 Y97.555 E90.567
G1 X82.178 Y97.979 E90.571
G1 X129.446 Y50.712 E91.2
G1 X129.787 Y50.796 E91.203
G1 X82.178 Y98.404 E91.836
G1 Y98.828 E91.84
G1 X130.127 Y50.88 E92.478
G1 X130.467 Y50.964 E92.482
G1 X82.178 Y99.252 E93.124
G1 Y99.677 E93.128
G1 X130.807 Y51.048 E93.775
G1 X131.148 Y51.132 E93.778
G1 X82.178 Y100.101 E94.429
G1 Y100.525 E94.433
G1 X131.481 Y51.223 E95.089
G1 X131.812 Y51.316 E95.092
G1 X82.178 Y100.949 E95.752
G1 Y101.374 E95.756
G1 X132.143 Y51.409 E96.421
G1 X132.474 Y51.502 E96.424
G1 X82.178 Y101.798 E97.093
G1 Y102.222 E97.097
G1 X132.806 Y51.595 E97.771
G1 X133.137 Y51.688 E97.774
G1 X82.178 Y102.647 E98.452
G1 Y103.071 E98.456
G1 X133.468 Y51.781 E99.138
G1 X133.641 Y51.83 E99.14
G1 X133.795 Y51.878 E99.141
G1 X82.178 Y103.495 E99.828
G1 Y103.919 E99.832
G1 X134.118 Y51.98 E100.522
G1 X134.441 Y52.081 E100.526
G1 X82.178 Y104.344 E101.221
G1 Y104.768 E101.225
G1 X134.764 Y52.182 E101.924
G1 X135.087 Y52.284 E101.927
G1 X82.178 Y105.192 E102.631
G1 Y105.616 E102.635
G1 X135.409 Y52.385 E103.343
G1 X135.732 Y52.487 E103.346
G1 X82.178 Y106.041 E104.059
G1 Y106.465 E104.063
G1 X136.055 Y52.588 E104.779
G1 X136.37 Y52.698 E104.782
G1 X82.178 Y106.889 E105.503
G1 Y107.314 E105.507
G1 X136.684 Y52.807 E106.232
G1 X136.924 Y52.891 E106.235
G1 X136.999 Y52.917
G1 X82.178 Y107.738 E106.965
G1 Y108.162 E106.969
G1 X137.314 Y53.026 E107.702
G1 X137.629 Y53.136 E107.705
G1 X82.178 Y108.586 E108.443
G1 Y109.011 E108.447
G1 X137.82 Y53.369 E109.187
G1 Y53.793 E109.191
G1 X82.178 Y109.435 E109.931
G1 Y109.859 E109.935
G1 X137.82 Y54.217 E110.675
G1 Y54.642 E110.679
G1 X82.178 Y110.284 E111.419
G1 Y110.708 E111.423
G1 X137.82 Y55.066 E112.163
G1 Y55.49 E112.167
G1 X82.178 Y111.132 E112.907
G1 Y111.556 E112.911
G1 X137.82 Y55.914 E113.651
G1 Y56.339 E113.655
G1 X82.178 Y111.981 E114.395
G1 Y112.405 E114.399
G1 X137.82 Y56.763 E115.139
G1 Y57.187 E115.143
G1 X82.178 Y112.829 E115.883
G1 Y113.253 E115.887
G1 X137.82 Y57.611 E116.628
G1 Y58.036 E116.632
G1 X82.178 Y113.678 E117.372
G1 Y114.102 E117.376
G1 X137.82 Y58.46 E118.116
G1 Y58.884 E118.12
G1 X82.178 Y114.526 E118.86
G1 Y114.951 E118.864
G1 X137.82 Y59.308 E119.604
G1 Y59.733 E119.608
G1 X82.178 Y115.375 E120.348
G1 Y115.799 E120.352
G1 X137.82 Y60.157 E121.092
G1 Y60.581 E121.096
G1 X82.178 Y116.223 E121.836
G1 Y116.648 E121.84
G1 X137.82 Y61.005 E122.58
G1 Y61.43 E122.584
G1 X82.178 Y117.072 E123.324
G1 Y117.496 E123.328
G1 X137.82 Y61.854 E124.069
G1 Y62.278 E124.072
G1 X82.178 Y117.921 E124.813
G1 Y118.345 E124.817
G1 X137.82 Y62.702 E125.557
G1 Y63.127 E125.561
G1 X82.178 Y118.769 E126.301
G1 Y119.193 E126.305
G1 X137.82 Y63.551 E127.045
G1 Y63.975 E127.049
G1 X82.178 Y119.618 E127.789
G1 Y120.042 E127.793
G1 X137.82 Y64.399 E128.533
G1 Y64.824 E128.537
G1 X82.178 Y120.466 E129.277
G1 Y120.89 E129.281
G1 X137.82 Y65.248 E130.021
G1 Y65.672 E130.025
G1 X82.178 Y121.315 E130.765
G1 Y121.739 E130.769
G1 X137.82 Y66.096 E131.509
G1 Y66.521 E131.513
G1 X82.178 Y122.163 E132.254
G1 Y122.588 E132.258
G1 X137.82 Y66.945 E132.998
G1 Y67.369 E133.002
G1 X82.178 Y123.012 E133.742
G1 Y123.436 E133.746
G1 X137.82 Y67.793 E134.486
G1 X137.821 Y68.218 E134.49
G1 X82.178 Y123.86 E135.23
G1 Y124.285 E135.234
G1 X137.821 Y68.642 E135.974
G1 Y69.066 E135.978
G1 X82.178 Y124.709 E136.718
G1 Y125.133 E136.722
G1 X137.821 Y69.49 E137.462
G1 Y69.915 E137.466
G1 X82.178 Y125.558 E138.206
G1 Y125.982 E138.21
G1 X137.821 Y70.339 E138.95
G1 Y70.763 E138.954
G1 X82.178 Y126.406 E139.695
G1 Y126.83 E139.699
G1 X137.821 Y71.187 E140.439
G1 Y71.612 E140.443
G1 X82.178 Y127.255 E141.183
G1 Y127.679 E141.187
G1 X137.821 Y72.036 E141.927
G1 Y72.46 E141.931
G1 X82.177 Y128.103 E142.671
G1 Y128.527 E142.675
G1 X137.821 Y72.884 E143.415
G1 Y73.309 E143.419
G1 X82.177 Y128.952 E144.159
G1 Y129.376 E144.163
G1 X137.821 Y73.733 E144.903
G1 Y74.157 E144.907
G1 X82.177 Y129.8 E145.647
G1 Y130.225 E145.651
G1 X137.821 Y74.581 E146.392
G1 Y75.006 E146.396
G1 X82.177 Y130.649 E147.136
G1 Y131.073 E147.14
G1 X137.821 Y75.43 E147.88
G1 Y75.854 E147.884
G1 X82.177 Y131.497 E148.624
G1 Y131.922 E148.628
G1 X137.821 Y76.278 E149.368
G1 Y76.703 E149.372
G1 X82.177 Y132.346 E150.112
G1 Y132.77 E150.116
G1 X137.821 Y77.127 E150.856
G1 Y77.551 E150.86
G1 X82.177 Y133.195 E151.6
G1 Y133.619 E151.604
G1 X137.821 Y77.975 E152.344
G1 Y78.4 E152.348
G1 X82.177 Y134.043 E153.088
G1 Y134.467 E153.092
G1 X137.821 Y78.824 E153.833
G1 Y79.248 E153.837
G1 X82.177 Y134.892 E154.577
G1 Y135.316 E154.581
G1 X137.821 Y79.672 E155.321
G1 Y80.097 E155.325
G1 X82.177 Y135.74 E156.065
G1 Y136.165 E156.069
G1 X137.821 Y80.521 E156.809
G1 Y80.945 E156.813
G1 X82.177 Y136.589 E157.553
G1 Y137.013 E157.557
G1 X137.821 Y81.369 E158.297
G1 Y81.794 E158.301
G1 X82.177 Y137.437 E159.041
G1 Y137.862 E159.045
G1 X137.821 Y82.218 E159.785
G1 Y82.642 E159.789
G1 X82.177 Y138.286 E160.53
G1 Y138.71 E160.534
G1 X137.821 Y83.066 E161.274
G1 Y83.491 E161.278
G1 X82.177 Y139.134 E162.018
G1 Y139.559 E162.022
G1 X137.821 Y83.915 E162.762
G1 Y84.339 E162.766
G1 X82.177 Y139.983 E163.506
G1 Y140.407 E163.51
G1 X137.821 Y84.763 E164.25
G1 Y85.188 E164.254
G1 X82.177 Y140.832 E164.994
G1 Y141.256 E164.998
G1 X137.821 Y85.612 E165.738
G1 Y86.036 E165.742
G1 X82.177 Y141.68 E166.483
G1 Y142.104 E166.487
G1 X137.821 Y86.46 E167.227
G1 Y86.885 E167.231
G1 X82.177 Y142.529 E167.971
G1 Y142.953 E167.975
G1 X137.821 Y87.309 E168.715
G1 Y87.733 E168.719
G1 X82.177 Y143.377 E169.459
G1 Y143.802 E169.463
G1 X137.821 Y88.157 E170.203
G1 Y88.582 E170.207
G1 X82.177 Y144.226 E170.947
G1 Y144.65 E170.951
G1 X137.821 Y89.006 E171.691
G1 Y89.43 E171.695
G1 X82.177 Y145.074 E172.435
G1 Y145.499 E172.439
G1 X137.821 Y89.854 E173.18
G1 Y90.279 E173.184
G1 X82.177 Y145.923 E173.924
G1 Y146.347 E173.928
G1 X137.821 Y90.703 E174.668
G1 Y91.127 E174.672
G1 X82.177 Y146.771 E175.412
G1 Y147.196 E175.416
G1 X137.821 Y91.551 E176.156
G1 Y91.976 E176.16
G1 X82.177 Y147.62 E176.9
G1 Y148.044 E176.904
G1 X137.821 Y92.4 E177.644
G1 Y92.824 E177.648
G1 X82.177 Y148.469 E178.388
G1 Y148.893 E178.392
G1 X137.821 Y93.248 E179.133
G1 Y93.673 E179.137
G1 X82.177 Y149.317 E179.877
G1 Y149.741 E179.881
G1 X137.821 Y94.097 E180.621
G1 Y94.521 E180.625
G1 X82.177 Y150.166 E181.365
G1 Y150.59 E181.369
G1 X137.821 Y94.945 E182.109
G1 Y95.37 E182.113
G1 X82.177 Y151.014 E182.853
G1 Y151.439 E182.857
G1 X137.821 Y95.794 E183.597
G1 Y96.218 E183.601
G1 X82.177 Y151.863 E184.341
G1 Y152.287 E184.345
G1 X137.821 Y96.642 E185.086
G1 Y97.067 E185.09
G1 X82.177 Y152.711 E185.83
G1 Y153.136 E185.834
G1 X137.821 Y97.491 E186.574
G1 X137.822 Y97.915 E186.578
G1 X82.177 Y153.56 E187.318
G1 Y153.984 E187.322
G1 X137.822 Y98.339 E188.062
G1 Y98.764 E188.066
G1 X82.177 Y154.408 E188.806
G1 Y154.833 E188.81
G1 X137.822 Y99.188 E189.55
G1 Y99.612 E189.554
G1 X82.177 Y155.257 E190.294
G1 Y155.681 E190.298
G1 X137.822 Y100.036 E191.039
G1 Y100.461 E191.043
G1 X82.177 Y156.106 E191.783
G1 Y156.53 E191.787
G1 X137.822 Y100.885 E192.527
G1 Y101.309 E192.531
G1 X82.177 Y156.954 E193.271
G1 Y157.378 E193.275
G1 X137.822 Y101.733 E194.015
G1 Y102.158 E194.019
G1 X82.176 Y157.803 E194.759
G1 Y158.227 E194.763
G1 X137.822 Y102.582 E195.503
G1 Y103.006 E195.507
G1 X82.176 Y158.651 E196.247
G1 Y159.076 E196.251
G1 X137.822 Y103.43 E196.992
G1 Y103.855 E196.996
G1 X82.176 Y159.5 E197.736
G1 Y159.924 E197.74
G1 X137.822 Y104.279 E198.48
G1 Y104.703 E198.484
G1 X82.176 Y160.348 E199.224
G1 Y160.773 E199.228
G1 X137.822 Y105.127 E199.968
G1 Y105.552 E199.972
G1 X82.176 Y161.197 E200.712
G1 Y161.621 E200.716
G1 X137.822 Y105.976 E201.456
G1 Y106.4 E201.46
G1 X82.176 Y162.045 E202.201
G1 Y162.47 E202.205
G1 X137.822 Y106.824 E202.945
G1 Y107.249 E202.949
G1 X82.176 Y162.894 E203.689
G1 Y163.318 E203.693
G1 X137.822 Y107.673 E204.433
G1 Y108.097 E204.437
G1 X82.176 Y163.743 E205.177
G1 Y164.167 E205.181
G1 X137.822 Y108.521 E205.921
G1 Y108.946 E205.925
G1 X82.176 Y164.591 E206.665
G1 Y165.015 E206.669
G1 X137.822 Y109.37 E207.409
G1 Y109.794 E207.413
G1 X82.176 Y165.44 E208.154
G1 Y165.864 E208.158
G1 X137.822 Y110.218 E208.898
G1 Y110.643 E208.902
G1 X82.176 Y166.288 E209.642
G1 Y166.713 E209.646
G1 X137.822 Y111.067 E210.386
G1 Y111.491 E210.39
G1 X82.176 Y167.137 E211.13
G1 Y167.561 E211.134
G1 X137.822 Y111.915 E211.874
G1 Y112.34 E211.878
G1 X82.176 Y167.985 E212.618
G1 Y168.41 E212.622
G1 X137.822 Y112.764 E213.363
G1 Y113.188 E213.367
G1 X82.176 Y168.834 E214.107
G1 Y169.258 E214.111
G1 X137.822 Y113.612 E214.851
G1 Y114.037 E214.855
G1 X82.176 Y169.682 E215.595
G1 Y170.107 E215.599
G1 X137.822 Y114.461 E216.339
G1 Y114.885 E216.343
G1 X82.176 Y170.531 E217.083
G1 Y170.955 E217.087
G1 X137.822 Y115.309 E217.827
G1 Y115.734 E217.831
G1 X82.176 Y171.38 E218.572
G1 Y171.611 E218.574
G1 X82.369 E218.576
G1 X137.822 Y116.158 E219.313
G1 Y116.582 E219.317
G1 X82.793 Y171.611 E220.049
G1 X83.217 E220.053
G1 X137.822 Y117.006 E220.779
G1 Y117.431 E220.783
G1 X83.642 Y171.611 E221.504
G1 X84.066 E221.508
G1 X137.822 Y117.855 E222.223
G1 Y118.279 E222.227
G1 X84.49 Y171.611 E222.936
G1 X84.914 E222.94
G1 X137.822 Y118.703 E223.644
G1 Y119.128 E223.648
G1 X85.339 Y171.611 E224.346
G1 X85.763 E224.35
G1 X137.822 Y119.552 E225.043
G1 Y119.976 E225.047
G1 X86.187 Y171.611 E225.733
G1 X86.612 E225.737
G1 X137.822 Y120.4 E226.419
G1 Y120.825 E226.423
G1 X87.036 Y171.611 E227.098
G1 X87.46 E227.102
G1 X137.822 Y121.249 E227.772
G1 Y121.673 E227.776
G1 X87.884 Y171.611 E228.44
G1 X88.309 E228.444
G1 X137.822 Y122.097 E229.103
G1 Y122.522 E229.107
G1 X88.733 Y171.611 E229.76
G1 X89.157 E229.764
G1 X137.822 Y122.946 E230.411
G1 Y123.37 E230.415
G1 X89.581 Y171.611 E231.057
G1 X90.006 E231.061
G1 X137.822 Y123.794 E231.697
G1 Y124.219 E231.701
G1 X90.43 Y171.611 E232.331
G1 X90.854 E232.335
G1 X137.822 Y124.643 E232.96
G1 Y125.067 E232.964
G1 X91.278 Y171.611 E233.583
G1 X91.703 E233.587
G1 X137.822 Y125.491 E234.2
G1 Y125.916 E234.204
G1 X92.127 Y171.611 E234.812
G1 X92.551 E234.816
G1 X137.822 Y126.34 E235.418
G1 Y126.764 E235.422
G1 X92.975 Y171.611 E236.019
G1 X93.4 E236.023
G1 X137.822 Y127.188 E236.613
G1 Y127.613 E236.617
G1 X93.824 Y171.611 E237.203
G1 X94.248 E237.207
G1 X137.823 Y128.037 E237.786
G1 Y128.461 E237.79
G1 X94.673 Y171.611 E238.364
G1 X95.097 E238.368
G1 X137.823 Y128.885 E238.937
G1 Y129.31 E238.941
G1 X95.521 Y171.611 E239.503
G1 X95.945 E239.507
G1 X137.823 Y129.734 E240.064
G1 Y130.158 E240.068
G1 X96.37 Y171.611 E240.62
G1 X96.794 E240.624
G1 X137.823 Y130.582 E241.169
G1 Y131.007 E241.173
G1 X97.218 Y171.611 E241.713
G1 X97.642 E241.717
G1 X137.823 Y131.431 E242.252
G1 Y131.855 E242.256
G1 X98.067 Y171.611 E242.785
G1 X98.491 E242.789
G1 X137.823 Y132.279 E243.312
G1 Y132.704 E243.316
G1 X98.915 Y171.611 E243.833
G1 X99.339 E243.837
G1 X137.823 Y133.128 E244.349
G1 Y133.552 E244.353
G1 X99.764 Y171.611 E244.859
G1 X100.188 E244.863
G1 X137.823 Y133.976 E245.364
G1 Y134.401 E245.368
G1 X100.612 Y171.611 E245.863
G1 X101.037 E245.867
G1 X137.823 Y134.825 E246.356
G1 Y135.249 E246.36
G1 X101.461 Y171.611 E246.844
G1 X101.885 E246.848
G1 X137.823 Y135.673 E247.326
G1 Y136.098 E247.33
G1 X102.309 Y171.611 E247.802
G1 X102.734 E247.806
G1 X137.823 Y136.522 E248.273
G1 Y136.946 E248.277
G1 X103.158 Y171.611 E248.738
G1 X103.582 E248.742
G1 X137.823 Y137.37 E249.197
G1 Y137.795 E249.201
G1 X104.006 Y171.611 E249.651
G1 X104.431 E249.655
G1 X137.823 Y138.219 E250.099
G1 Y138.643 E250.103
G1 X104.855 Y171.611 E250.542
G1 X105.279 E250.546
G1 X137.823 Y139.067 E250.979
G1 Y139.492 E250.983
G1 X105.703 Y171.611 E251.41
G1 X106.128 E251.414
G1 X137.823 Y139.916 E251.835
G1 Y140.34 E251.839
G1 X106.552 Y171.611 E252.255
G1 X106.976 E252.259
G1 X137.823 Y140.764 E252.67
G1 Y141.189 E252.674
G1 X107.4 Y171.611 E253.078
G1 X107.825 E253.082
G1 X137.823 Y141.613 E253.481
G1 Y142.037 E253.485
G1 X108.249 Y171.611 E253.879
G1 X108.673 E253.883
G1 X137.823 Y142.461 E254.27
G1 Y142.886 E254.274
G1 X109.098 Y171.611 E254.656
G1 X109.522 E254.66
G1 X137.823 Y143.31 E255.037
G1 Y143.734 E255.041
G1 X109.946 Y171.611 E255.412
G1 X110.37 E255.416
G1 X137.823 Y144.158 E255.781
G1 Y144.583 E255.785
G1 X110.795 Y171.611 E256.144
G1 X111.219 E256.148
G1 X137.823 Y145.007 E256.502
G1 Y145.431 E256.506
G1 X111.643 Y171.611 E256.854
G1 X112.067 E256.858
G1 X137.823 Y145.855 E257.201
G1 Y146.28 E257.205
G1 X112.492 Y171.611 E257.542
G1 X112.916 E257.546
G1 X137.823 Y146.704 E257.877
G1 Y147.128 E257.881
G1 X113.34 Y171.611 E258.207
G1 X113.764 E258.211
G1 X137.823 Y147.552 E258.531
G1 Y147.977 E258.535
G1 X114.189 Y171.611 E258.849
G1 X114.613 E258.853
G1 X137.823 Y148.401 E259.162
G1 Y148.825 E259.166
G1 X115.037 Y171.611 E259.469
G1 X115.461 E259.473
G1 X137.823 Y149.249 E259.77
G1 Y149.674 E259.774
G1 X115.886 Y171.611 E260.066
G1 X116.31 E260.07
G1 X137.823 Y150.098 E260.356
G1 Y150.522 E260.36
G1 X116.734 Y171.611 E260.641
G1 X117.159 E260.645
G1 X137.823 Y150.946 E260.919
G1 Y151.371 E260.923
G1 X117.583 Y171.611 E261.193
G1 X118.007 E261.197
G1 X137.823 Y151.795 E261.46
G1 Y152.219 E261.464
G1 X118.431 Y171.611 E261.722
G1 X118.856 E261.726
G1 X137.823 Y152.643 E261.978
G1 Y153.068 E261.982
G1 X119.28 Y171.611 E262.229
G1 X119.704 E262.233
G1 X137.823 Y153.492 E262.474
G1 Y153.916 E262.478
G1 X120.128 Y171.611 E262.713
G1 X120.553 E262.717
G1 X137.823 Y154.34 E262.947
G1 Y154.765 E262.951
G1 X120.977 Y171.611 E263.175
G1 X121.401 E263.179
G1 X137.823 Y155.189 E263.398
G1 Y155.613 E263.402
G1 X121.825 Y171.611 E263.614
G1 X122.25 E263.618
G1 X137.823 Y156.037 E263.826
G1 Y156.462 E263.83
G1 X122.674 Y171.611 E264.031
G1 X123.098 E264.035
G1 X137.823 Y156.886 E264.231
G1 Y157.31 E264.235
G1 X123.522 Y171.611 E264.425
G1 X123.947 E264.429
G1 X137.824 Y157.734 E264.614
G1 Y158.159 E264.618
G1 X124.371 Y171.611 E264.797
G1 X124.795 E264.801
G1 X137.824 Y158.583 E264.974
G1 Y159.007 E264.978
G1 X125.22 Y171.611 E265.146
G1 X125.644 E265.15
G1 X137.824 Y159.431 E265.312
G1 Y159.856 E265.316
G1 X126.068 Y171.611 E265.472
G1 X126.492 E265.476
G1 X137.824 Y160.28 E265.627
G1 Y160.704 E265.631
G1 X126.917 Y171.611 E265.776
G1 X127.341 E265.78
G1 X137.824 Y161.128 E265.919
G1 Y161.553 E265.923
G1 X127.765 Y171.611 E266.057
G1 X128.189 E266.061
G1 X137.824 Y161.977 E266.189
G1 Y162.401 E266.193
G1 X128.614 Y171.611 E266.315
G1 X129.038 E266.319
G1 X137.824 Y162.825 E266.436
G1 Y163.25 E266.44
G1 X129.462 Y171.611 E266.552
G1 X129.886 E266.556
G1 X137.824 Y163.674 E266.661
G1 Y164.098 E266.665
G1 X130.311 Y171.611 E266.765
G1 X130.735 E266.769
G1 X137.824 Y164.522 E266.863
G1 Y164.947 E266.867
G1 X131.159 Y171.611 E266.956
G1 X131.584 E266.96
G1 X137.824 Y165.371 E267.043
G1 Y165.795 E267.047
G1 X132.008 Y171.611 E267.124
G1 X132.432 E267.128
G1 X137.824 Y166.219 E267.2
G1 Y166.644 E267.204
G1 X132.856 Y171.611 E267.27
G1 X133.281 E267.274
G1 X137.824 Y167.068 E267.334
G1 Y167.492 E267.338
G1 X133.705 Y171.611 E267.393
G1 X134.129 E267.397
G1 X137.824 Y167.916 E267.446
G1 Y168.341 E267.45
G1 X134.553 Y171.611 E267.494
G1 X134.978 E267.498
G1 X137.824 Y168.765 E267.536
G1 Y169.189 E267.54
G1 X135.402 Y171.611 E267.572
G1 X135.826 E267.576
G1 X137.824 Y169.613 E267.602
G1 Y170.038 E267.606
G1 X136.25 Y171.611 E267.627
G1 X136.675 E267.631
G1 X137.824 Y170.462 E267.647
G1 Y170.886 E267.651
G1 X137.099 Y171.611 E267.66
G1 X137.523 E267.664
G1 X137.824 Y171.31 E267.668
G1 F1500 E260.668
;Layer : 2 of 345
M106 S255
;rapid-dry
G1 F15000
G0 X136.293 Y51.845 Z0.3
G1 F1500 E267.668
;bead-perimeter_outer
G1 X138.6 Y52.648 F1080 E267.68
G1 X138.607 Y172.391 E268.243
G1 X81.393 E268.512
G1 X81.4 Y52.648 E269.075
G1 X83.707 Y51.845 E269.087
G1 X86.137 Y51.082 E269.099
G1 X88.589 Y50.393 E269.111
G1 X91.061 Y49.779 E269.122
G1 X93.55 Y49.241 E269.134
G1 X96.056 Y48.779 E269.146
G1 X98.573 Y48.393 E269.158
G1 X101.102 Y48.083 E269.17
G1 X103.638 Y47.851 E269.182
G1 X106.181 Y47.696 E269.194
G1 X108.726 Y47.619 E269.206
G1 X111.274 E269.218
G1 X113.539 Y47.687 E269.229
G1 X116.362 Y47.851 E269.242
G1 X118.898 Y48.083 E269.254
G1 X121.427 Y48.393 E269.266
G1 X123.944 Y48.779 E269.278
G1 X126.45 Y49.241 E269.29
G1 X128.665 Y49.72 E269.301
G1 X131.411 Y50.393 E269.314
G1 X133.863 Y51.082 E269.326
G1 X136.293 Y51.845 E269.338
;rapid-leaky
G1 F15000
G0 X136.208 Y52.102
;bead-perimeter_inner
G1 X138.33 Y52.84 F1560 E269.349
G1 X138.337 Y172.121 E269.91
G1 X81.663 E270.176
G1 X81.67 Y52.84 E270.737
G1 X83.792 Y52.102 E270.748
G1 X86.214 Y51.341 E270.76
G1 X88.658 Y50.654 E270.771
G1 X91.122 Y50.042 E270.783
G1 X93.604 Y49.506 E270.795
G1 X96.101 Y49.045 E270.807
G1 X98.61 Y48.66 E270.819
G1 X101.131 Y48.352 E270.831
G1 X103.659 Y48.12 E270.843
G1 X106.193 Y47.966 E270.855
G1 X108.73 Y47.889 E270.867
G1 X111.27 E270.879
G1 X113.531 Y47.957 E270.89
G1 X116.341 Y48.12 E270.903
G1 X118.869 Y48.352 E270.915
G1 X121.39 Y48.66 E270.927
G1 X123.899 Y49.045 E270.939
G1 X126.397 Y49.506 E270.951
G1 X128.608 Y49.983 E270.961
G1 X131.342 Y50.654 E270.974
G1 X133.786 Y51.341 E270.986
G1 X136.208 Y52.102 E270.998
;rapid-leaky
G1 F15000
G0 X136.123 Y52.358
;bead-perimeter_inner
G1 X138.06 Y53.032 F1560 E271.008
G1 X138.067 Y171.851 E271.567
G1 X81.933 E271.831
G1 X81.94 Y53.032 E272.389
G1 X83.877 Y52.358 E272.399
G1 X86.291 Y51.599 E272.411
G1 X88.727 Y50.915 E272.423
G1 X91.183 Y50.305 E272.435
G1 X93.657 Y49.771 E272.447
G1 X96.146 Y49.311 E272.459
G1 X98.647 Y48.928 E272.471
G1 X101.159 Y48.62 E272.482
G1 X103.679 Y48.389 E272.494
G1 X106.205 Y48.235 E272.506
G1 X108.734 Y48.159 E272.518
G1 X111.266 E272.53
G1 X113.522 Y48.227 E272.541
G1 X116.321 Y48.389 E272.554
G1 X118.841 Y48.62 E272.566
G1 X121.353 Y48.928 E272.578
G1 X123.854 Y49.311 E272.59
G1 X126.344 Y49.771 E272.601
G1 X128.551 Y50.247 E272.612
G1 X131.273 Y50.915 E272.625
G1 X133.709 Y51.599 E272.637
G1 X136.123 Y52.358 E272.649
;rapid-leaky
G1 F15000
G0 X137.574 Y53.117
;bead-solid_infill
G1 X137.82 Y53.363 F3600 E272.651
G1 Y53.787 E272.653
G1 X136.924 Y52.891 E272.659
G1 X136.85 Y52.865
G1 X136.273 Y52.664 E272.662
G1 X137.82 Y54.211 E272.672
G1 Y54.636 E272.674
G1 X135.643 Y52.459 E272.689
G1 X135.025 Y52.264 E272.692
G1 X137.82 Y55.06 E272.71
G1 Y55.484 E272.712
G1 X134.406 Y52.07 E272.735
G1 X133.787 Y51.876 E272.738
G1 X137.82 Y55.908 E272.765
G1 Y56.333 E272.767
G1 X133.191 Y51.703 E272.798
G1 X132.601 Y51.537 E272.801
G1 X137.82 Y56.757 E272.835
G1 Y57.181 E272.837
G1 X132.011 Y51.372 E272.876
G1 X131.421 Y51.206 E272.879
G1 X137.82 Y57.606 E272.921
G1 Y58.03 E272.923
G1 X130.849 Y51.058 E272.97
G1 X130.286 Y50.92 E272.972
G1 X137.82 Y58.454 E273.022
G1 Y58.878 E273.025
G1 X129.724 Y50.782 E273.078
G1 X129.162 Y50.644 E273.081
G1 X137.82 Y59.303 E273.139
G1 Y59.727 E273.141
G1 X128.6 Y50.506 E273.202
G1 X128.497 Y50.481
G1 X128.055 Y50.386 E273.205
G1 X137.82 Y60.151 E273.27
G1 Y60.576 E273.272
G1 X127.514 Y50.269 E273.34
G1 X126.973 Y50.152 E273.343
G1 X137.82 Y61 E273.415
G1 Y61.424 E273.417
G1 X126.431 Y50.035 E273.493
G1 X126.296 Y50.006
G1 X125.906 Y49.934 E273.495
G1 X137.821 Y61.848 E273.574
G1 Y62.273 E273.576
G1 X125.386 Y49.838 E273.659
G1 X124.866 Y49.742 E273.661
G1 X137.821 Y62.697 E273.748
G1 Y63.121 E273.75
G1 X124.345 Y49.646 E273.839
G1 X124.21 Y49.621 E273.84
G1 X123.825 Y49.55 E273.842
G1 X137.821 Y63.546 E273.935
G1 Y63.97 E273.937
G1 X123.324 Y49.473 E274.033
G1 X122.822 Y49.396 E274.036
G1 X137.821 Y64.394 E274.135
G1 Y64.819 E274.137
G1 X122.321 Y49.319 E274.24
G1 X121.82 Y49.242 E274.243
G1 X137.821 Y65.243 E274.349
G1 Y65.667 E274.351
G1 X121.319 Y49.165 E274.461
G1 X120.835 Y49.106 E274.463
G1 X137.821 Y66.091 E274.576
G1 Y66.516 E274.578
G1 X120.352 Y49.047 E274.694
G1 X119.869 Y48.988 E274.697
G1 X137.821 Y66.94 E274.816
G1 Y67.364 E274.818
G1 X119.385 Y48.929 E274.941
G1 X118.902 Y48.869 E274.943
G1 X137.821 Y67.789 E275.069
G1 Y68.213 E275.071
G1 X118.432 Y48.824 E275.2
G1 X117.965 Y48.781 E275.202
G1 X137.821 Y68.637 E275.334
G1 Y69.061 E275.336
G1 X117.498 Y48.738 E275.471
G1 X117.46 Y48.735
G1 X117.03 Y48.695 E275.473
G1 X137.821 Y69.486 E275.612
G1 Y69.91 E275.614
G1 X116.563 Y48.652 E275.755
G1 X116.303 Y48.628 E275.756
G1 X116.104 Y48.617 E275.757
G1 X137.821 Y70.334 E275.902
G1 Y70.759 E275.904
G1 X115.653 Y48.591 E276.051
G1 X115.203 Y48.565 E276.053
G1 X137.821 Y71.183 E276.204
G1 Y71.607 E276.206
G1 X114.752 Y48.538 E276.359
G1 X114.302 Y48.512 E276.361
G1 X137.821 Y72.031 E276.518
G1 Y72.456 E276.52
G1 X113.852 Y48.486 E276.679
G1 X113.511 Y48.466 E276.681
G1 X113.404 Y48.463
G1 X137.821 Y72.88 E276.843
G1 Y73.304 E276.845
G1 X112.967 Y48.45 E277.011
G1 X112.53 Y48.437 E277.013
G1 X137.821 Y73.729 E277.181
G1 Y74.153 E277.183
G1 X112.092 Y48.424 E277.354
G1 X111.655 Y48.411 E277.356
G1 X137.821 Y74.577 E277.53
G1 Y75.001 E277.532
G1 X111.219 Y48.399 E277.709
G1 X110.795 E277.711
G1 X137.821 Y75.426 E277.891
G1 Y75.85 E277.893
G1 X110.37 Y48.399 E278.075
G1 X109.946 E278.077
G1 X137.821 Y76.274 E278.263
G1 Y76.699 E278.265
G1 X109.522 Y48.399 E278.453
G1 X109.098 E278.455
G1 X137.821 Y77.123 E278.646
G1 Y77.547 E278.648
G1 X108.675 Y48.401 E278.842
G1 X108.263 Y48.413 E278.844
G1 X137.821 Y77.971 E279.04
G1 X137.822 Y78.396 E279.042
G1 X107.852 Y48.426 E279.242
G1 X107.44 Y48.438 E279.244
G1 X137.822 Y78.82 E279.446
G1 Y79.244 E279.448
G1 X107.028 Y48.451 E279.652
G1 X106.616 Y48.463 E279.654
G1 X137.822 Y79.669 E279.862
G1 Y80.093 E279.864
G1 X106.205 Y48.476 E280.074
G1 X105.805 Y48.5 E280.076
G1 X137.822 Y80.517 E280.289
G1 Y80.942 E280.291
G1 X105.405 Y48.525 E280.507
G1 X105.005 Y48.549 E280.508
G1 X137.822 Y81.366 E280.727
G1 Y81.79 E280.729
G1 X104.605 Y48.573 E280.95
G1 X104.205 Y48.598 E280.951
G1 X137.822 Y82.214 E281.175
G1 Y82.639 E281.177
G1 X103.805 Y48.622 E281.403
G1 X103.698 Y48.628 E281.404
G1 X103.413 Y48.655 E281.405
G1 X137.822 Y83.063 E281.634
G1 Y83.487 E281.636
G1 X103.025 Y48.69 E281.867
G1 X102.738 Y48.716 E281.869
G1 X102.636 Y48.726
G1 X137.822 Y83.912 E282.103
G1 Y84.336 E282.105
G1 X102.247 Y48.761 E282.342
G1 X101.859 Y48.797 E282.344
G1 X137.822 Y84.76 E282.583
G1 Y85.184 E282.585
G1 X101.47 Y48.833 E282.827
G1 X101.185 Y48.859 E282.828
G1 X101.084 Y48.871
G1 X137.822 Y85.609 E283.073
G1 Y86.033 E283.075
G1 X100.706 Y48.917 E283.322
G1 X100.328 Y48.964 E283.323
G1 X137.822 Y86.457 E283.573
G1 Y86.882 E283.575
G1 X99.95 Y49.01 E283.827
G1 X99.572 Y49.056 E283.828
G1 X137.822 Y87.306 E284.083
G1 Y87.73 E284.085
G1 X99.194 Y49.102 E284.342
G1 X98.816 Y49.149 E284.343
G1 X137.822 Y88.154 E284.603
G1 Y88.579 E284.605
G1 X98.445 Y49.201 E284.867
G1 X98.077 Y49.258 E284.868
G1 X137.822 Y89.003 E285.133
G1 Y89.427 E285.135
G1 X97.709 Y49.314 E285.402
G1 X97.341 Y49.371 E285.403
G1 X137.822 Y89.852 E285.672
G1 Y90.276 E285.674
G1 X96.974 Y49.427 E285.946
G1 X96.606 Y49.484 E285.948
G1 X137.822 Y90.7 E286.222
G1 Y91.124 E286.224
G1 X96.238 Y49.54 E286.501
G1 X96.186 Y49.548
G1 X95.878 Y49.605 E286.502
G1 X137.822 Y91.549 E286.781
G1 Y91.973 E286.783
G1 X95.52 Y49.671 E287.065
G1 X95.162 Y49.737 E287.066
G1 X137.822 Y92.397 E287.35
G1 Y92.822 E287.352
G1 X94.804 Y49.803 E287.638
G1 X94.446 Y49.869 E287.64
G1 X137.822 Y93.246 E287.928
G1 Y93.67 E287.93
G1 X94.087 Y49.935 E288.221
G1 X93.729 Y50.001 E288.223
G1 X137.822 Y94.094 E288.516
G1 Y94.519 E288.518
G1 X93.38 Y50.076 E288.814
G1 X93.031 Y50.151 E288.815
G1 X137.822 Y94.943 E289.113
G1 Y95.367 E289.115
G1 X92.682 Y50.227 E289.415
G1 X92.333 Y50.302 E289.417
G1 X137.823 Y95.792 E289.72
G1 Y96.216 E289.722
G1 X91.984 Y50.378 E290.026
G1 X91.635 Y50.453 E290.028
G1 X137.823 Y96.64 E290.335
G1 Y97.064 E290.337
G1 X91.287 Y50.528 E290.647
G1 X91.237 Y50.539
G1 X90.945 Y50.612 E290.648
G1 X137.823 Y97.489 E290.96
G1 Y97.913 E290.962
G1 X90.606 Y50.696 E291.276
G1 X90.266 Y50.78 E291.278
G1 X137.823 Y98.337 E291.594
G1 Y98.762 E291.596
G1 X89.926 Y50.865 E291.915
G1 X89.586 Y50.949 E291.916
G1 X137.823 Y99.186 E292.237
G1 Y99.61 E292.239
G1 X89.246 Y51.034 E292.562
G1 X88.906 Y51.118 E292.564
G1 X137.823 Y100.035 E292.889
G1 Y100.459 E292.891
G1 X88.572 Y51.208 E293.219
G1 X88.241 Y51.301 E293.22
G1 X137.823 Y100.883 E293.55
G1 Y101.307 E293.552
G1 X87.91 Y51.394 E293.884
G1 X87.578 Y51.487 E293.886
G1 X137.823 Y101.732 E294.22
G1 Y102.156 E294.222
G1 X87.247 Y51.58 E294.558
G1 X86.916 Y51.673 E294.56
G1 X137.823 Y102.58 E294.898
G1 Y103.005 E294.9
G1 X86.585 Y51.766 E295.241
G1 X86.359 Y51.829 E295.242
G1 X86.256 Y51.862 E295.243
G1 X137.823 Y103.429 E295.586
G1 Y103.853 E295.588
G1 X85.933 Y51.963 E295.933
G1 X85.61 Y52.065 E295.934
G1 X137.823 Y104.277 E296.282
G1 Y104.702 E296.284
G1 X85.288 Y52.166 E296.633
G1 X84.965 Y52.268 E296.635
G1 X137.823 Y105.126 E296.986
G1 Y105.55 E296.988
G1 X84.642 Y52.369 E297.342
G1 X84.319 Y52.471 E297.343
G1 X137.823 Y105.975 E297.699
G1 Y106.399 E297.701
G1 X83.996 Y52.572 E298.059
G1 X83.952 Y52.586
G1 X83.681 Y52.68 E298.061
G1 X137.823 Y106.823 E298.421
G1 Y107.247 E298.423
G1 X83.366 Y52.79 E298.785
G1 X83.051 Y52.899 E298.787
G1 X137.823 Y107.672 E299.151
G1 Y108.096 E299.153
G1 X82.736 Y53.009 E299.519
G1 X82.421 Y53.118 E299.521
G1 X137.823 Y108.52 E299.889
G1 Y108.945 E299.891
G1 X82.18 Y53.301 E300.261
G1 Y53.726 E300.263
G1 X137.823 Y109.369 E300.633
G1 Y109.793 E300.635
G1 X82.18 Y54.15 E301.005
G1 Y54.574 E301.007
G1 X137.823 Y110.217 E301.377
G1 Y110.642 E301.379
G1 X82.18 Y54.998 E301.749
G1 Y55.422 E301.751
G1 X137.823 Y111.066 E302.121
G1 Y111.49 E302.123
G1 X82.18 Y55.847 E302.494
G1 Y56.271 E302.496
G1 X137.823 Y111.915 E302.866
G1 X137.824 Y112.339 E302.868
G1 X82.18 Y56.695 E303.238
G1 Y57.119 E303.24
G1 X137.824 Y112.763 E303.61
G1 Y113.187 E303.612
G1 X82.18 Y57.544 E303.982
G1 Y57.968 E303.984
G1 X137.824 Y113.612 E304.354
G1 Y114.036 E304.356
G1 X82.18 Y58.392 E304.726
G1 Y58.816 E304.728
G1 X137.824 Y114.46 E305.098
G1 Y114.885 E305.1
G1 X82.18 Y59.241 E305.47
G1 Y59.665 E305.472
G1 X137.824 Y115.309 E305.842
G1 Y115.733 E305.844
G1 X82.18 Y60.089 E306.214
G1 Y60.513 E306.216
G1 X137.824 Y116.158 E306.586
G1 Y116.582 E306.588
G1 X82.18 Y60.938 E306.958
G1 Y61.362 E306.96
G1 X137.824 Y117.006 E307.33
G1 Y117.43 E307.332
G1 X82.179 Y61.786 E307.702
G1 Y62.21 E307.704
G1 X137.824 Y117.855 E308.074
G1 Y118.279 E308.076
G1 X82.179 Y62.635 E308.446
G1 Y63.059 E308.448
G1 X137.824 Y118.703 E308.819
G1 Y119.128 E308.821
G1 X82.179 Y63.483 E309.191
G1 Y63.907 E309.193
G1 X137.824 Y119.552 E309.563
G1 Y119.976 E309.565
G1 X82.179 Y64.331 E309.935
G1 Y64.756 E309.937
G1 X137.824 Y120.4 E310.307
G1 Y120.825 E310.309
G1 X82.179 Y65.18 E310.679
G1 Y65.604 E310.681
G1 X137.824 Y121.249 E311.051
G1 Y121.673 E311.053
G1 X82.179 Y66.028 E311.423
G1 Y66.453 E311.425
G1 X137.824 Y122.098 E311.795
G1 Y122.522 E311.797
G1 X82.179 Y66.877 E312.167
G1 Y67.301 E312.169
G1 X137.824 Y122.946 E312.539
G1 Y123.37 E312.541
G1 X82.179 Y67.725 E312.911
G1 Y68.15 E312.913
G1 X137.824 Y123.795 E313.283
G1 Y124.219 E313.285
G1 X82.179 Y68.574 E313.655
G1 Y68.998 E313.657
G1 X137.824 Y124.643 E314.027
G1 Y125.068 E314.029
G1 X82.179 Y69.422 E314.399
G1 Y69.847 E314.401
G1 X137.824 Y125.492 E314.772
G1 Y125.916 E314.774
G1 X82.179 Y70.271 E315.144
G1 Y70.695 E315.146
G1 X137.824 Y126.34 E315.516
G1 Y126.765 E315.518
G1 X82.179 Y71.119 E315.888
G1 Y71.544 E315.89
G1 X137.824 Y127.189 E316.26
G1 Y127.613 E316.262
G1 X82.179 Y71.968 E316.632
G1 Y72.392 E316.634
G1 X137.824 Y128.038 E317.004
G1 Y128.462 E317.006
G1 X82.179 Y72.816 E317.376
G1 Y73.241 E317.378
G1 X137.824 Y128.886 E317.748
G1 Y129.31 E317.75
G1 X82.179 Y73.665 E318.12
G1 Y74.089 E318.122
G1 X137.825 Y129.735 E318.492
G1 Y130.159 E318.494
G1 X82.179 Y74.513 E318.864
G1 Y74.937 E318.866
G1 X137.825 Y130.583 E319.236
G1 Y131.008 E319.238
G1 X82.179 Y75.362 E319.608
G1 Y75.786 E319.61
G1 X137.825 Y131.432 E319.98
G1 Y131.856 E319.982
G1 X82.179 Y76.21 E320.353
G1 Y76.634 E320.355
G1 X137.825 Y132.28 E320.725
G1 Y132.705 E320.727
G1 X82.179 Y77.059 E321.097
G1 Y77.483 E321.099
G1 X137.825 Y133.129 E321.469
G1 Y133.553 E321.471
G1 X82.179 Y77.907 E321.841
G1 Y78.331 E321.843
G1 X137.825 Y133.978 E322.213
G1 Y134.402 E322.215
G1 X82.178 Y78.756 E322.585
G1 Y79.18 E322.587
G1 X137.825 Y134.826 E322.957
G1 Y135.251 E322.959
G1 X82.178 Y79.604 E323.329
G1 Y80.028 E323.331
G1 X137.825 Y135.675 E323.701
G1 Y136.099 E323.703
G1 X82.178 Y80.453 E324.073
G1 Y80.877 E324.075
G1 X137.825 Y136.523 E324.445
G1 Y136.948 E324.447
G1 X82.178 Y81.301 E324.817
G1 Y81.725 E324.819
G1 X137.825 Y137.372 E325.19
G1 Y137.796 E325.191
G1 X82.178 Y82.15 E325.562
G1 Y82.574 E325.564
G1 X137.825 Y138.221 E325.934
G1 Y138.645 E325.936
G1 X82.178 Y82.998 E326.306
G1 Y83.422 E326.308
G1 X137.825 Y139.069 E326.678
G1 Y139.493 E326.68
G1 X82.178 Y83.846 E327.05
G1 Y84.271 E327.052
G1 X137.825 Y139.918 E327.422
G1 Y140.342 E327.424
G1 X82.178 Y84.695 E327.794
G1 Y85.119 E327.796
G1 X137.825 Y140.766 E328.166
G1 Y141.191 E328.168
G1 X82.178 Y85.543 E328.538
G1 Y85.968 E328.54
G1 X137.825 Y141.615 E328.91
G1 Y142.039 E328.912
G1 X82.178 Y86.392 E329.282
G1 Y86.816 E329.284
G1 X137.825 Y142.463 E329.654
G1 Y142.888 E329.656
G1 X82.178 Y87.24 E330.027
G1 Y87.665 E330.029
G1 X137.825 Y143.312 E330.399
G1 Y143.736 E330.401
G1 X82.178 Y88.089 E330.771
G1 Y88.513 E330.773
G1 X137.825 Y144.161 E331.143
G1 Y144.585 E331.145
G1 X82.178 Y88.937 E331.515
G1 Y89.362 E331.517
G1 X137.825 Y145.009 E331.887
G1 Y145.433 E331.889
G1 X82.178 Y89.786 E332.259
G1 Y90.21 E332.261
G1 X137.825 Y145.858 E332.631
G1 X137.826 Y146.282 E332.633
G1 X82.178 Y90.634 E333.003
G1 Y91.059 E333.005
G1 X137.826 Y146.706 E333.375
G1 Y147.131 E333.377
G1 X82.178 Y91.483 E333.747
G1 Y91.907 E333.749
G1 X137.826 Y147.555 E334.119
G1 Y147.979 E334.121
G1 X82.178 Y92.331 E334.492
G1 Y92.756 E334.493
G1 X137.826 Y148.403 E334.864
G1 Y148.828 E334.866
G1 X82.178 Y93.18 E335.236
G1 Y93.604 E335.238
G1 X137.826 Y149.252 E335.608
G1 Y149.676 E335.61
G1 X82.178 Y94.028 E335.98
G1 Y94.452 E335.982
G1 X137.826 Y150.101 E336.352
G1 Y150.525 E336.354
G1 X82.178 Y94.877 E336.724
G1 Y95.301 E336.726
G1 X137.826 Y150.949 E337.096
G1 Y151.373 E337.098
G1 X82.177 Y95.725 E337.468
G1 Y96.149 E337.47
G1 X137.826 Y151.798 E337.84
G1 Y152.222 E337.842
G1 X82.177 Y96.574 E338.212
G1 Y96.998 E338.214
G1 X137.826 Y152.646 E338.584
G1 Y153.071 E338.586
G1 X82.177 Y97.422 E338.957
G1 Y97.846 E338.959
G1 X137.826 Y153.495 E339.329
G1 Y153.919 E339.331
G1 X82.177 Y98.271 E339.701
G1 Y98.695 E339.703
G1 X137.826 Y154.344 E340.073
G1 Y154.768 E340.075
G1 X82.177 Y99.119 E340.445
G1 Y99.543 E340.447
G1 X137.826 Y155.192 E340.817
G1 Y155.616 E340.819
G1 X82.177 Y99.968 E341.189
G1 Y100.392 E341.191
G1 X137.826 Y156.041 E341.561
G1 Y156.465 E341.563
G1 X82.177 Y100.816 E341.933
G1 Y101.24 E341.935
G1 X137.826 Y156.889 E342.305
G1 Y157.314 E342.307
G1 X82.177 Y101.665 E342.677
G1 Y102.089 E342.679
G1 X137.826 Y157.738 E343.05
G1 Y158.162 E343.052
G1 X82.177 Y102.513 E343.422
G1 Y102.937 E343.424
G1 X137.826 Y158.586 E343.794
G1 Y159.011 E343.796
G1 X82.177 Y103.361 E344.166
G1 Y103.786 E344.168
G1 X137.826 Y159.435 E344.538
G1 Y159.859 E344.54
G1 X82.177 Y104.21 E344.91
G1 Y104.634 E344.912
G1 X137.826 Y160.284 E345.282
G1 Y160.708 E345.284
G1 X82.177 Y105.058 E345.654
G1 Y105.483 E345.656
G1 X137.826 Y161.132 E346.026
G1 Y161.556 E346.028
G1 X82.177 Y105.907 E346.398
G1 Y106.331 E346.4
G1 X137.826 Y161.981 E346.77
G1 Y162.405 E346.772
G1 X82.177 Y106.755 E347.143
G1 Y107.18 E347.145
G1 X137.826 Y162.829 E347.515
G1 Y163.254 E347.517
G1 X82.177 Y107.604 E347.887
G1 Y108.028 E347.889
G1 X137.827 Y163.678 E348.259
G1 Y164.102 E348.261
G1 X82.177 Y108.452 E348.631
G1 Y108.877 E348.633
G1 X137.827 Y164.526 E349.003
G1 Y164.951 E349.005
G1 X82.177 Y109.301 E349.375
G1 Y109.725 E349.377
G1 X137.827 Y165.375 E349.747
G1 Y165.799 E349.749
G1 X82.177 Y110.149 E350.119
G1 Y110.574 E350.121
G1 X137.827 Y166.224 E350.491
G1 Y166.648 E350.493
G1 X82.177 Y110.998 E350.864
G1 Y111.422 E350.866
G1 X137.827 Y167.072 E351.236
G1 Y167.496 E351.238
G1 X82.177 Y111.846 E351.608
G1 Y112.271 E351.61
G1 X137.827 Y167.921 E351.98
G1 Y168.345 E351.982
G1 X82.176 Y112.695 E352.352
G1 Y113.119 E352.354
G1 X137.827 Y168.769 E352.724
G1 Y169.194 E352.726
G1 X82.176 Y113.543 E353.096
G1 Y113.967 E353.098
G1 X137.827 Y169.618 E353.468
G1 Y170.042 E353.47
G1 X82.176 Y114.392 E353.84
G1 Y114.816 E353.842
G1 X137.827 Y170.466 E354.212
G1 Y170.891 E354.214
G1 X82.176 Y115.24 E354.585
G1 Y115.664 E354.587
G1 X137.827 Y171.315 E354.957
G1 Y171.611 E354.958
G1 X137.699 E354.959
G1 X82.176 Y116.089 E355.328
G1 Y116.513 E355.33
G1 X137.274 Y171.611 E355.696
G1 X136.85 E355.698
G1 X82.176 Y116.937 E356.062
G1 Y117.361 E356.064
G1 X136.426 Y171.611 E356.425
G1 X136.002 E356.427
G1 X82.176 Y117.786 E356.785
G1 Y118.21 E356.787
G1 X135.577 Y171.611 E357.142
G1 X135.153 E357.144
G1 X82.176 Y118.634 E357.496
G1 Y119.058 E357.498
G1 X134.729 Y171.611 E357.848
G1 X134.305 E357.85
G1 X82.176 Y119.483 E358.196
G1 Y119.907 E358.198
G1 X133.88 Y171.611 E358.542
G1 X133.456 E358.544
G1 X82.176 Y120.331 E358.885
G1 Y120.755 E358.887
G1 X133.032 Y171.611 E359.225
G1 X132.607 E359.227
G1 X82.176 Y121.18 E359.563
G1 Y121.604 E359.565
G1 X132.183 Y171.611 E359.897
G1 X131.759 E359.899
G1 X82.176 Y122.028 E360.229
G1 Y122.452 E360.231
G1 X131.335 Y171.611 E360.558
G1 X130.91 E360.56
G1 X82.176 Y122.876 E360.884
G1 Y123.301 E360.886
G1 X130.486 Y171.611 E361.207
G1 X130.062 E361.209
G1 X82.176 Y123.725 E361.528
G1 Y124.149 E361.53
G1 X129.638 Y171.611 E361.846
G1 X129.213 E361.848
G1 X82.176 Y124.573 E362.16
G1 Y124.998 E362.162
G1 X128.789 Y171.611 E362.472
G1 X128.365 E362.474
G1 X82.176 Y125.422 E362.782
G1 Y125.846 E362.784
G1 X127.941 Y171.611 E363.088
G1 X127.516 E363.09
G1 X82.176 Y126.27 E363.391
G1 Y126.695 E363.393
G1 X127.092 Y171.611 E363.692
G1 X126.668 E363.694
G1 X82.176 Y127.119 E363.99
G1 Y127.543 E363.992
G1 X126.244 Y171.611 E364.285
G1 X125.819 E364.287
G1 X82.176 Y127.967 E364.577
G1 Y128.392 E364.579
G1 X125.395 Y171.611 E364.867
G1 X124.971 E364.869
G1 X82.176 Y128.816 E365.153
G1 Y129.24 E365.155
G1 X124.546 Y171.611 E365.437
G1 X124.122 E365.439
G1 X82.175 Y129.664 E365.718
G1 Y130.089 E365.72
G1 X123.698 Y171.611 E365.996
G1 X123.274 E365.998
G1 X82.175 Y130.513 E366.272
G1 Y130.937 E366.274
G1 X122.849 Y171.611 E366.544
G1 X122.425 E366.546
G1 X82.175 Y131.361 E366.814
G1 Y131.785 E366.816
G1 X122.001 Y171.611 E367.081
G1 X121.577 E367.083
G1 X82.175 Y132.21 E367.345
G1 Y132.634 E367.347
G1 X121.152 Y171.611 E367.606
G1 X120.728 E367.608
G1 X82.175 Y133.058 E367.864
G1 Y133.482 E367.866
G1 X120.304 Y171.611 E368.12
G1 X119.88 E368.122
G1 X82.175 Y133.907 E368.373
G1 Y134.331 E368.375
G1 X119.455 Y171.611 E368.622
G1 X119.031 E368.624
G1 X82.175 Y134.755 E368.87
G1 Y135.179 E368.872
G1 X118.607 Y171.611 E369.114
G1 X118.183 E369.116
G1 X82.175 Y135.604 E369.355
G1 Y136.028 E369.357
G1 X117.758 Y171.611 E369.594
G1 X117.334 E369.596
G1 X82.175 Y136.452 E369.83
G1 Y136.876 E369.832
G1 X116.91 Y171.611 E370.063
G1 X116.485 E370.065
G1 X82.175 Y137.301 E370.293
G1 Y137.725 E370.295
G1 X116.061 Y171.611 E370.52
G1 X115.637 E370.522
G1 X82.175 Y138.149 E370.745
G1 Y138.573 E370.747
G1 X115.213 Y171.611 E370.967
G1 X114.788 E370.969
G1 X82.175 Y138.998 E371.185
G1 Y139.422 E371.187
G1 X114.364 Y171.611 E371.402
G1 X113.94 E371.404
G1 X82.175 Y139.846 E371.615
G1 Y140.27 E371.617
G1 X113.516 Y171.611 E371.825
G1 X113.091 E371.827
G1 X82.175 Y140.695 E372.033
G1 Y141.119 E372.035
G1 X112.667 Y171.611 E372.238
G1 X112.243 E372.24
G1 X82.175 Y141.543 E372.44
G1 Y141.967 E372.442
G1 X111.819 Y171.611 E372.639
G1 X111.394 E372.641
G1 X82.175 Y142.391 E372.835
G1 Y142.816 E372.837
G1 X110.97 Y171.611 E373.029
G1 X110.546 E373.031
G1 X82.175 Y143.24 E373.219
G1 Y143.664 E373.221
G1 X110.121 Y171.611 E373.407
G1 X109.697 E373.409
G1 X82.175 Y144.088 E373.592
G1 Y144.513 E373.594
G1 X109.273 Y171.611 E373.774
G1 X108.849 E373.776
G1 X82.175 Y144.937 E373.954
G1 Y145.361 E373.956
G1 X108.424 Y171.611 E374.13
G1 X108 E374.132
G1 X82.175 Y145.785 E374.304
G1 Y146.21 E374.306
G1 X107.576 Y171.611 E374.475
G1 X107.152 E374.477
G1 X82.174 Y146.634 E374.643
G1 Y147.058 E374.645
G1 X106.727 Y171.611 E374.808
G1 X106.303 E374.81
G1 X82.174 Y147.482 E374.971
G1 Y147.907 E374.973
G1 X105.879 Y171.611 E375.13
G1 X105.455 E375.132
G1 X82.174 Y148.331 E375.287
G1 Y148.755 E375.289
G1 X105.03 Y171.611 E375.441
G1 X104.606 E375.443
G1 X82.174 Y149.179 E375.592
G1 Y149.604 E375.594
G1 X104.182 Y171.611 E375.741
G1 X103.758 E375.743
G1 X82.174 Y150.028 E375.886
G1 Y150.452 E375.888
G1 X103.333 Y171.611 E376.029
G1 X102.909 E376.031
G1 X82.174 Y150.876 E376.169
G1 Y151.3 E376.171
G1 X102.485 Y171.611 E376.306
G1 X102.06 E376.308
G1 X82.174 Y151.725 E376.44
G1 Y152.149 E376.442
G1 X101.636 Y171.611 E376.572
G1 X101.212 E376.574
G1 X82.174 Y152.573 E376.7
G1 Y152.997 E376.702
G1 X100.788 Y171.611 E376.826
G1 X100.363 E376.828
G1 X82.174 Y153.422 E376.949
G1 Y153.846 E376.951
G1 X99.939 Y171.611 E377.069
G1 X99.515 E377.071
G1 X82.174 Y154.27 E377.187
G1 Y154.694 E377.189
G1 X99.091 Y171.611 E377.301
G1 X98.666 E377.303
G1 X82.174 Y155.119 E377.413
G1 Y155.543 E377.415
G1 X98.242 Y171.611 E377.522
G1 X97.818 E377.524
G1 X82.174 Y155.967 E377.628
G1 Y156.391 E377.63
G1 X97.394 Y171.611 E377.731
G1 X96.969 E377.733
G1 X82.174 Y156.816 E377.831
G1 Y157.24 E377.833
G1 X96.545 Y171.611 E377.929
G1 X96.121 E377.931
G1 X82.174 Y157.664 E378.024
G1 Y158.088 E378.026
G1 X95.697 Y171.611 E378.115
G1 X95.272 E378.117
G1 X82.174 Y158.513 E378.205
G1 Y158.937 E378.207
G1 X94.848 Y171.611 E378.291
G1 X94.424 E378.293
G1 X82.174 Y159.361 E378.374
G1 Y159.785 E378.376
G1 X93.999 Y171.611 E378.455
G1 X93.575 E378.457
G1 X82.174 Y160.21 E378.533
G1 Y160.634 E378.535
G1 X93.151 Y171.611 E378.608
G1 X92.727 E378.61
G1 X82.174 Y161.058 E378.68
G1 Y161.482 E378.682
G1 X92.302 Y171.611 E378.749
G1 X91.878 E378.751
G1 X82.174 Y161.906 E378.816
G1 Y162.331 E378.818
G1 X91.454 Y171.611 E378.88
G1 X91.03 E378.882
G1 X82.174 Y162.755 E378.94
G1 Y163.179 E378.942
G1 X90.605 Y171.611 E378.999
G1 X90.181 E379.001
G1 X82.173 Y163.603 E379.054
G1 Y164.028 E379.056
G1 X89.757 Y171.611 E379.106
G1 X89.333 E379.108
G1 X82.173 Y164.452 E379.156
G1 Y164.876 E379.158
G1 X88.908 Y171.611 E379.203
G1 X88.484 E379.205
G1 X82.173 Y165.3 E379.247
G1 Y165.725 E379.249
G1 X88.06 Y171.611 E379.288
G1 X87.635 E379.29
G1 X82.173 Y166.149 E379.326
G1 Y166.573 E379.328
G1 X87.211 Y171.611 E379.362
G1 X86.787 E379.364
G1 X82.173 Y166.997 E379.394
G1 Y167.422 E379.396
G1 X86.363 Y171.611 E379.424
G1 X85.938 E379.426
G1 X82.173 Y167.846 E379.451
G1 Y168.27 E379.453
G1 X85.514 Y171.611 E379.475
G1 X85.09 E379.477
G1 X82.173 Y168.694 E379.497
G1 Y169.119 E379.499
G1 X84.666 Y171.611 E379.515
G1 X84.241 E379.517
G1 X82.173 Y169.543 E379.531
G1 Y169.967 E379.533
G1 X83.817 Y171.611 E379.544
G1 X83.393 E379.546
G1 X82.173 Y170.391 E379.554
G1 Y170.815 E379.556
G1 X82.969 Y171.611 E379.561
G1 X82.544 E379.563
G1 X82.173 Y171.24 E379.566
G1 F1500 E372.566
;Layer : 3 of 345
;rapid-dry
G1 F15000
G0 X138.611 Y172.391 Z0.4
G1 F1500 E379.566
;bead-perimeter_outer
G1 X81.389 F1080 E379.835
G1 Y62.191 E380.353
G1 X81.4
G1 Y52.648 E380.398
G1 X83.707 Y51.845 E380.41
G1 X86.137 Y51.082 E380.422
G1 X88.589 Y50.393 E380.434
G1 X91.061 Y49.779 E380.445
G1 X93.55 Y49.241 E380.457
G1 X96.056 Y48.779 E380.469
G1 X98.573 Y48.393 E380.481
G1 X101.102 Y48.083 E380.493
G1 X103.638 Y47.851 E380.505
G1 X106.181 Y47.696 E380.517
G1 X108.726 Y47.619 E380.529
G1 X111.274 E380.541
G1 X113.397 Y47.683 E380.551
G1 X113.819 Y47.696 E380.553
G1 X116.362 Y47.851 E380.565
G1 X118.898 Y48.083 E380.577
G1 X121.427 Y48.393 E380.589
G1 X123.944 Y48.779 E380.601
G1 X126.45 Y49.241 E380.613
G1 X128.527 Y49.69 E380.623
G1 X128.939 Y49.779 E380.625
G1 X131.411 Y50.393 E380.637
G1 X133.863 Y51.082 E380.649
G1 X136.293 Y51.845 E380.661
G1 X138.6 Y52.648 E380.673
G1 Y62.191 E380.717
G1 X138.611 E380.718
G1 Y172.391 E381.236
;rapid-leaky
G1 F15000
G0 X138.341 Y172.121
;bead-perimeter_inner
G1 X81.659 F1560 E381.502
G1 Y62.461 E382.018
G1 X81.67
G1 Y52.84 E382.063
G1 X83.792 Y52.102 E382.074
G1 X86.214 Y51.341 E382.086
G1 X88.658 Y50.654 E382.098
G1 X91.122 Y50.042 E382.11
G1 X93.604 Y49.506 E382.122
G1 X96.101 Y49.045 E382.134
G1 X98.61 Y48.66 E382.146
G1 X101.131 Y48.352 E382.157
G1 X103.659 Y48.12 E382.169
G1 X106.193 Y47.966 E382.181
G1 X108.73 Y47.889 E382.193
G1 X111.27 E382.205
G1 X113.389 Y47.953 E382.215
G1 X113.807 Y47.966 E382.217
G1 X116.341 Y48.12 E382.229
G1 X118.869 Y48.352 E382.241
G1 X121.39 Y48.66 E382.253
G1 X123.899 Y49.045 E382.265
G1 X126.397 Y49.506 E382.277
G1 X128.47 Y49.954 E382.287
G1 X128.878 Y50.042 E382.289
G1 X131.342 Y50.654 E382.301
G1 X133.786 Y51.341 E382.313
G1 X136.208 Y52.102 E382.325
G1 X138.33 Y52.84 E382.335
G1 Y62.461 E382.38
G1 X138.341
G1 Y172.121 E382.896
;rapid-leaky
G1 F15000
G0 X138.071 Y171.851
;bead-perimeter_inner
G1 X81.929 F1560 E383.16
G1 Y62.731 E383.673
G1 X81.94
G1 Y53.032 E383.719
G1 X83.877 Y52.358 E383.729
G1 X86.291 Y51.599 E383.741
G1 X88.727 Y50.915 E383.752
G1 X91.183 Y50.305 E383.764
G1 X93.657 Y49.771 E383.776
G1 X96.146 Y49.311 E383.788
G1 X98.647 Y48.928 E383.8
G1 X101.159 Y48.62 E383.812
G1 X103.679 Y48.389 E383.824
G1 X106.205 Y48.235 E383.836
G1 X108.734 Y48.159 E383.848
G1 X111.266 E383.86
G1 X113.381 Y48.223 E383.869
G1 X113.794 Y48.235 E383.871
G1 X116.321 Y48.389 E383.883
G1 X118.841 Y48.62 E383.895
G1 X121.353 Y48.928 E383.907
G1 X123.854 Y49.311 E383.919
G1 X126.344 Y49.771 E383.931
G1 X128.413 Y50.217 E383.941
G1 X128.816 Y50.305 E383.943
G1 X131.273 Y50.915 E383.955
G1 X133.709 Y51.599 E383.967
G1 X136.123 Y52.358 E383.979
G1 X138.06 Y53.032 E383.988
G1 Y62.731 E384.034
G1 X138.071
G1 Y171.851 E384.547
;rapid-leaky
G1 F15000
G0 X137.831 Y171.303
;bead-solid_infill
G1 X137.523 Y171.611 F3600 E384.549
G1 X137.099 E384.551
G1 X137.831 Y170.879 E384.556
G1 Y170.455 E384.558
G1 X136.675 Y171.611 E384.566
G1 X136.25 E384.568
G1 X137.831 Y170.03 E384.578
G1 Y169.606 E384.58
G1 X135.826 Y171.611 E384.593
G1 X135.402 E384.595
G1 X137.831 Y169.182 E384.612
G1 Y168.758 E384.614
G1 X134.978 Y171.611 E384.633
G1 X134.553 E384.635
G1 X137.831 Y168.333 E384.656
G1 Y167.909 E384.658
G1 X134.129 Y171.611 E384.683
G1 X133.705 E384.685
G1 X137.831 Y167.485 E384.712
G1 Y167.061 E384.714
G1 X133.281 Y171.611 E384.745
G1 X132.856 E384.747
G1 X137.831 Y166.636 E384.78
G1 Y166.212 E384.782
G1 X132.432 Y171.611 E384.818
G1 X132.008 E384.82
G1 X137.831 Y165.788 E384.858
G1 Y165.364 E384.86
G1 X131.584 Y171.611 E384.902
G1 X131.159 E384.904
G1 X137.831 Y164.939 E384.948
G1 Y164.515 E384.95
G1 X130.735 Y171.611 E384.997
G1 X130.311 E384.999
G1 X137.831 Y164.091 E385.049
G1 Y163.666 E385.051
G1 X129.886 Y171.611 E385.104
G1 X129.462 E385.106
G1 X137.831 Y163.242 E385.162
G1 Y162.818 E385.164
G1 X129.038 Y171.611 E385.222
G1 X128.614 E385.224
G1 X137.831 Y162.394 E385.286
G1 Y161.969 E385.288
G1 X128.189 Y171.611 E385.352
G1 X127.765 E385.354
G1 X137.831 Y161.545 E385.421
G1 Y161.121 E385.423
G1 X127.341 Y171.611 E385.493
G1 X126.917 E385.495
G1 X137.831 Y160.697 E385.567
G1 Y160.272 E385.569
G1 X126.492 Y171.611 E385.645
G1 X126.068 E385.647
G1 X137.831 Y159.848 E385.725
G1 Y159.424 E385.727
G1 X125.644 Y171.611 E385.808
G1 X125.22 E385.81
G1 X137.831 Y159 E385.894
G1 Y158.575 E385.896
G1 X124.795 Y171.611 E385.982
G1 X124.371 E385.984
G1 X137.831 Y158.151 E386.074
G1 Y157.727 E386.076
G1 X123.947 Y171.611 E386.168
G1 X123.522 E386.17
G1 X137.831 Y157.303 E386.265
G1 Y156.878 E386.267
G1 X123.098 Y171.611 E386.365
G1 X122.674 E386.367
G1 X137.831 Y156.454 E386.468
G1 Y156.03 E386.47
G1 X122.25 Y171.611 E386.574
G1 X121.825 E386.576
G1 X137.831 Y155.605 E386.682
G1 Y155.181 E386.684
G1 X121.401 Y171.611 E386.793
G1 X120.977 E386.795
G1 X137.831 Y154.757 E386.908
G1 Y154.333 E386.91
G1 X120.553 Y171.611 E387.024
G1 X120.128 E387.026
G1 X137.831 Y153.908 E387.144
G1 Y153.484 E387.146
G1 X119.704 Y171.611 E387.267
G1 X119.28 E387.269
G1 X137.831 Y153.06 E387.392
G1 Y152.636 E387.394
G1 X118.856 Y171.611 E387.52
G1 X118.431 E387.522
G1 X137.831 Y152.211 E387.651
G1 Y151.787 E387.653
G1 X118.007 Y171.611 E387.785
G1 X117.583 E387.787
G1 X137.831 Y151.363 E387.922
G1 Y150.939 E387.924
G1 X117.159 Y171.611 E388.061
G1 X116.734 E388.063
G1 X137.831 Y150.514 E388.204
G1 Y150.09 E388.206
G1 X116.31 Y171.611 E388.349
G1 X115.886 E388.351
G1 X137.831 Y149.666 E388.497
G1 Y149.242 E388.499
G1 X115.461 Y171.611 E388.647
G1 X115.037 E388.649
G1 X137.831 Y148.817 E388.801
G1 Y148.393 E388.803
G1 X114.613 Y171.611 E388.957
G1 X114.189 E388.959
G1 X137.831 Y147.969 E389.117
G1 Y147.544 E389.119
G1 X113.764 Y171.611 E389.279
G1 X113.34 E389.281
G1 X137.831 Y147.12 E389.444
G1 Y146.696 E389.446
G1 X112.916 Y171.611 E389.611
G1 X112.492 E389.613
G1 X137.831 Y146.272 E389.782
G1 Y145.847 E389.784
G1 X112.067 Y171.611 E389.955
G1 X111.643 E389.957
G1 X137.831 Y145.423 E390.131
G1 Y144.999 E390.133
G1 X111.219 Y171.611 E390.31
G1 X110.795 E390.312
G1 X137.831 Y144.575 E390.492
G1 Y144.15 E390.494
G1 X110.37 Y171.611 E390.677
G1 X109.946 E390.679
G1 X137.831 Y143.726 E390.864
G1 Y143.302 E390.866
G1 X109.522 Y171.611 E391.054
G1 X109.098 E391.056
G1 X137.831 Y142.878 E391.247
G1 Y142.453 E391.249
G1 X108.673 Y171.611 E391.443
G1 X108.249 E391.445
G1 X137.831 Y142.029 E391.642
G1 Y141.605 E391.644
G1 X107.825 Y171.611 E391.844
G1 X107.4 E391.846
G1 X137.831 Y141.18 E392.048
G1 Y140.756 E392.05
G1 X106.976 Y171.611 E392.255
G1 X106.552 E392.257
G1 X137.831 Y140.332 E392.465
G1 Y139.908 E392.467
G1 X106.128 Y171.611 E392.678
G1 X105.703 E392.68
G1 X137.831 Y139.483 E392.894
G1 Y139.059 E392.896
G1 X105.279 Y171.611 E393.112
G1 X104.855 E393.114
G1 X137.831 Y138.635 E393.333
G1 Y138.211 E393.335
G1 X104.431 Y171.611 E393.558
G1 X104.006 E393.56
G1 X137.831 Y137.786 E393.785
G1 Y137.362 E393.787
G1 X103.582 Y171.611 E394.014
G1 X103.158 E394.016
G1 X137.831 Y136.938 E394.247
G1 Y136.514 E394.249
G1 X102.734 Y171.611 E394.482
G1 X102.309 E394.484
G1 X137.831 Y136.089 E394.721
G1 Y135.665 E394.723
G1 X101.885 Y171.611 E394.962
G1 X101.461 E394.964
G1 X137.831 Y135.241 E395.206
G1 Y134.817 E395.207
G1 X101.037 Y171.611 E395.452
G1 X100.612 E395.454
G1 X137.831 Y134.392 E395.702
G1 Y133.968 E395.704
G1 X100.188 Y171.611 E395.954
G1 X99.764 E395.956
G1 X137.831 Y133.544 E396.209
G1 Y133.119 E396.211
G1 X99.339 Y171.611 E396.467
G1 X98.915 E396.469
G1 X137.831 Y132.695 E396.728
G1 Y132.271 E396.73
G1 X98.491 Y171.611 E396.992
G1 X98.067 E396.994
G1 X137.831 Y131.847 E397.258
G1 Y131.422 E397.26
G1 X97.642 Y171.611 E397.527
G1 X97.218 E397.529
G1 X137.831 Y130.998 E397.799
G1 Y130.574 E397.801
G1 X96.794 Y171.611 E398.074
G1 X96.37 E398.076
G1 X137.831 Y130.15 E398.352
G1 Y129.725 E398.354
G1 X95.945 Y171.611 E398.633
G1 X95.521 E398.635
G1 X137.831 Y129.301 E398.916
G1 Y128.877 E398.918
G1 X95.097 Y171.611 E399.202
G1 X94.673 E399.204
G1 X137.831 Y128.453 E399.491
G1 Y128.028 E399.493
G1 X94.248 Y171.611 E399.783
G1 X93.824 E399.785
G1 X137.831 Y127.604 E400.078
G1 Y127.18 E400.08
G1 X93.4 Y171.611 E400.375
G1 X92.975 E400.377
G1 X137.831 Y126.756 E400.676
G1 Y126.331 E400.678
G1 X92.551 Y171.611 E400.979
G1 X92.127 E400.981
G1 X137.831 Y125.907 E401.285
G1 Y125.483 E401.287
G1 X91.703 Y171.611 E401.593
G1 X91.278 E401.595
G1 X137.831 Y125.058 E401.905
G1 Y124.634 E401.907
G1 X90.854 Y171.611 E402.219
G1 X90.43 E402.221
G1 X137.831 Y124.21 E402.537
G1 Y123.786 E402.539
G1 X90.006 Y171.611 E402.857
G1 X89.581 E402.859
G1 X137.831 Y123.361 E403.18
G1 Y122.937 E403.182
G1 X89.157 Y171.611 E403.505
G1 X88.733 E403.507
G1 X137.831 Y122.513 E403.834
G1 Y122.089 E403.836
G1 X88.309 Y171.611 E404.165
G1 X87.884 E404.167
G1 X137.831 Y121.664 E404.499
G1 Y121.24 E404.501
G1 X87.46 Y171.611 E404.836
G1 X87.036 E404.838
G1 X137.831 Y120.816 E405.176
G1 Y120.392 E405.178
G1 X86.612 Y171.611 E405.519
G1 X86.187 E405.521
G1 X137.831 Y119.967 E405.864
G1 Y119.543 E405.866
G1 X85.763 Y171.611 E406.213
G1 X85.339 E406.215
G1 X137.831 Y119.119 E406.564
G1 Y118.694 E406.566
G1 X84.914 Y171.611 E406.918
G1 X84.49 E406.92
G1 X137.831 Y118.27 E407.274
G1 Y117.846 E407.276
G1 X84.066 Y171.611 E407.634
G1 X83.642 E407.636
G1 X137.831 Y117.422 E407.996
G1 Y116.997 E407.998
G1 X83.217 Y171.611 E408.361
G1 X82.793 E408.363
G1 X137.831 Y116.573 E408.729
G1 Y116.149 E408.731
G1 X82.369 Y171.611 E409.1
G1 X82.169 E409.101
G1 Y171.387 E409.102
G1 X137.831 Y115.725 E409.472
G1 Y115.3 E409.474
G1 X82.169 Y170.962 E409.845
G1 Y170.538 E409.847
G1 X137.831 Y114.876 E410.217
G1 Y114.452 E410.219
G1 X82.169 Y170.114 E410.589
G1 Y169.69 E410.591
G1 X137.831 Y114.028 E410.961
G1 Y113.603 E410.963
G1 X82.169 Y169.265 E411.333
G1 Y168.841 E411.335
G1 X137.831 Y113.179 E411.706
G1 Y112.755 E411.708
G1 X82.169 Y168.417 E412.078
G1 Y167.993 E412.08
G1 X137.831 Y112.331 E412.45
G1 Y111.906 E412.452
G1 X82.169 Y167.568 E412.822
G1 Y167.144 E412.824
G1 X137.831 Y111.482 E413.194
G1 Y111.058 E413.196
G1 X82.169 Y166.72 E413.566
G1 Y166.295 E413.568
G1 X137.831 Y110.633 E413.939
G1 Y110.209 E413.941
G1 X82.169 Y165.871 E414.311
G1 Y165.447 E414.313
G1 X137.831 Y109.785 E414.683
G1 Y109.361 E414.685
G1 X82.169 Y165.023 E415.055
G1 Y164.598 E415.057
G1 X137.831 Y108.936 E415.427
G1 Y108.512 E415.429
G1 X82.169 Y164.174 E415.799
G1 Y163.75 E415.801
G1 X137.831 Y108.088 E416.172
G1 Y107.664 E416.174
G1 X82.169 Y163.326 E416.544
G1 Y162.901 E416.546
G1 X137.831 Y107.239 E416.916
G1 Y106.815 E416.918
G1 X82.169 Y162.477 E417.288
G1 Y162.053 E417.29
G1 X137.831 Y106.391 E417.66
G1 Y105.967 E417.662
G1 X82.169 Y161.629 E418.033
G1 Y161.204 E418.035
G1 X137.831 Y105.542 E418.405
G1 Y105.118 E418.407
G1 X82.169 Y160.78 E418.777
G1 Y160.356 E418.779
G1 X137.831 Y104.694 E419.149
G1 Y104.27 E419.151
G1 X82.169 Y159.932 E419.521
G1 Y159.507 E419.523
G1 X137.831 Y103.845 E419.893
G1 Y103.421 E419.895
G1 X82.169 Y159.083 E420.266
G1 Y158.659 E420.268
G1 X137.831 Y102.997 E420.638
G1 Y102.572 E420.64
G1 X82.169 Y158.234 E421.01
G1 Y157.81 E421.012
G1 X137.831 Y102.148 E421.382
G1 Y101.724 E421.384
G1 X82.169 Y157.386 E421.754
G1 Y156.962 E421.756
G1 X137.831 Y101.3 E422.126
G1 Y100.875 E422.129
G1 X82.169 Y156.537 E422.499
G1 Y156.113 E422.501
G1 X137.831 Y100.451 E422.871
G1 Y100.027 E422.873
G1 X82.169 Y155.689 E423.243
G1 Y155.265 E423.245
G1 X137.831 Y99.603 E423.615
G1 Y99.178 E423.617
G1 X82.169 Y154.84 E423.987
G1 Y154.416 E423.989
G1 X137.831 Y98.754 E424.36
G1 Y98.33 E424.362
G1 X82.169 Y153.992 E424.732
G1 Y153.568 E424.734
G1 X137.831 Y97.906 E425.104
G1 Y97.481 E425.106
G1 X82.169 Y153.143 E425.476
G1 Y152.719 E425.478
G1 X137.831 Y97.057 E425.848
G1 Y96.633 E425.85
G1 X82.169 Y152.295 E426.22
G1 Y151.87 E426.222
G1 X137.831 Y96.208 E426.593
G1 Y95.784 E426.595
G1 X82.169 Y151.446 E426.965
G1 Y151.022 E426.967
G1 X137.831 Y95.36 E427.337
G1 Y94.936 E427.339
G1 X82.169 Y150.598 E427.709
G1 Y150.173 E427.711
G1 X137.831 Y94.511 E428.081
G1 Y94.087 E428.083
G1 X82.169 Y149.749 E428.454
G1 Y149.325 E428.456
G1 X137.831 Y93.663 E428.826
G1 Y93.239 E428.828
G1 X82.169 Y148.901 E429.198
G1 Y148.476 E429.2
G1 X137.831 Y92.814 E429.57
G1 Y92.39 E429.572
G1 X82.169 Y148.052 E429.942
G1 Y147.628 E429.944
G1 X137.831 Y91.966 E430.314
G1 Y91.542 E430.316
G1 X82.169 Y147.204 E430.687
G1 Y146.779 E430.689
G1 X137.831 Y91.117 E431.059
G1 Y90.693 E431.061
G1 X82.169 Y146.355 E431.431
G1 Y145.931 E431.433
G1 X137.831 Y90.269 E431.803
G1 Y89.845 E431.805
G1 X82.169 Y145.507 E432.175
G1 Y145.082 E432.177
G1 X137.831 Y89.42 E432.547
G1 Y88.996 E432.549
G1 X82.169 Y144.658 E432.92
G1 Y144.234 E432.922
G1 X137.831 Y88.572 E433.292
G1 Y88.147 E433.294
G1 X82.169 Y143.809 E433.664
G1 Y143.385 E433.666
G1 X137.831 Y87.723 E434.036
G1 Y87.299 E434.038
G1 X82.169 Y142.961 E434.408
G1 Y142.537 E434.41
G1 X137.831 Y86.875 E434.781
G1 Y86.45 E434.783
G1 X82.169 Y142.112 E435.153
G1 Y141.688 E435.155
G1 X137.831 Y86.026 E435.525
G1 Y85.602 E435.527
G1 X82.169 Y141.264 E435.897
G1 Y140.84 E435.899
G1 X137.831 Y85.178 E436.269
G1 Y84.753 E436.271
G1 X82.169 Y140.415 E436.641
G1 Y139.991 E436.643
G1 X137.831 Y84.329 E437.014
G1 Y83.905 E437.016
G1 X82.169 Y139.567 E437.386
G1 Y139.143 E437.388
G1 X137.831 Y83.481 E437.758
G1 Y83.056 E437.76
G1 X82.169 Y138.718 E438.13
G1 Y138.294 E438.132
G1 X137.831 Y82.632 E438.502
G1 Y82.208 E438.504
G1 X82.169 Y137.87 E438.874
G1 Y137.445 E438.876
G1 X137.831 Y81.784 E439.247
G1 Y81.359 E439.249
G1 X82.169 Y137.021 E439.619
G1 Y136.597 E439.621
G1 X137.831 Y80.935 E439.991
G1 Y80.511 E439.993
G1 X82.169 Y136.173 E440.363
G1 Y135.748 E440.365
G1 X137.831 Y80.086 E440.735
G1 Y79.662 E440.737
G1 X82.169 Y135.324 E441.108
G1 Y134.9 E441.11
G1 X137.831 Y79.238 E441.48
G1 Y78.814 E441.482
G1 X82.169 Y134.476 E441.852
G1 Y134.051 E441.854
G1 X137.831 Y78.389 E442.224
G1 Y77.965 E442.226
G1 X82.169 Y133.627 E442.596
G1 Y133.203 E442.598
G1 X137.831 Y77.541 E442.968
G1 Y77.117 E442.97
G1 X82.169 Y132.779 E443.341
G1 Y132.354 E443.343
G1 X137.831 Y76.692 E443.713
G1 Y76.268 E443.715
G1 X82.169 Y131.93 E444.085
G1 Y131.506 E444.087
G1 X137.831 Y75.844 E444.457
G1 Y75.42 E444.459
G1 X82.169 Y131.082 E444.829
G1 Y130.657 E444.831
G1 X137.831 Y74.995 E445.201
G1 Y74.571 E445.203
G1 X82.169 Y130.233 E445.574
G1 Y129.809 E445.576
G1 X137.831 Y74.147 E445.946
G1 Y73.722 E445.948
G1 X82.169 Y129.384 E446.318
G1 Y128.96 E446.32
G1 X137.831 Y73.298 E446.69
G1 Y72.874 E446.692
G1 X82.169 Y128.536 E447.062
G1 Y128.112 E447.064
G1 X137.831 Y72.45 E447.435
G1 Y72.025 E447.437
G1 X82.169 Y127.687 E447.807
G1 Y127.263 E447.809
G1 X137.831 Y71.601 E448.179
G1 Y71.177 E448.181
G1 X82.169 Y126.839 E448.551
G1 Y126.415 E448.553
G1 X137.831 Y70.753 E448.923
G1 Y70.328 E448.925
G1 X82.169 Y125.99 E449.295
G1 Y125.566 E449.297
G1 X137.831 Y69.904 E449.668
G1 Y69.48 E449.67
G1 X82.169 Y125.142 E450.04
G1 Y124.718 E450.042
G1 X137.831 Y69.056 E450.412
G1 Y68.631 E450.414
G1 X82.169 Y124.293 E450.784
G1 Y123.869 E450.786
G1 X137.831 Y68.207 E451.156
G1 Y67.783 E451.158
G1 X82.169 Y123.445 E451.529
G1 Y123.021 E451.53
G1 X137.831 Y67.359 E451.901
G1 Y66.934 E451.903
G1 X82.169 Y122.596 E452.273
G1 Y122.172 E452.275
G1 X137.831 Y66.51 E452.645
G1 Y66.086 E452.647
G1 X82.169 Y121.748 E453.017
G1 Y121.323 E453.019
G1 X137.831 Y65.661 E453.389
G1 Y65.237 E453.391
G1 X82.169 Y120.899 E453.762
G1 Y120.475 E453.764
G1 X137.831 Y64.813 E454.134
G1 Y64.389 E454.136
G1 X82.169 Y120.051 E454.506
G1 Y119.626 E454.508
G1 X137.831 Y63.964 E454.878
G1 Y63.54 E454.88
G1 X82.169 Y119.202 E455.25
G1 Y118.778 E455.252
G1 X137.831 Y63.116 E455.622
G1 Y62.971 E455.623
G1 X137.82
G1 Y62.703 E455.624
G1 X82.169 Y118.354 E455.995
G1 Y117.929 E455.997
G1 X137.82 Y62.278 E456.367
G1 Y61.854 E456.369
G1 X82.169 Y117.505 E456.739
G1 Y117.081 E456.741
G1 X137.82 Y61.43 E457.111
G1 Y61.006 E457.113
G1 X82.169 Y116.657 E457.483
G1 Y116.232 E457.485
G1 X137.82 Y60.581 E457.855
G1 Y60.157 E457.857
G1 X82.169 Y115.808 E458.227
G1 Y115.384 E458.229
G1 X137.82 Y59.733 E458.599
G1 Y59.309 E458.601
G1 X82.169 Y114.96 E458.971
G1 Y114.535 E458.973
G1 X137.82 Y58.884 E459.344
G1 Y58.46 E459.345
G1 X82.169 Y114.111 E459.716
G1 Y113.687 E459.718
G1 X137.82 Y58.036 E460.088
G1 Y57.611 E460.09
G1 X82.169 Y113.262 E460.46
G1 Y112.838 E460.462
G1 X137.82 Y57.187 E460.832
G1 Y56.763 E460.834
G1 X82.169 Y112.414 E461.204
G1 Y111.99 E461.206
G1 X137.82 Y56.339 E461.576
G1 Y55.914 E461.578
G1 X82.169 Y111.565 E461.948
G1 Y111.141 E461.95
G1 X137.82 Y55.49 E462.32
G1 Y55.066 E462.322
G1 X82.169 Y110.717 E462.692
G1 Y110.293 E462.694
G1 X137.82 Y54.642 E463.065
G1 Y54.217 E463.067
G1 X82.169 Y109.868 E463.437
G1 Y109.444 E463.439
G1 X137.82 Y53.793 E463.809
G1 Y53.369 E463.811
G1 X82.169 Y109.02 E464.181
G1 Y108.596 E464.183
G1 X137.629 Y53.136 E464.552
G1 X137.314 Y53.026 E464.553
G1 X82.169 Y108.171 E464.92
G1 Y107.747 E464.922
G1 X136.999 Y52.917 E465.287
G1 X136.684 Y52.807 E465.288
G1 X82.169 Y107.323 E465.651
G1 Y106.898 E465.653
G1 X136.37 Y52.698 E466.013
G1 X136.055 Y52.588 E466.015
G1 X82.169 Y106.474 E466.373
G1 Y106.05 E466.375
G1 X135.732 Y52.487 E466.731
G1 X135.409 Y52.385 E466.733
G1 X82.169 Y105.626 E467.087
G1 Y105.201 E467.089
G1 X135.087 Y52.284 E467.441
G1 X134.764 Y52.182 E467.443
G1 X82.169 Y104.777 E467.792
G1 Y104.353 E467.794
G1 X134.441 Y52.081 E468.142
G1 X134.118 Y51.98 E468.144
G1 X82.169 Y103.929 E468.489
G1 Y103.504 E468.491
G1 X133.795 Y51.878 E468.834
G1 X133.641 Y51.83 E468.835
G1 X133.468 Y51.781 E468.836
G1 X82.169 Y103.08 E469.177
G1 Y102.656 E469.179
G1 X133.137 Y51.688 E469.518
G1 X132.806 Y51.595 E469.52
G1 X82.169 Y102.232 E469.857
G1 Y101.807 E469.858
G1 X132.474 Y51.502 E470.193
G1 X132.143 Y51.409 E470.195
G1 X82.169 Y101.383 E470.527
G1 Y100.959 E470.529
G1 X131.812 Y51.316 E470.859
G1 X131.481 Y51.223 E470.861
G1 X82.169 Y100.535 E471.189
G1 Y100.11 E471.191
G1 X131.148 Y51.131 E471.516
G1 X130.808 Y51.047 E471.518
G1 X82.169 Y99.686 E471.842
G1 Y99.262 E471.844
G1 X130.468 Y50.963 E472.165
G1 X130.128 Y50.878 E472.166
G1 X82.169 Y98.837 E472.485
G1 Y98.413 E472.487
G1 X129.788 Y50.794 E472.804
G1 X129.449 Y50.709 E472.806
G1 X82.169 Y97.989 E473.12
G1 Y97.565 E473.122
G1 X129.109 Y50.625 E473.434
G1 X128.769 Y50.541 E473.436
G1 X82.169 Y97.14 E473.746
G1 Y96.716 E473.748
G1 X128.421 Y50.465 E474.056
G1 X128.356 Y50.451
G1 X128.072 Y50.389 E474.057
G1 X82.169 Y96.292 E474.362
G1 Y95.868 E474.364
G1 X127.723 Y50.314 E474.667
G1 X127.374 Y50.239 E474.669
G1 X82.169 Y95.443 E474.97
G1 Y95.019 E474.972
G1 X127.025 Y50.163 E475.27
G1 X126.676 Y50.088 E475.272
G1 X82.169 Y94.595 E475.568
G1 Y94.171 E475.57
G1 X126.327 Y50.013 E475.863
G1 X126.296 Y50.006 E475.864
G1 X125.97 Y49.946 E475.865
G1 X82.169 Y93.746 E476.156
G1 Y93.322 E476.158
G1 X125.611 Y49.88 E476.447
G1 X125.253 Y49.814 E476.449
G1 X82.169 Y92.898 E476.736
G1 Y92.474 E476.738
G1 X124.895 Y49.748 E477.022
G1 X124.608 Y49.695 E477.023
G1 X124.537 Y49.681
G1 X82.169 Y92.049 E477.305
G1 Y91.625 E477.307
G1 X124.179 Y49.615 E477.587
G1 X123.82 Y49.549 E477.588
G1 X82.169 Y91.201 E477.865
G1 Y90.776 E477.867
G1 X123.453 Y49.493 E478.142
G1 X123.085 Y49.436 E478.144
G1 X82.169 Y90.352 E478.416
G1 Y89.928 E478.418
G1 X122.717 Y49.38 E478.687
G1 X122.349 Y49.323 E478.689
G1 X82.169 Y89.504 E478.956
G1 Y89.079 E478.958
G1 X121.981 Y49.267 E479.223
G1 X121.614 Y49.21 E479.225
G1 X82.169 Y88.655 E479.487
G1 Y88.231 E479.489
G1 X121.244 Y49.156 E479.749
G1 X120.866 Y49.11 E479.751
G1 X82.169 Y87.807 E480.008
G1 Y87.382 E480.01
G1 X120.488 Y49.064 E480.265
G1 X120.11 Y49.017 E480.267
G1 X82.169 Y86.958 E480.519
G1 Y86.534 E480.521
G1 X119.732 Y48.971 E480.771
G1 X119.354 Y48.925 E480.773
G1 X82.169 Y86.11 E481.02
G1 Y85.685 E481.022
G1 X118.976 Y48.878 E481.267
G1 X118.815 Y48.859 E481.268
G1 X118.592 Y48.838 E481.269
G1 X82.169 Y85.261 E481.511
G1 Y84.837 E481.513
G1 X118.203 Y48.803 E481.752
G1 X117.814 Y48.767 E481.754
G1 X82.169 Y84.412 E481.991
G1 Y83.988 E481.993
G1 X117.426 Y48.731 E482.228
G1 X117.322 Y48.722
G1 X117.037 Y48.696 E482.23
G1 X82.169 Y83.564 E482.462
G1 Y83.14 E482.464
G1 X116.649 Y48.66 E482.693
G1 X116.302 Y48.628 E482.695
G1 X116.259 Y48.626
G1 X82.169 Y82.715 E482.921
G1 Y82.291 E482.923
G1 X115.859 Y48.601 E483.147
G1 X115.459 Y48.577 E483.149
G1 X82.169 Y81.867 E483.371
G1 Y81.443 E483.373
G1 X115.059 Y48.553 E483.591
G1 X114.659 Y48.528 E483.593
G1 X82.169 Y81.018 E483.809
G1 Y80.594 E483.811
G1 X114.259 Y48.504 E484.025
G1 X113.859 Y48.48 E484.027
G1 X82.169 Y80.17 E484.238
G1 Y79.746 E484.24
G1 X113.45 Y48.465 E484.448
G1 X113.373 Y48.463
G1 X113.038 Y48.452 E484.449
G1 X82.169 Y79.321 E484.655
G1 Y78.897 E484.657
G1 X112.626 Y48.44 E484.859
G1 X112.214 Y48.428 E484.861
G1 X82.169 Y78.473 E485.061
G1 Y78.049 E485.063
G1 X111.802 Y48.415 E485.26
G1 X111.39 Y48.403 E485.262
G1 X82.169 Y77.624 E485.456
G1 Y77.2 E485.458
G1 X110.97 Y48.399 E485.65
G1 X110.546 E485.652
G1 X82.169 Y76.776 E485.841
G1 Y76.351 E485.843
G1 X110.121 Y48.399 E486.029
G1 X109.697 E486.031
G1 X82.169 Y75.927 E486.214
G1 Y75.503 E486.216
G1 X109.273 Y48.399 E486.396
G1 X108.849 E486.398
G1 X82.169 Y75.079 E486.575
G1 Y74.654 E486.577
G1 X108.415 Y48.409 E486.752
G1 X107.977 Y48.422 E486.754
G1 X82.169 Y74.23 E486.926
G1 Y73.806 E486.928
G1 X107.54 Y48.435 E487.096
G1 X107.102 Y48.448 E487.098
G1 X82.169 Y73.382 E487.264
G1 Y72.957 E487.266
G1 X106.665 Y48.462 E487.429
G1 X106.227 Y48.475 E487.431
G1 X82.169 Y72.533 E487.591
G1 Y72.109 E487.593
G1 X105.776 Y48.502 E487.75
G1 X105.324 Y48.529 E487.752
G1 X82.169 Y71.685 E487.906
G1 Y71.26 E487.908
G1 X104.872 Y48.557 E488.059
G1 X104.421 Y48.584 E488.061
G1 X82.169 Y70.836 E488.209
G1 Y70.412 E488.211
G1 X103.969 Y48.612 E488.356
G1 X103.698 Y48.628 E488.358
G1 X103.511 Y48.646
G1 X82.169 Y69.988 E488.5
G1 Y69.563 E488.502
G1 X103.044 Y48.688 E488.641
G1 X102.577 Y48.731 E488.643
G1 X82.169 Y69.139 E488.779
G1 Y68.715 E488.781
G1 X102.11 Y48.774 E488.914
G1 X101.643 Y48.817 E488.916
G1 X82.169 Y68.29 E489.046
G1 Y67.866 E489.047
G1 X101.175 Y48.86 E489.174
G1 X100.692 Y48.919 E489.176
G1 X82.169 Y67.442 E489.299
G1 Y67.018 E489.301
G1 X100.208 Y48.978 E489.421
G1 X99.725 Y49.038 E489.424
G1 X82.169 Y66.593 E489.54
G1 Y66.169 E489.542
G1 X99.241 Y49.097 E489.656
G1 X98.758 Y49.156 E489.658
G1 X82.169 Y65.745 E489.769
G1 Y65.321 E489.771
G1 X98.26 Y49.23 E489.878
G1 X97.759 Y49.307 E489.88
G1 X82.169 Y64.896 E489.984
G1 Y64.472 E489.986
G1 X97.257 Y49.384 E490.086
G1 X96.756 Y49.461 E490.088
G1 X82.169 Y64.048 E490.185
G1 Y63.624 E490.187
G1 X96.255 Y49.538 E490.281
G1 X96.186 Y49.548
G1 X95.737 Y49.631 E490.283
G1 X82.169 Y63.199 E490.374
G1 Y62.971 E490.375
G1 X82.18
G1 Y62.764 E490.376
G1 X95.217 Y49.727 E490.463
G1 X95.096 Y49.749
G1 X94.697 Y49.823 E490.465
G1 X82.18 Y62.34 E490.548
G1 Y61.915 E490.55
G1 X94.177 Y49.919 E490.63
G1 X93.704 Y50.006 E490.632
G1 X93.655 Y50.017 E490.633
G1 X82.18 Y61.491 E490.709
G1 Y61.067 E490.711
G1 X93.113 Y50.134 E490.784
G1 X92.572 Y50.251 E490.786
G1 X82.18 Y60.643 E490.855
G1 Y60.218 E490.857
G1 X92.031 Y50.368 E490.923
G1 X91.49 Y50.484 E490.925
G1 X82.18 Y59.794 E490.987
G1 Y59.37 E490.989
G1 X90.936 Y50.614 E491.048
G1 X90.372 Y50.754 E491.05
G1 X82.18 Y58.946 E491.105
G1 Y58.521 E491.107
G1 X89.807 Y50.894 E491.157
G1 X89.243 Y51.034 E491.16
G1 X82.18 Y58.097 E491.207
G1 Y57.673 E491.209
G1 X88.673 Y51.18 E491.252
G1 X88.083 Y51.345 E491.255
G1 X82.18 Y57.249 E491.294
G1 Y56.824 E491.296
G1 X87.493 Y51.511 E491.332
G1 X87.064 Y51.632 E491.334
G1 X86.903 Y51.677 E491.335
G1 X82.18 Y56.4 E491.366
G1 Y55.976 E491.368
G1 X86.311 Y51.845 E491.396
G1 X85.692 Y52.039 E491.399
G1 X82.18 Y55.552 E491.422
G1 Y55.127 E491.424
G1 X85.074 Y52.234 E491.443
G1 X84.455 Y52.428 E491.446
G1 X82.18 Y54.703 E491.461
G1 Y54.279 E491.463
G1 X83.83 Y52.628 E491.474
G1 X83.18 Y52.855 E491.478
G1 X82.18 Y53.854 E491.484
G1 Y53.43 E491.486
G1 X82.53 Y53.081 E491.489
G1 F1500 E484.489
;Layer : 4 of 345
;rapid-dry
G1 F15000
G0 X131.411 Y50.393 Z0.5
G1 F1500 E491.489
;bead-perimeter_outer
G1 X133.863 Y51.082 F1080 E491.501
G1 X136.293 Y51.845 E491.513
G1 X138.6 Y52.648 E491.524
G1 Y62.191 E491.569
G1 X138.614
G1 Y172.391 E492.087
G1 X81.386 E492.356
G1 Y62.191 E492.875
G1 X81.4
G1 Y52.648 E492.92
G1 X83.707 Y51.845 E492.931
G1 X86.137 Y51.082 E492.943
G1 X88.589 Y50.393 E492.955
G1 X91.061 Y49.779 E492.967
G1 X93.55 Y49.241 E492.979
G1 X96.056 Y48.779 E492.991
G1 X98.573 Y48.393 E493.003
G1 X101.102 Y48.083 E493.015
G1 X103.638 Y47.851 E493.027
G1 X106.181 Y47.696 E493.039
G1 X108.726 Y47.619 E493.051
G1 X111.274 E493.063
G1 X113.819 Y47.696 E493.075
G1 X116.362 Y47.851 E493.087
G1 X118.898 Y48.083 E493.099
G1 X120.868 Y48.324 E493.108
G1 X121.426 Y48.393 E493.111
G1 X123.944 Y48.779 E493.123
G1 X126.45 Y49.241 E493.135
G1 X128.939 Y49.779 E493.147
G1 X131.411 Y50.393 E493.159
;rapid-leaky
G1 F15000
G0 X131.342 Y50.654
;bead-perimeter_inner
G1 X133.786 Y51.341 F1560 E493.171
G1 X136.208 Y52.102 E493.182
G1 X138.33 Y52.84 E493.193
G1 Y62.461 E493.238
G1 X138.344
G1 Y172.121 E493.754
G1 X81.656 E494.021
G1 Y62.461 E494.536
G1 X81.67
G1 Y52.84 E494.582
G1 X83.792 Y52.102 E494.592
G1 X86.214 Y51.341 E494.604
G1 X88.658 Y50.654 E494.616
G1 X91.122 Y50.042 E494.628
G1 X93.604 Y49.506 E494.64
G1 X96.101 Y49.045 E494.652
G1 X98.61 Y48.66 E494.664
G1 X101.131 Y48.352 E494.676
G1 X103.659 Y48.12 E494.688
G1 X106.193 Y47.966 E494.7
G1 X108.73 Y47.889 E494.712
G1 X111.27 E494.724
G1 X113.807 Y47.966 E494.735
G1 X116.341 Y48.12 E494.747
G1 X118.869 Y48.352 E494.759
G1 X120.835 Y48.592 E494.769
G1 X121.39 Y48.66 E494.771
G1 X123.899 Y49.045 E494.783
G1 X126.396 Y49.506 E494.795
G1 X128.878 Y50.042 E494.807
G1 X131.342 Y50.654 E494.819
;rapid-leaky
G1 F15000
G0 X131.273 Y50.915
;bead-perimeter_inner
G1 X133.709 Y51.599 F1560 E494.831
G1 X136.123 Y52.358 E494.843
G1 X138.06 Y53.032 E494.852
G1 Y62.731 E494.898
G1 X138.074
G1 Y171.851 E495.411
G1 X81.926 E495.675
G1 Y62.731 E496.189
G1 X81.94
G1 Y53.032 E496.234
G1 X83.877 Y52.358 E496.244
G1 X86.291 Y51.599 E496.256
G1 X88.728 Y50.915 E496.268
G1 X91.183 Y50.305 E496.28
G1 X93.657 Y49.771 E496.291
G1 X96.146 Y49.311 E496.303
G1 X98.647 Y48.928 E496.315
G1 X101.159 Y48.62 E496.327
G1 X103.68 Y48.389 E496.339
G1 X106.205 Y48.235 E496.351
G1 X108.734 Y48.159 E496.363
G1 X111.266 E496.375
G1 X113.795 Y48.235 E496.387
G1 X116.321 Y48.389 E496.399
G1 X118.841 Y48.62 E496.41
G1 X120.802 Y48.86 E496.42
G1 X121.353 Y48.928 E496.422
G1 X123.854 Y49.311 E496.434
G1 X126.343 Y49.771 E496.446
G1 X128.817 Y50.305 E496.458
G1 X131.273 Y50.915 E496.47
;rapid-leaky
G1 F15000
G0 X137.574 Y53.117
;bead-solid_infill
G1 X137.82 Y53.363 F3600 E496.472
G1 Y53.787 E496.474
G1 X136.924 Y52.891 E496.48
G1 X136.273 Y52.664 E496.483
G1 X137.82 Y54.211 E496.493
G1 Y54.635 E496.495
G1 X135.643 Y52.459 E496.51
G1 X135.025 Y52.264 E496.513
G1 X137.82 Y55.06 E496.531
G1 Y55.484 E496.533
G1 X134.406 Y52.07 E496.556
G1 X133.787 Y51.876 E496.559
G1 X137.82 Y55.908 E496.586
G1 Y56.333 E496.588
G1 X133.191 Y51.703 E496.619
G1 X132.601 Y51.537 E496.621
G1 X137.82 Y56.757 E496.656
G1 Y57.181 E496.658
G1 X132.011 Y51.372 E496.697
G1 X131.421 Y51.206 E496.7
G1 X137.82 Y57.605 E496.742
G1 Y58.03 E496.744
G1 X130.847 Y51.057 E496.791
G1 X130.283 Y50.917 E496.793
G1 X137.82 Y58.454 E496.843
G1 Y58.878 E496.845
G1 X129.718 Y50.776 E496.899
G1 X129.154 Y50.636 E496.902
G1 X137.82 Y59.302 E496.96
G1 Y59.727 E496.962
G1 X128.596 Y50.503 E497.023
G1 X128.055 Y50.386 E497.026
G1 X137.82 Y60.151 E497.091
G1 Y60.575 E497.093
G1 X127.514 Y50.269 E497.161
G1 X126.973 Y50.152 E497.164
G1 X137.82 Y60.999 E497.236
G1 Y61.424 E497.238
G1 X126.432 Y50.035 E497.314
G1 X126.296 Y50.006
G1 X125.906 Y49.934 E497.316
G1 X137.82 Y61.848 E497.395
G1 Y62.272 E497.397
G1 X125.386 Y49.838 E497.48
G1 X124.866 Y49.742 E497.482
G1 X137.82 Y62.697 E497.569
G1 Y62.971 E497.57
G1 X137.834
G1 Y63.135 E497.571
G1 X124.345 Y49.646 E497.66
G1 X123.825 Y49.55 E497.663
G1 X137.834 Y63.559 E497.756
G1 Y63.983 E497.758
G1 X123.324 Y49.473 E497.855
G1 X122.822 Y49.396 E497.857
G1 X137.834 Y64.408 E497.957
G1 Y64.832 E497.959
G1 X122.321 Y49.319 E498.062
G1 X121.82 Y49.242 E498.064
G1 X137.834 Y65.256 E498.171
G1 Y65.68 E498.173
G1 X121.319 Y49.165 E498.283
G1 X120.835 Y49.106 E498.285
G1 X137.834 Y66.105 E498.398
G1 Y66.529 E498.4
G1 X120.352 Y49.047 E498.516
G1 X119.868 Y48.988 E498.519
G1 X137.834 Y66.953 E498.638
G1 Y67.377 E498.64
G1 X119.385 Y48.928 E498.763
G1 X118.902 Y48.869 E498.765
G1 X137.834 Y67.802 E498.891
G1 Y68.226 E498.893
G1 X118.432 Y48.824 E499.022
G1 X117.965 Y48.781 E499.024
G1 X137.834 Y68.65 E499.156
G1 Y69.074 E499.158
G1 X117.498 Y48.738 E499.294
G1 X117.03 Y48.695 E499.296
G1 X137.834 Y69.499 E499.434
G1 Y69.923 E499.436
G1 X116.563 Y48.652 E499.578
G1 X116.302 Y48.628 E499.579
G1 X116.103 Y48.616 E499.58
G1 X137.834 Y70.347 E499.724
G1 Y70.772 E499.726
G1 X115.651 Y48.589 E499.874
G1 X115.2 Y48.561 E499.876
G1 X137.834 Y71.196 E500.027
G1 Y71.62 E500.029
G1 X114.748 Y48.534 E500.182
G1 X114.296 Y48.506 E500.184
G1 X137.834 Y72.044 E500.341
G1 Y72.469 E500.343
G1 X113.844 Y48.479 E500.502
G1 X113.784 Y48.475 E500.503
G1 X113.405 Y48.464 E500.504
G1 X137.834 Y72.893 E500.667
G1 Y73.317 E500.669
G1 X112.967 Y48.45 E500.834
G1 X112.53 Y48.437 E500.836
G1 X137.834 Y73.741 E501.004
G1 Y74.166 E501.007
G1 X112.092 Y48.424 E501.178
G1 X111.655 Y48.411 E501.18
G1 X137.834 Y74.59 E501.354
G1 Y75.014 E501.356
G1 X111.219 Y48.399 E501.533
G1 X110.795 E501.535
G1 X137.834 Y75.438 E501.715
G1 Y75.863 E501.717
G1 X110.37 Y48.399 E501.899
G1 X109.946 E501.901
G1 X137.834 Y76.287 E502.087
G1 Y76.711 E502.089
G1 X109.522 Y48.399 E502.277
G1 X109.098 E502.279
G1 X137.834 Y77.135 E502.47
G1 Y77.56 E502.472
G1 X108.675 Y48.401 E502.666
G1 X108.263 Y48.413 E502.668
G1 X137.834 Y77.984 E502.865
G1 Y78.408 E502.867
G1 X107.852 Y48.426 E503.066
G1 X107.44 Y48.438 E503.068
G1 X137.834 Y78.833 E503.27
G1 Y79.257 E503.272
G1 X107.028 Y48.451 E503.477
G1 X106.616 Y48.463 E503.479
G1 X137.834 Y79.681 E503.687
G1 Y80.105 E503.689
G1 X106.205 Y48.476 E503.899
G1 X105.805 Y48.5 E503.901
G1 X137.834 Y80.53 E504.114
G1 Y80.954 E504.116
G1 X105.405 Y48.525 E504.332
G1 X105.005 Y48.549 E504.333
G1 X137.834 Y81.378 E504.552
G1 Y81.802 E504.554
G1 X104.605 Y48.573 E504.775
G1 X104.205 Y48.598 E504.777
G1 X137.834 Y82.227 E505
G1 Y82.651 E505.002
G1 X103.805 Y48.622 E505.229
G1 X103.698 Y48.628
G1 X103.413 Y48.655 E505.23
G1 X137.834 Y83.075 E505.459
G1 Y83.499 E505.461
G1 X103.025 Y48.69 E505.693
G1 X102.738 Y48.716 E505.694
G1 X102.636 Y48.726 E505.695
G1 X137.834 Y83.924 E505.929
G1 Y84.348 E505.931
G1 X102.247 Y48.761 E506.167
G1 X101.859 Y48.797 E506.169
G1 X137.834 Y84.772 E506.408
G1 Y85.197 E506.41
G1 X101.47 Y48.833 E506.652
G1 X101.185 Y48.859 E506.654
G1 X101.084 Y48.871
G1 X137.834 Y85.621 E506.899
G1 Y86.045 E506.901
G1 X100.706 Y48.917 E507.147
G1 X100.328 Y48.964 E507.149
G1 X137.834 Y86.469 E507.399
G1 Y86.894 E507.401
G1 X99.95 Y49.01 E507.653
G1 X99.572 Y49.056 E507.654
G1 X137.834 Y87.318 E507.909
G1 Y87.742 E507.911
G1 X99.194 Y49.102 E508.168
G1 X98.816 Y49.149 E508.17
G1 X137.834 Y88.166 E508.429
G1 Y88.591 E508.431
G1 X98.445 Y49.201 E508.693
G1 X98.077 Y49.258 E508.695
G1 X137.834 Y89.015 E508.959
G1 Y89.439 E508.961
G1 X97.709 Y49.314 E509.228
G1 X97.341 Y49.371 E509.23
G1 X137.834 Y89.863 E509.499
G1 Y90.288 E509.501
G1 X96.974 Y49.427 E509.773
G1 X96.606 Y49.484 E509.775
G1 X137.834 Y90.712 E510.049
G1 Y91.136 E510.051
G1 X96.238 Y49.54 E510.327
G1 X96.186 Y49.548 E510.328
G1 X95.878 Y49.605 E510.329
G1 X137.834 Y91.56 E510.608
G1 Y91.985 E510.61
G1 X95.52 Y49.671 E510.892
G1 X95.392 Y49.694
G1 X95.162 Y49.737 E510.893
G1 X137.834 Y92.409 E511.177
G1 Y92.833 E511.179
G1 X94.804 Y49.803 E511.465
G1 X94.446 Y49.869 E511.467
G1 X137.834 Y93.258 E511.756
G1 Y93.682 E511.758
G1 X94.087 Y49.935 E512.048
G1 X93.729 Y50.001 E512.05
G1 X137.834 Y94.106 E512.344
G1 Y94.53 E512.346
G1 X93.38 Y50.076 E512.641
G1 X93.031 Y50.151 E512.643
G1 X137.834 Y94.955 E512.941
G1 Y95.379 E512.943
G1 X92.682 Y50.227 E513.243
G1 X92.333 Y50.302 E513.245
G1 X137.834 Y95.803 E513.547
G1 Y96.227 E513.549
G1 X91.984 Y50.378 E513.854
G1 X91.635 Y50.453 E513.856
G1 X137.834 Y96.652 E514.163
G1 Y97.076 E514.165
G1 X91.287 Y50.528 E514.475
G1 X91.237 Y50.539
G1 X90.945 Y50.612 E514.476
G1 X137.834 Y97.5 E514.788
G1 Y97.924 E514.79
G1 X90.606 Y50.696 E515.104
G1 X90.266 Y50.78 E515.106
G1 X137.834 Y98.349 E515.422
G1 Y98.773 E515.424
G1 X89.926 Y50.865 E515.743
G1 X89.586 Y50.949 E515.745
G1 X137.834 Y99.197 E516.065
G1 Y99.621 E516.067
G1 X89.246 Y51.034 E516.391
G1 X88.906 Y51.118 E516.392
G1 X137.834 Y100.046 E516.718
G1 Y100.47 E516.72
G1 X88.572 Y51.208 E517.047
G1 X88.241 Y51.301 E517.049
G1 X137.834 Y100.894 E517.379
G1 Y101.319 E517.381
G1 X87.91 Y51.394 E517.713
G1 X87.578 Y51.487 E517.714
G1 X137.834 Y101.743 E518.049
G1 Y102.167 E518.051
G1 X87.247 Y51.58 E518.387
G1 X86.916 Y51.673 E518.389
G1 X137.834 Y102.591 E518.727
G1 Y103.016 E518.729
G1 X86.585 Y51.766 E519.07
G1 X86.359 Y51.829 E519.071
G1 X86.256 Y51.862 E519.072
G1 X137.834 Y103.44 E519.415
G1 Y103.864 E519.417
G1 X85.933 Y51.963 E519.762
G1 X85.61 Y52.065 E519.763
G1 X137.834 Y104.288 E520.111
G1 Y104.713 E520.113
G1 X85.288 Y52.166 E520.462
G1 X84.965 Y52.268 E520.464
G1 X137.834 Y105.137 E520.815
G1 Y105.561 E520.817
G1 X84.642 Y52.369 E521.171
G1 X84.319 Y52.471 E521.173
G1 X137.834 Y105.985 E521.529
G1 Y106.41 E521.531
G1 X83.996 Y52.572 E521.889
G1 X83.952 Y52.586
G1 X83.681 Y52.68 E521.89
G1 X137.834 Y106.834 E522.25
G1 Y107.258 E522.252
G1 X83.366 Y52.79 E522.615
G1 X83.051 Y52.899 E522.616
G1 X137.834 Y107.683 E522.981
G1 Y108.107 E522.983
G1 X82.736 Y53.009 E523.349
G1 X82.421 Y53.118 E523.351
G1 X137.834 Y108.531 E523.719
G1 Y108.955 E523.721
G1 X82.18 Y53.301 E524.091
G1 Y53.726 E524.093
G1 X137.834 Y109.38 E524.463
G1 Y109.804 E524.465
G1 X82.18 Y54.15 E524.835
G1 Y54.574 E524.837
G1 X137.834 Y110.228 E525.208
G1 Y110.652 E525.21
G1 X82.18 Y54.998 E525.58
G1 Y55.423 E525.582
G1 X137.834 Y111.077 E525.952
G1 Y111.501 E525.954
G1 X82.18 Y55.847 E526.324
G1 Y56.271 E526.326
G1 X137.834 Y111.925 E526.696
G1 Y112.349 E526.698
G1 X82.18 Y56.695 E527.068
G1 Y57.12 E527.07
G1 X137.834 Y112.774 E527.44
G1 Y113.198 E527.442
G1 X82.18 Y57.544 E527.812
G1 Y57.968 E527.814
G1 X137.834 Y113.622 E528.185
G1 Y114.046 E528.187
G1 X82.18 Y58.392 E528.557
G1 Y58.817 E528.559
G1 X137.834 Y114.471 E528.929
G1 Y114.895 E528.931
G1 X82.18 Y59.241 E529.301
G1 Y59.665 E529.303
G1 X137.834 Y115.319 E529.673
G1 Y115.744 E529.675
G1 X82.18 Y60.09 E530.045
G1 Y60.514 E530.047
G1 X137.834 Y116.168 E530.417
G1 Y116.592 E530.419
G1 X82.18 Y60.938 E530.789
G1 Y61.362 E530.791
G1 X137.834 Y117.016 E531.162
G1 Y117.441 E531.164
G1 X82.18 Y61.787 E531.534
G1 Y62.211 E531.536
G1 X137.834 Y117.865 E531.906
G1 Y118.289 E531.908
G1 X82.18 Y62.635 E532.278
G1 Y62.971 E532.28
G1 X82.166
G1 Y63.045
G1 X137.834 Y118.713 E532.65
G1 Y119.138 E532.652
G1 X82.166 Y63.47 E533.022
G1 Y63.894 E533.024
G1 X137.834 Y119.562 E533.395
G1 Y119.986 E533.397
G1 X82.166 Y64.318 E533.767
G1 Y64.742 E533.769
G1 X137.834 Y120.41 E534.139
G1 Y120.835 E534.141
G1 X82.166 Y65.167 E534.511
G1 Y65.591 E534.513
G1 X137.834 Y121.259 E534.883
G1 Y121.683 E534.885
G1 X82.166 Y66.015 E535.256
G1 Y66.439 E535.258
G1 X137.834 Y122.107 E535.628
G1 Y122.532 E535.63
G1 X82.166 Y66.864 E536
G1 Y67.288 E536.002
G1 X137.834 Y122.956 E536.372
G1 Y123.38 E536.374
G1 X82.166 Y67.712 E536.745
G1 Y68.137 E536.747
G1 X137.834 Y123.805 E537.117
G1 Y124.229 E537.119
G1 X82.166 Y68.561 E537.489
G1 Y68.985 E537.491
G1 X137.834 Y124.653 E537.861
G1 Y125.077 E537.863
G1 X82.166 Y69.409 E538.233
G1 Y69.834 E538.235
G1 X137.834 Y125.502 E538.606
G1 Y125.926 E538.608
G1 X82.166 Y70.258 E538.978
G1 Y70.682 E538.98
G1 X137.834 Y126.35 E539.35
G1 Y126.774 E539.352
G1 X82.166 Y71.106 E539.722
G1 Y71.531 E539.724
G1 X137.834 Y127.199 E540.094
G1 Y127.623 E540.096
G1 X82.166 Y71.955 E540.467
G1 Y72.379 E540.469
G1 X137.834 Y128.047 E540.839
G1 Y128.471 E540.841
G1 X82.166 Y72.803 E541.211
G1 Y73.228 E541.213
G1 X137.834 Y128.896 E541.583
G1 Y129.32 E541.585
G1 X82.166 Y73.652 E541.956
G1 Y74.076 E541.958
G1 X137.834 Y129.744 E542.328
G1 Y130.169 E542.33
G1 X82.166 Y74.5 E542.7
G1 Y74.925 E542.702
G1 X137.834 Y130.593 E543.072
G1 Y131.017 E543.074
G1 X82.166 Y75.349 E543.444
G1 Y75.773 E543.446
G1 X137.834 Y131.441 E543.817
G1 Y131.866 E543.819
G1 X82.166 Y76.198 E544.189
G1 Y76.622 E544.191
G1 X137.834 Y132.29 E544.561
G1 Y132.714 E544.563
G1 X82.166 Y77.046 E544.933
G1 Y77.47 E544.935
G1 X137.834 Y133.138 E545.306
G1 Y133.563 E545.308
G1 X82.166 Y77.895 E545.678
G1 Y78.319 E545.68
G1 X137.834 Y133.987 E546.05
G1 Y134.411 E546.052
G1 X82.166 Y78.743 E546.422
G1 Y79.167 E546.424
G1 X137.834 Y134.835 E546.794
G1 Y135.26 E546.796
G1 X82.166 Y79.592 E547.167
G1 Y80.016 E547.169
G1 X137.834 Y135.684 E547.539
G1 Y136.108 E547.541
G1 X82.166 Y80.44 E547.911
G1 Y80.864 E547.913
G1 X137.834 Y136.532 E548.283
G1 Y136.957 E548.285
G1 X82.166 Y81.289 E548.656
G1 Y81.713 E548.657
G1 X137.834 Y137.381 E549.028
G1 Y137.805 E549.03
G1 X82.166 Y82.137 E549.4
G1 Y82.562 E549.402
G1 X137.834 Y138.23 E549.772
G1 Y138.654 E549.774
G1 X82.166 Y82.986 E550.144
G1 Y83.41 E550.146
G1 X137.834 Y139.078 E550.517
G1 Y139.502 E550.519
G1 X82.166 Y83.834 E550.889
G1 Y84.259 E550.891
G1 X137.834 Y139.927 E551.261
G1 Y140.351 E551.263
G1 X82.166 Y84.683 E551.633
G1 Y85.107 E551.635
G1 X137.834 Y140.775 E552.005
G1 Y141.199 E552.007
G1 X82.166 Y85.531 E552.378
G1 Y85.956 E552.38
G1 X137.834 Y141.624 E552.75
G1 Y142.048 E552.752
G1 X82.166 Y86.38 E553.122
G1 Y86.804 E553.124
G1 X137.834 Y142.472 E553.494
G1 Y142.896 E553.496
G1 X82.166 Y87.228 E553.867
G1 Y87.653 E553.869
G1 X137.834 Y143.321 E554.239
G1 Y143.745 E554.241
G1 X82.166 Y88.077 E554.611
G1 Y88.501 E554.613
G1 X137.834 Y144.169 E554.983
G1 Y144.593 E554.985
G1 X82.166 Y88.925 E555.355
G1 Y89.35 E555.357
G1 X137.834 Y145.018 E555.728
G1 Y145.442 E555.73
G1 X82.166 Y89.774 E556.1
G1 Y90.198 E556.102
G1 X137.834 Y145.866 E556.472
G1 Y146.291 E556.474
G1 X82.166 Y90.623 E556.844
G1 Y91.047 E556.846
G1 X137.834 Y146.715 E557.216
G1 Y147.139 E557.219
G1 X82.166 Y91.471 E557.589
G1 Y91.895 E557.591
G1 X137.834 Y147.563 E557.961
G1 Y147.988 E557.963
G1 X82.166 Y92.32 E558.333
G1 Y92.744 E558.335
G1 X137.834 Y148.412 E558.705
G1 Y148.836 E558.707
G1 X82.166 Y93.168 E559.078
G1 Y93.592 E559.08
G1 X137.834 Y149.26 E559.45
G1 Y149.685 E559.452
G1 X82.166 Y94.017 E559.822
G1 Y94.441 E559.824
G1 X137.834 Y150.109 E560.194
G1 Y150.533 E560.196
G1 X82.166 Y94.865 E560.566
G1 Y95.289 E560.568
G1 X137.834 Y150.957 E560.939
G1 Y151.382 E560.941
G1 X82.166 Y95.714 E561.311
G1 Y96.138 E561.313
G1 X137.834 Y151.806 E561.683
G1 Y152.23 E561.685
G1 X82.166 Y96.562 E562.055
G1 Y96.986 E562.057
G1 X137.834 Y152.654 E562.428
G1 Y153.079 E562.43
G1 X82.166 Y97.411 E562.8
G1 Y97.835 E562.802
G1 X137.834 Y153.503 E563.172
G1 Y153.927 E563.174
G1 X82.166 Y98.259 E563.544
G1 Y98.684 E563.546
G1 X137.834 Y154.352 E563.916
G1 Y154.776 E563.918
G1 X82.166 Y99.108 E564.289
G1 Y99.532 E564.291
G1 X137.834 Y155.2 E564.661
G1 Y155.624 E564.663
G1 X82.166 Y99.956 E565.033
G1 Y100.381 E565.035
G1 X137.834 Y156.049 E565.405
G1 Y156.473 E565.407
G1 X82.166 Y100.805 E565.777
G1 Y101.229 E565.779
G1 X137.834 Y156.897 E566.15
G1 Y157.321 E566.152
G1 X82.166 Y101.653 E566.522
G1 Y102.078 E566.524
G1 X137.834 Y157.746 E566.894
G1 Y158.17 E566.896
G1 X82.166 Y102.502 E567.266
G1 Y102.926 E567.268
G1 X137.834 Y158.594 E567.639
G1 Y159.018 E567.641
G1 X82.166 Y103.35 E568.011
G1 Y103.775 E568.013
G1 X137.834 Y159.443 E568.383
G1 Y159.867 E568.385
G1 X82.166 Y104.199 E568.755
G1 Y104.623 E568.757
G1 X137.834 Y160.291 E569.127
G1 Y160.716 E569.129
G1 X82.166 Y105.048 E569.5
G1 Y105.472 E569.502
G1 X137.834 Y161.14 E569.872
G1 Y161.564 E569.874
G1 X82.166 Y105.896 E570.244
G1 Y106.32 E570.246
G1 X137.834 Y161.988 E570.616
G1 Y162.413 E570.618
G1 X82.166 Y106.745 E570.989
G1 Y107.169 E570.991
G1 X137.834 Y162.837 E571.361
G1 Y163.261 E571.363
G1 X82.166 Y107.593 E571.733
G1 Y108.017 E571.735
G1 X137.834 Y163.685 E572.105
G1 Y164.11 E572.107
G1 X82.166 Y108.442 E572.477
G1 Y108.866 E572.479
G1 X137.834 Y164.534 E572.85
G1 Y164.958 E572.852
G1 X82.166 Y109.29 E573.222
G1 Y109.714 E573.224
G1 X137.834 Y165.382 E573.594
G1 Y165.807 E573.596
G1 X82.166 Y110.139 E573.966
G1 Y110.563 E573.968
G1 X137.834 Y166.231 E574.339
G1 Y166.655 E574.34
G1 X82.166 Y110.987 E574.711
G1 Y111.411 E574.713
G1 X137.834 Y167.079 E575.083
G1 Y167.504 E575.085
G1 X82.166 Y111.836 E575.455
G1 Y112.26 E575.457
G1 X137.834 Y167.928 E575.827
G1 Y168.352 E575.829
G1 X82.166 Y112.684 E576.2
G1 Y113.109 E576.202
G1 X137.834 Y168.777 E576.572
G1 Y169.201 E576.574
G1 X82.166 Y113.533 E576.944
G1 Y113.957 E576.946
G1 X137.834 Y169.625 E577.316
G1 Y170.049 E577.318
G1 X82.166 Y114.381 E577.688
G1 Y114.806 E577.69
G1 X137.834 Y170.474 E578.061
G1 Y170.898 E578.063
G1 X82.166 Y115.23 E578.433
G1 Y115.654 E578.435
G1 X137.834 Y171.322 E578.805
G1 Y171.611 E578.806
G1 X137.699 E578.807
G1 X82.166 Y116.078 E579.176
G1 Y116.503 E579.178
G1 X137.274 Y171.611 E579.545
G1 X136.85 E579.547
G1 X82.166 Y116.927 E579.911
G1 Y117.351 E579.913
G1 X136.426 Y171.611 E580.273
G1 X136.002 E580.275
G1 X82.166 Y117.775 E580.633
G1 Y118.2 E580.635
G1 X135.577 Y171.611 E580.991
G1 X135.153 E580.993
G1 X82.166 Y118.624 E581.345
G1 Y119.048 E581.347
G1 X134.729 Y171.611 E581.697
G1 X134.305 E581.699
G1 X82.166 Y119.472 E582.045
G1 Y119.897 E582.047
G1 X133.88 Y171.611 E582.391
G1 X133.456 E582.393
G1 X82.166 Y120.321 E582.734
G1 Y120.745 E582.736
G1 X133.032 Y171.611 E583.075
G1 X132.607 E583.077
G1 X82.166 Y121.17 E583.412
G1 Y121.594 E583.414
G1 X132.183 Y171.611 E583.747
G1 X131.759 E583.749
G1 X82.166 Y122.018 E584.079
G1 Y122.442 E584.081
G1 X131.335 Y171.611 E584.408
G1 X130.91 E584.41
G1 X82.166 Y122.867 E584.734
G1 Y123.291 E584.736
G1 X130.486 Y171.611 E585.057
G1 X130.062 E585.059
G1 X82.166 Y123.715 E585.378
G1 Y124.139 E585.38
G1 X129.638 Y171.611 E585.695
G1 X129.213 E585.697
G1 X82.166 Y124.564 E586.01
G1 Y124.988 E586.012
G1 X128.789 Y171.611 E586.322
G1 X128.365 E586.324
G1 X82.166 Y125.412 E586.632
G1 Y125.836 E586.634
G1 X127.941 Y171.611 E586.938
G1 X127.516 E586.94
G1 X82.166 Y126.261 E587.242
G1 Y126.685 E587.244
G1 X127.092 Y171.611 E587.542
G1 X126.668 E587.544
G1 X82.166 Y127.109 E587.84
G1 Y127.534 E587.842
G1 X126.244 Y171.611 E588.135
G1 X125.819 E588.137
G1 X82.166 Y127.958 E588.428
G1 Y128.382 E588.43
G1 X125.395 Y171.611 E588.717
G1 X124.971 E588.719
G1 X82.166 Y128.806 E589.004
G1 Y129.231 E589.006
G1 X124.546 Y171.611 E589.288
G1 X124.122 E589.29
G1 X82.166 Y129.655 E589.569
G1 Y130.079 E589.571
G1 X123.698 Y171.611 E589.847
G1 X123.274 E589.849
G1 X82.166 Y130.503 E590.122
G1 Y130.928 E590.124
G1 X122.849 Y171.611 E590.395
G1 X122.425 E590.397
G1 X82.166 Y131.352 E590.665
G1 Y131.776 E590.667
G1 X122.001 Y171.611 E590.932
G1 X121.577 E590.934
G1 X82.166 Y132.2 E591.196
G1 Y132.625 E591.198
G1 X121.152 Y171.611 E591.457
G1 X120.728 E591.459
G1 X82.166 Y133.049 E591.715
G1 Y133.473 E591.717
G1 X120.304 Y171.611 E591.971
G1 X119.88 E591.973
G1 X82.166 Y133.897 E592.224
G1 Y134.322 E592.226
G1 X119.455 Y171.611 E592.474
G1 X119.031 E592.476
G1 X82.166 Y134.746 E592.721
G1 Y135.17 E592.723
G1 X118.607 Y171.611 E592.965
G1 X118.183 E592.967
G1 X82.166 Y135.595 E593.207
G1 Y136.019 E593.209
G1 X117.758 Y171.611 E593.446
G1 X117.334 E593.448
G1 X82.166 Y136.443 E593.681
G1 Y136.867 E593.683
G1 X116.91 Y171.611 E593.914
G1 X116.485 E593.917
G1 X82.166 Y137.292 E594.145
G1 Y137.716 E594.147
G1 X116.061 Y171.611 E594.372
G1 X115.637 E594.374
G1 X82.166 Y138.14 E594.597
G1 Y138.564 E594.599
G1 X115.213 Y171.611 E594.819
G1 X114.788 E594.82
G1 X82.166 Y138.989 E595.037
G1 Y139.413 E595.039
G1 X114.364 Y171.611 E595.254
G1 X113.94 E595.256
G1 X82.166 Y139.837 E595.467
G1 Y140.261 E595.469
G1 X113.516 Y171.611 E595.677
G1 X113.091 E595.679
G1 X82.166 Y140.686 E595.885
G1 Y141.11 E595.887
G1 X112.667 Y171.611 E596.09
G1 X112.243 E596.092
G1 X82.166 Y141.534 E596.292
G1 Y141.958 E596.294
G1 X111.819 Y171.611 E596.491
G1 X111.394 E596.493
G1 X82.166 Y142.383 E596.688
G1 Y142.807 E596.69
G1 X110.97 Y171.611 E596.881
G1 X110.546 E596.883
G1 X82.166 Y143.231 E597.072
G1 Y143.656 E597.074
G1 X110.121 Y171.611 E597.26
G1 X109.697 E597.262
G1 X82.166 Y144.08 E597.445
G1 Y144.504 E597.447
G1 X109.273 Y171.611 E597.627
G1 X108.849 E597.629
G1 X82.166 Y144.928 E597.807
G1 Y145.353 E597.809
G1 X108.424 Y171.611 E597.983
G1 X108 E597.985
G1 X82.166 Y145.777 E598.157
G1 Y146.201 E598.159
G1 X107.576 Y171.611 E598.328
G1 X107.152 E598.33
G1 X82.166 Y146.625 E598.496
G1 Y147.05 E598.498
G1 X106.727 Y171.611 E598.661
G1 X106.303 E598.663
G1 X82.166 Y147.474 E598.824
G1 Y147.898 E598.826
G1 X105.879 Y171.611 E598.984
G1 X105.455 E598.986
G1 X82.166 Y148.322 E599.141
G1 Y148.747 E599.143
G1 X105.03 Y171.611 E599.295
G1 X104.606 E599.297
G1 X82.166 Y149.171 E599.446
G1 Y149.595 E599.448
G1 X104.182 Y171.611 E599.594
G1 X103.758 E599.596
G1 X82.166 Y150.02 E599.74
G1 Y150.444 E599.742
G1 X103.333 Y171.611 E599.883
G1 X102.909 E599.885
G1 X82.166 Y150.868 E600.023
G1 Y151.292 E600.025
G1 X102.485 Y171.611 E600.16
G1 X102.06 E600.162
G1 X82.166 Y151.717 E600.294
G1 Y152.141 E600.296
G1 X101.636 Y171.611 E600.425
G1 X101.212 E600.427
G1 X82.166 Y152.565 E600.554
G1 Y152.989 E600.556
G1 X100.788 Y171.611 E600.68
G1 X100.363 E600.682
G1 X82.166 Y153.414 E600.803
G1 Y153.838 E600.805
G1 X99.939 Y171.611 E600.923
G1 X99.515 E600.925
G1 X82.166 Y154.262 E601.041
G1 Y154.686 E601.043
G1 X99.091 Y171.611 E601.155
G1 X98.666 E601.157
G1 X82.166 Y155.111 E601.267
G1 Y155.535 E601.269
G1 X98.242 Y171.611 E601.376
G1 X97.818 E601.378
G1 X82.166 Y155.959 E601.482
G1 Y156.383 E601.484
G1 X97.394 Y171.611 E601.585
G1 X96.969 E601.587
G1 X82.166 Y156.808 E601.686
G1 Y157.232 E601.688
G1 X96.545 Y171.611 E601.783
G1 X96.121 E601.785
G1 X82.166 Y157.656 E601.878
G1 Y158.081 E601.88
G1 X95.697 Y171.611 E601.97
G1 X95.272 E601.972
G1 X82.166 Y158.505 E602.059
G1 Y158.929 E602.061
G1 X94.848 Y171.611 E602.145
G1 X94.424 E602.147
G1 X82.166 Y159.353 E602.229
G1 Y159.778 E602.231
G1 X93.999 Y171.611 E602.31
G1 X93.575 E602.312
G1 X82.166 Y160.202 E602.388
G1 Y160.626 E602.39
G1 X93.151 Y171.611 E602.463
G1 X92.727 E602.465
