;FLAVOR:Marlin
;TIME:1310
;Filament used: 0.969338m
;Layer height: 0.2
;MINX:79.634
;MINY:68.993
;MINZ:0.2
;MAXX:140.364
;MAXY:151.024
;MAXZ:11
;Generated with Cura_SteamEngine 4.4.1
M140 S60
M105
M190 S60
M104 S200
M105
M109 S200
M82 ;absolute extrusion mode
M201 X500.00 Y500.00 Z100.00 E5000.00 ;Setup machine max acceleration
M203 X500.00 Y500.00 Z10.00 E50.00 ;Setup machine max feedrate
M204 P500.00 R1000.00 T500.00 ;Setup Print/Retract/Travel acceleration
M205 X8.00 Y8.00 Z0.40 E5.00 ;Setup Jerk
M220 S100 ;Reset Feedrate
M221 S100 ;Reset Flowrate

G28 ;Home
M420 L2 S1 ; Enable bed mesh levelling, mesh slot 2
G29 J ; 3-point probe

G92 E0 ;Reset Extruder
G1 Z2.0 F3000 ;Move Z Axis up
G1 X10.1 Y20 Z0.28 F5000.0 ;Move to start position
G1 X10.1 Y200.0 Z0.28 F1500.0 E15 ;Draw the first line
G1 X10.4 Y200.0 Z0.28 F5000.0 ;Move to side a little
G1 X10.4 Y20 Z0.28 F1500.0 E30 ;Draw the second line
G92 E0 ;Reset Extruder
G1 Z2.0 F3000 ;Move Z Axis up
G92 E0
G92 E0
G1 F1500 E-6.5
;LAYER_COUNT:55
;LAYER:0
M107
G0 F6000 X96.477 Y73.421 Z0.2
;TYPE:SKIRT
G1 F1500 E0
G1 F1200 X97.241 Y72.526 E0.03914
G1 X97.338 Y72.424 E0.04382
G1 X98.013 Y71.772 E0.07503
G1 X98.74 Y71.181 E0.1062
G1 X99.516 Y70.653 E0.13741
G1 X100.333 Y70.194 E0.16858
G1 X101.187 Y69.805 E0.19979
G1 X102.071 Y69.491 E0.231
G1 X102.978 Y69.254 E0.26218
G1 X103.902 Y69.094 E0.29337
G1 X104.96 Y69.01 E0.32867
G1 X105.275 Y69 E0.33915
G1 X105.623 Y68.994 E0.35072
G1 X113.982 Y68.993 E0.62875
G1 X114.138 Y68.994 E0.63393
G1 X114.846 Y69.004 E0.65748
G1 X115.783 Y69.057 E0.6887
G1 X116.711 Y69.19 E0.71988
G1 X117.625 Y69.401 E0.75108
G1 X118.517 Y69.69 E0.78227
G1 X119.382 Y70.053 E0.81347
G1 X120.212 Y70.489 E0.84465
G1 X121.003 Y70.994 E0.87586
G1 X121.747 Y71.564 E0.90704
G1 X122.428 Y72.184 E0.93767
G1 X122.523 Y72.278 E0.94211
G1 X123.161 Y72.965 E0.97329
G1 X123.738 Y73.705 E1.0045
G1 X124.25 Y74.49 E1.03568
G1 X124.693 Y75.317 E1.06688
G1 X125.064 Y76.178 E1.09806
G1 X125.361 Y77.068 E1.12927
G1 X125.58 Y77.98 E1.16046
G1 X125.721 Y78.907 E1.19165
G1 X125.767 Y79.445 E1.20961
G1 X125.842 Y80.702 E1.25149
G1 X126.029 Y83.249 E1.33643
G1 X126.285 Y85.752 E1.42012
G1 X126.613 Y88.261 E1.50428
G1 X127.007 Y90.726 E1.58731
G1 X127.476 Y93.208 E1.67132
G1 X128.011 Y95.659 E1.75476
G1 X128.62 Y98.118 E1.83902
G1 X129.289 Y100.523 E1.92204
G1 X130.042 Y102.961 E2.00691
G1 X130.85 Y105.331 E2.09019
G1 X131.722 Y107.677 E2.17344
G1 X132.668 Y110.014 E2.25729
G1 X133.682 Y112.328 E2.34132
G1 X134.738 Y114.566 E2.42363
G1 X136.21 Y117.444 E2.53114
G1 X136.652 Y118.272 E2.56236
G1 X137.042 Y119.081 E2.59223
G1 X137.324 Y119.733 E2.61586
G1 X137.391 Y119.89 E2.62154
G1 X138.809 Y123.313 E2.74477
G1 X138.865 Y123.451 E2.74972
G1 X139.128 Y124.111 E2.77335
G1 X139.437 Y124.996 E2.80453
G1 X139.67 Y125.905 E2.83574
G1 X139.788 Y126.554 E2.85768
G1 X139.925 Y127.469 E2.88845
G1 X139.951 Y127.659 E2.89483
G1 X140.192 Y129.485 E2.95609
G1 X140.212 Y129.638 E2.96122
G1 X140.295 Y130.343 E2.98483
G1 X140.364 Y131.278 E3.01602
G1 X140.354 Y132.216 E3.04722
G1 X140.237 Y133.337 E3.0847
G1 X140.19 Y133.636 E3.09477
G1 X140.111 Y134.079 E3.10974
G1 X139.73 Y135.99 E3.17455
G1 X139.699 Y136.139 E3.17961
G1 X139.547 Y136.85 E3.20379
G1 X139.312 Y137.758 E3.23499
G1 X139 Y138.642 E3.26617
G1 X138.41 Y139.884 E3.3119
G1 X138.186 Y140.288 E3.32727
G1 X138.079 Y140.476 E3.33446
G1 X135.493 Y144.931 E3.50579
G1 X135.415 Y145.064 E3.51092
G1 X135.059 Y145.658 E3.53395
G1 X134.543 Y146.441 E3.56514
G1 X133.962 Y147.177 E3.59633
G1 X133.321 Y147.862 E3.62753
G1 X132.624 Y148.489 E3.65871
G1 X131.875 Y149.054 E3.68992
G1 X131.082 Y149.554 E3.7211
G1 X130.248 Y149.984 E3.7523
G1 X129.381 Y150.341 E3.78349
G1 X128.487 Y150.624 E3.81468
G1 X127.155 Y150.896 E3.8599
G1 X126.97 Y150.922 E3.86611
G1 X126.036 Y151.013 E3.89732
G1 X125.099 Y151.024 E3.92849
G1 X124.008 Y150.936 E3.96489
G1 X123.665 Y150.891 E3.9764
G1 X123.504 Y150.868 E3.98181
G1 X121.643 Y150.596 E4.04436
G1 X119.165 Y150.306 E4.12734
G1 X116.642 Y150.082 E4.21159
G1 X114.108 Y149.928 E4.29603
G1 X111.63 Y149.849 E4.37849
G1 X109.105 Y149.84 E4.46247
G1 X106.584 Y149.902 E4.54634
G1 X104.054 Y150.036 E4.63061
G1 X101.546 Y150.24 E4.7143
G1 X99.05 Y150.514 E4.79782
G1 X96.07 Y150.925 E4.89787
G1 X95.136 Y151.013 E4.92907
G1 X94.198 Y151.022 E4.96027
G1 X93.261 Y150.95 E4.99153
G1 X93.069 Y150.927 E4.99796
G1 X92.143 Y150.776 E5.02917
G1 X91.234 Y150.546 E5.06035
G1 X90.347 Y150.24 E5.09156
G1 X89.49 Y149.86 E5.12274
G1 X88.668 Y149.408 E5.15394
G1 X87.888 Y148.887 E5.18514
G1 X87.155 Y148.302 E5.21633
G1 X86.474 Y147.657 E5.24753
G1 X85.851 Y146.956 E5.27872
G1 X85.29 Y146.204 E5.30993
G1 X85.014 Y145.779 E5.32678
G1 X84.903 Y145.599 E5.33381
G1 X84.803 Y145.434 E5.34023
G1 X84.624 Y145.132 E5.35191
G1 X84.574 Y145.045 E5.35525
G1 X82.06 Y140.714 E5.5218
G1 X81.983 Y140.581 E5.52692
G1 X81.62 Y139.935 E5.55156
G1 X81.196 Y139.098 E5.58277
G1 X80.845 Y138.229 E5.61394
G1 X80.471 Y136.93 E5.6589
G1 X80.368 Y136.466 E5.67471
G1 X80.321 Y136.24 E5.68239
G1 X79.97 Y134.486 E5.74188
G1 X79.94 Y134.332 E5.7471
G1 X79.817 Y133.668 E5.76956
G1 X79.686 Y132.739 E5.80076
G1 X79.634 Y131.803 E5.83194
G1 X79.667 Y130.804 E5.86519
G1 X79.691 Y130.498 E5.8754
G1 X79.75 Y129.929 E5.89442
G1 X80.077 Y127.433 E5.97815
G1 X80.097 Y127.289 E5.98299
G1 X80.186 Y126.673 E6.00369
G1 X80.36 Y125.751 E6.03489
G1 X80.611 Y124.848 E6.06607
G1 X80.854 Y124.174 E6.0899
G1 X81.317 Y123.012 E6.1315
G1 X81.372 Y122.877 E6.13635
G1 X82.598 Y119.915 E6.24297
G1 X82.662 Y119.765 E6.24839
G1 X82.951 Y119.095 E6.27266
G1 X83.345 Y118.276 E6.30289
G1 X83.782 Y117.457 E6.33377
G1 X84.964 Y115.169 E6.41942
G1 X86.062 Y112.884 E6.50374
G1 X87.087 Y110.59 E6.58731
G1 X88.054 Y108.253 E6.67143
G1 X88.94 Y105.918 E6.75449
G1 X89.772 Y103.532 E6.83854
G1 X90.529 Y101.14 E6.92199
G1 X91.226 Y98.706 E7.0062
G1 X91.845 Y96.288 E7.08921
G1 X92.416 Y93.764 E7.17528
G1 X92.881 Y91.385 E7.2559
G1 X93.305 Y88.844 E7.34159
G1 X93.643 Y86.404 E7.42352
G1 X93.922 Y83.85 E7.50897
G1 X94.123 Y81.366 E7.59186
G1 X94.229 Y79.488 E7.65442
G1 X94.322 Y78.555 E7.6856
G1 X94.494 Y77.633 E7.7168
G1 X94.743 Y76.729 E7.74799
G1 X95.069 Y75.849 E7.7792
G1 X95.469 Y75.001 E7.81038
G1 X95.939 Y74.189 E7.84159
G1 X96.477 Y73.421 E7.87278
G0 F6000 X96.867 Y73.57
G1 F1200 X97.531 Y72.801 E7.90657
G1 X97.628 Y72.699 E7.91125
G1 X98.291 Y72.06 E7.94188
G1 X99.006 Y71.481 E7.97248
G1 X99.77 Y70.967 E8.0031
G1 X100.575 Y70.52 E8.03373
G1 X101.416 Y70.145 E8.06436
G1 X102.286 Y69.844 E8.09497
G1 X103.179 Y69.62 E8.1256
G1 X104.088 Y69.475 E8.15621
G1 X104.973 Y69.409 E8.18573
G1 X105.288 Y69.399 E8.19621
G1 X105.623 Y69.394 E8.20735
G1 X113.982 Y69.393 E8.48538
G1 X114.133 Y69.394 E8.4904
G1 X114.841 Y69.404 E8.51395
G1 X115.76 Y69.457 E8.54457
G1 X116.671 Y69.59 E8.57519
G1 X117.567 Y69.801 E8.6058
G1 X118.441 Y70.089 E8.63641
G1 X119.288 Y70.451 E8.66705
G1 X120.099 Y70.886 E8.69766
G1 X120.87 Y71.39 E8.72829
G1 X121.594 Y71.959 E8.75892
G1 X122.147 Y72.468 E8.78392
G1 X122.242 Y72.562 E8.78836
G1 X122.867 Y73.237 E8.81896
G1 X123.432 Y73.965 E8.84961
G1 X123.932 Y74.738 E8.88023
G1 X124.362 Y75.552 E8.91085
G1 X124.72 Y76.4 E8.94146
G1 X125.004 Y77.276 E8.97209
G1 X125.21 Y78.173 E9.0027
G1 X125.367 Y79.469 E9.04612
G1 X125.439 Y80.687 E9.0867
G1 X125.631 Y83.284 E9.17332
G1 X125.888 Y85.808 E9.2577
G1 X126.215 Y88.305 E9.34146
G1 X126.612 Y90.791 E9.42519
G1 X127.085 Y93.296 E9.50998
G1 X127.618 Y95.735 E9.59302
G1 X128.232 Y98.216 E9.67802
G1 X128.908 Y100.643 E9.76182
G1 X129.658 Y103.071 E9.84634
G1 X130.468 Y105.451 E9.92996
G1 X131.357 Y107.842 E10.0148
G1 X132.298 Y110.163 E10.0981
G1 X133.332 Y112.523 E10.1838
G1 X134.384 Y114.752 E10.26578
G1 X135.835 Y117.589 E10.37176
G1 X136.299 Y118.46 E10.40459
G1 X136.675 Y119.24 E10.43339
G1 X136.957 Y119.892 E10.45701
G1 X137.021 Y120.043 E10.46247
G1 X138.439 Y123.466 E10.5857
G1 X138.493 Y123.599 E10.59047
G1 X138.756 Y124.259 E10.6141
G1 X139.059 Y125.128 E10.64471
G1 X139.286 Y126.021 E10.67536
G1 X139.392 Y126.613 E10.69536
G1 X139.529 Y127.528 E10.72614
G1 X139.555 Y127.711 E10.73228
G1 X139.796 Y129.537 E10.79354
G1 X139.814 Y129.685 E10.7985
G1 X139.897 Y130.39 E10.82211
G1 X139.965 Y131.308 E10.85273
G1 X139.953 Y132.228 E10.88333
G1 X139.841 Y133.275 E10.91835
G1 X139.794 Y133.574 E10.92842
G1 X139.718 Y134.001 E10.94284
G1 X139.337 Y135.912 E11.00766
G1 X139.308 Y136.055 E11.01251
G1 X139.156 Y136.766 E11.03669
G1 X138.924 Y137.657 E11.06731
G1 X138.617 Y138.525 E11.09794
G1 X138.06 Y139.69 E11.14089
G1 X137.836 Y140.094 E11.15625
G1 X137.733 Y140.275 E11.16318
G1 X135.147 Y144.73 E11.3345
G1 X135.072 Y144.858 E11.33944
G1 X134.716 Y145.452 E11.36247
G1 X134.209 Y146.221 E11.39311
G1 X133.637 Y146.942 E11.42372
G1 X133.005 Y147.611 E11.45433
G1 X132.317 Y148.223 E11.48495
G1 X131.578 Y148.773 E11.51559
G1 X130.795 Y149.256 E11.54619
G1 X129.972 Y149.67 E11.57683
G1 X129.117 Y150.011 E11.60745
G1 X128.236 Y150.276 E11.63805
G1 X127.099 Y150.5 E11.67659
G1 X126.914 Y150.526 E11.68281
G1 X125.998 Y150.614 E11.71341
G1 X125.077 Y150.623 E11.74405
G1 X124.06 Y150.539 E11.77799
G1 X123.717 Y150.494 E11.78949
G1 X123.562 Y150.472 E11.7947
G1 X121.715 Y150.202 E11.85678
G1 X119.21 Y149.909 E11.94067
G1 X116.666 Y149.683 E12.02562
G1 X114.144 Y149.53 E12.10965
G1 X111.609 Y149.449 E12.19401
G1 X109.096 Y149.44 E12.27759
G1 X106.554 Y149.503 E12.36217
G1 X104.034 Y149.636 E12.4461
G1 X101.54 Y149.839 E12.52932
G1 X98.988 Y150.119 E12.61471
G1 X96.015 Y150.529 E12.71453
G1 X95.099 Y150.615 E12.74513
G1 X94.178 Y150.621 E12.77576
G1 X93.308 Y150.553 E12.80479
G1 X93.116 Y150.53 E12.81122
G1 X92.208 Y150.381 E12.84182
G1 X91.316 Y150.153 E12.87245
G1 X90.447 Y149.849 E12.90307
G1 X89.607 Y149.471 E12.9337
G1 X88.804 Y149.022 E12.9643
G1 X88.042 Y148.504 E12.99495
G1 X87.329 Y147.922 E13.02556
G1 X86.668 Y147.281 E13.05619
G1 X86.066 Y146.584 E13.08682
G1 X85.355 Y145.569 E13.12804
G1 X85.244 Y145.389 E13.13507
G1 X85.147 Y145.23 E13.14126
G1 X84.968 Y144.928 E13.15294
G1 X84.92 Y144.844 E13.15616
G1 X82.406 Y140.513 E13.32272
G1 X82.332 Y140.385 E13.32763
G1 X81.969 Y139.739 E13.35228
G1 X81.553 Y138.917 E13.38292
G1 X81.21 Y138.063 E13.41353
G1 X80.862 Y136.843 E13.45573
G1 X80.759 Y136.379 E13.47154
G1 X80.713 Y136.162 E13.47891
G1 X80.362 Y134.408 E13.53841
G1 X80.333 Y134.259 E13.54346
G1 X80.21 Y133.595 E13.56592
G1 X80.082 Y132.683 E13.59655
G1 X80.033 Y131.764 E13.62716
G1 X80.065 Y130.835 E13.65808
G1 X80.089 Y130.529 E13.66828
G1 X80.147 Y129.981 E13.68661
G1 X80.474 Y127.485 E13.77034
G1 X80.493 Y127.346 E13.77501
G1 X80.582 Y126.73 E13.79571
G1 X80.753 Y125.826 E13.82631
G1 X81.002 Y124.939 E13.85695
G1 X81.226 Y124.322 E13.87878
G1 X81.689 Y123.16 E13.92038
G1 X81.742 Y123.03 E13.92505
G1 X82.968 Y120.068 E14.03168
G1 X83.029 Y119.924 E14.03688
G1 X83.318 Y119.254 E14.06115
G1 X83.698 Y118.464 E14.0903
G1 X84.133 Y117.649 E14.12103
G1 X85.314 Y115.361 E14.20667
G1 X86.43 Y113.042 E14.29227
G1 X87.464 Y110.726 E14.37662
G1 X88.422 Y108.411 E14.45995
G1 X89.32 Y106.043 E14.54419
G1 X90.156 Y103.648 E14.62856
G1 X90.91 Y101.266 E14.71166
G1 X91.613 Y98.81 E14.79663
G1 X92.239 Y96.362 E14.88067
G1 X92.797 Y93.896 E14.96476
G1 X93.281 Y91.421 E15.04864
G1 X93.697 Y88.928 E15.1327
G1 X94.042 Y86.431 E15.21654
G1 X94.32 Y83.893 E15.30146
G1 X94.524 Y81.38 E15.38532
G1 X94.629 Y79.51 E15.44761
G1 X94.72 Y78.594 E15.47823
G1 X94.891 Y77.69 E15.50883
G1 X95.14 Y76.803 E15.53947
G1 X95.464 Y75.942 E15.57007
G1 X95.862 Y75.111 E15.60071
G1 X96.331 Y74.319 E15.63133
G1 X96.867 Y73.57 E15.66196
G0 F6000 X97.256 Y73.722
G1 F1200 X97.821 Y73.077 E15.69048
G1 X97.918 Y72.975 E15.69516
G1 X98.568 Y72.349 E15.72518
G1 X99.272 Y71.782 E15.75524
G1 X100.023 Y71.281 E15.78527
G1 X100.815 Y70.847 E15.81531
G1 X101.643 Y70.486 E15.84535
G1 X102.499 Y70.199 E15.87538
G1 X103.377 Y69.989 E15.90541
G1 X104.271 Y69.857 E15.93546
G1 X104.985 Y69.809 E15.95926
G1 X105.3 Y69.799 E15.96975
G1 X105.623 Y69.794 E15.98049
G1 X113.982 Y69.793 E16.25851
G1 X114.127 Y69.794 E16.26333
G1 X114.835 Y69.804 E16.28688
G1 X115.737 Y69.857 E16.31694
G1 X116.63 Y69.989 E16.34696
G1 X117.508 Y70.2 E16.37699
G1 X118.364 Y70.487 E16.40702
G1 X119.192 Y70.85 E16.43709
G1 X119.984 Y71.284 E16.46713
G1 X120.734 Y71.786 E16.49715
G1 X121.437 Y72.353 E16.52719
G1 X121.865 Y72.752 E16.54665
G1 X121.96 Y72.846 E16.55109
G1 X122.573 Y73.509 E16.58113
G1 X123.126 Y74.224 E16.61119
G1 X123.612 Y74.985 E16.64122
G1 X124.03 Y75.786 E16.67127
G1 X124.375 Y76.62 E16.70129
G1 X124.645 Y77.482 E16.73134
G1 X124.838 Y78.364 E16.76137
G1 X124.968 Y79.493 E16.79916
G1 X125.042 Y80.737 E16.84061
G1 X125.232 Y83.317 E16.92666
G1 X125.489 Y85.833 E17.01077
G1 X125.822 Y88.383 E17.09631
G1 X126.218 Y90.857 E17.17964
G1 X126.695 Y93.384 E17.26517
G1 X127.225 Y95.811 E17.3478
G1 X127.847 Y98.323 E17.43387
G1 X128.524 Y100.754 E17.5178
G1 X129.283 Y103.212 E17.60337
G1 X130.086 Y105.571 E17.68625
G1 X130.987 Y107.994 E17.77223
G1 X131.937 Y110.338 E17.85635
G1 X132.942 Y112.632 E17.93965
G1 X134.042 Y114.964 E18.02541
G1 X135.471 Y117.757 E18.12976
G1 X135.946 Y118.648 E18.16334
G1 X136.308 Y119.399 E18.19107
G1 X136.59 Y120.051 E18.21469
G1 X136.651 Y120.196 E18.21993
G1 X138.069 Y123.619 E18.34316
G1 X138.121 Y123.747 E18.34775
G1 X138.384 Y124.407 E18.37138
G1 X138.681 Y125.26 E18.40142
G1 X138.901 Y126.136 E18.43147
G1 X138.997 Y126.673 E18.44961
G1 X139.134 Y127.588 E18.48038
G1 X139.158 Y127.763 E18.48626
G1 X139.399 Y129.589 E18.54752
G1 X139.417 Y129.731 E18.55228
G1 X139.5 Y130.436 E18.57589
G1 X139.566 Y131.337 E18.60594
G1 X139.552 Y132.24 E18.63597
G1 X139.446 Y133.213 E18.66853
G1 X139.399 Y133.512 E18.67859
G1 X139.326 Y133.922 E18.69244
G1 X138.945 Y135.833 E18.75726
G1 X138.917 Y135.971 E18.76194
G1 X138.765 Y136.682 E18.78612
G1 X138.537 Y137.556 E18.81616
G1 X138.233 Y138.407 E18.84622
G1 X137.711 Y139.496 E18.88639
G1 X137.487 Y139.9 E18.90175
G1 X137.388 Y140.075 E18.90844
G1 X134.802 Y144.53 E19.07977
G1 X134.729 Y144.653 E19.08452
G1 X134.373 Y145.247 E19.10756
G1 X133.875 Y146 E19.13758
G1 X133.312 Y146.706 E19.16762
G1 X132.689 Y147.36 E19.19766
G1 X132.011 Y147.956 E19.22768
G1 X131.282 Y148.49 E19.25774
G1 X130.509 Y148.957 E19.28778
G1 X129.698 Y149.354 E19.31781
G1 X128.855 Y149.678 E19.34785
G1 X127.987 Y149.926 E19.37787
G1 X127.044 Y150.104 E19.40979
G1 X126.859 Y150.13 E19.416
G1 X125.96 Y150.216 E19.44604
G1 X125.056 Y150.222 E19.47611
G1 X124.112 Y150.142 E19.50762
G1 X123.769 Y150.097 E19.51912
G1 X123.62 Y150.077 E19.52412
G1 X121.749 Y149.803 E19.58702
G1 X119.221 Y149.507 E19.67167
G1 X116.692 Y149.283 E19.75612
G1 X114.182 Y149.131 E19.83975
G1 X111.622 Y149.049 E19.92494
G1 X109.088 Y149.04 E20.00923
G1 X106.558 Y149.102 E20.0934
G1 X104.017 Y149.237 E20.17803
G1 X101.466 Y149.444 E20.26316
G1 X98.962 Y149.72 E20.34695
G1 X95.961 Y150.133 E20.4477
G1 X95.062 Y150.216 E20.47773
G1 X94.159 Y150.22 E20.50776
G1 X93.356 Y150.156 E20.53455
G1 X93.164 Y150.133 E20.54099
G1 X92.273 Y149.986 E20.57102
G1 X91.398 Y149.76 E20.60108
G1 X90.547 Y149.459 E20.6311
G1 X89.726 Y149.083 E20.66114
G1 X88.941 Y148.636 E20.69118
G1 X88.199 Y148.121 E20.72122
G1 X87.505 Y147.543 E20.75126
G1 X86.865 Y146.905 E20.78132
G1 X86.285 Y146.214 E20.81132
G1 X85.695 Y145.359 E20.84588
G1 X85.584 Y145.179 E20.85291
G1 X85.491 Y145.026 E20.85886
G1 X85.312 Y144.724 E20.87054
G1 X85.265 Y144.644 E20.87363
G1 X82.751 Y140.313 E21.04019
G1 X82.681 Y140.189 E21.04492
G1 X82.318 Y139.543 E21.06957
G1 X81.911 Y138.737 E21.0996
G1 X81.576 Y137.898 E21.12965
G1 X81.252 Y136.756 E21.16913
G1 X81.149 Y136.292 E21.18494
G1 X81.105 Y136.083 E21.19204
G1 X80.754 Y134.329 E21.25154
G1 X80.727 Y134.186 E21.25638
G1 X80.604 Y133.522 E21.27884
G1 X80.479 Y132.627 E21.30889
G1 X80.433 Y131.725 E21.33893
G1 X80.464 Y130.866 E21.36752
G1 X80.488 Y130.56 E21.37773
G1 X80.543 Y130.033 E21.39535
G1 X80.87 Y127.537 E21.47908
G1 X80.889 Y127.403 E21.48358
G1 X80.978 Y126.787 E21.50428
