;FLAVOR:Marlin
;TIME:3107
;Filament used: 0.895747m
;Layer height: 0.2
;MINX:83.015
;MINY:95
;MINZ:0.2
;MAXX:136.998
;MAXY:125
;MAXZ:80
;POSTPROCESSED
;ChangeAtZ instances: 1
;Generated with Cura_SteamEngine 4.4.1
M140 S60
M105
M190 S60
M104 S230
M105
M109 S230
M82 ;absolute extrusion mode
M201 X500.00 Y500.00 Z100.00 E5000.00 ;Setup machine max acceleration
M203 X500.00 Y500.00 Z10.00 E50.00 ;Setup machine max feedrate
M204 P500.00 R1000.00 T500.00 ;Setup Print/Retract/Travel acceleration
M205 X8.00 Y8.00 Z0.40 E5.00 ;Setup Jerk
M220 S100 ;Reset Feedrate
M221 S100 ;Reset Flowrate
G28 ;Home
M420 L2 S1 ; Enable bed mesh levelling, mesh slot 2
G29 J ; 3-point probe
G92 E0 ;Reset Extruder
G1 Z2.0 F3000 ;Move Z Axis up
G1 X10.1 Y20 Z0.28 F5000.0 ;Move to start position
G1 X10.1 Y200.0 Z0.28 F1500.0 E15 ;Draw the first line
G1 X10.4 Y200.0 Z0.28 F5000.0 ;Move to side a little
G1 X10.4 Y20 Z0.28 F1500.0 E30 ;Draw the second line
G92 E0 ;Reset Extruder
G1 Z2.0 F3000 ;Move Z Axis up
G92 E0
G92 E0
G1 F1500 E-6.5
;LAYER_COUNT:400
;LAYER:0
M107
G0 F6000 X87.765 Y99.051 Z0.2
;TYPE:SKIRT
G1 F1500 E0
G1 F1200 X88.506 Y98.407 E0.03265
G1 X88.836 Y98.145 E0.04667
G1 X89.667 Y97.546 E0.08074
G1 X89.966 Y97.351 E0.09261
G1 X90.831 Y96.842 E0.12599
G1 X91.158 Y96.669 E0.1383
G1 X92.06 Y96.243 E0.17148
G1 X92.383 Y96.108 E0.18312
G1 X93.379 Y95.747 E0.21835
G1 X93.774 Y95.625 E0.2321
G1 X94.691 Y95.384 E0.26364
G1 X94.968 Y95.324 E0.27307
G1 X95.97 Y95.155 E0.30686
G1 X96.398 Y95.103 E0.3212
G1 X97.462 Y95.026 E0.35669
G1 X97.838 Y95.017 E0.3692
G1 X98.785 Y95.035 E0.4007
G1 X99.09 Y95.054 E0.41086
G1 X99.308 Y95.07 E0.41813
G1 X102.015 Y95.293 E0.50847
G1 X104.534 Y95.428 E0.59237
G1 X107.02 Y95.492 E0.67509
G1 X109.545 Y95.484 E0.75907
G1 X112.058 Y95.405 E0.84269
G1 X115.789 Y95.16 E0.96705
G1 X117.064 Y95.05 E1.00962
G1 X117.699 Y95.013 E1.03077
G1 X118.015 Y95.004 E1.04129
G1 X118.328 Y95 E1.0517
G1 X125.291 Y95 E1.28329
G1 X125.449 Y95.001 E1.28855
G1 X126.147 Y95.011 E1.31176
G1 X127.083 Y95.065 E1.34295
G1 X128.011 Y95.197 E1.37412
G1 X128.925 Y95.409 E1.40533
G1 X129.817 Y95.698 E1.43652
G1 X130.682 Y96.061 E1.46772
G1 X131.512 Y96.497 E1.4989
G1 X132.303 Y97.002 E1.53011
G1 X133.047 Y97.573 E1.56131
G1 X133.74 Y98.205 E1.5925
G1 X134.377 Y98.893 E1.62369
G1 X134.952 Y99.634 E1.65488
G1 X135.463 Y100.42 E1.68606
G1 X135.905 Y101.248 E1.71728
G1 X136.274 Y102.11 E1.74847
G1 X136.569 Y103 E1.77965
G1 X136.787 Y103.912 E1.81084
G1 X136.927 Y104.84 E1.84206
G1 X136.984 Y105.693 E1.87049
G1 X136.993 Y106.005 E1.88087
G1 X136.998 Y106.322 E1.89142
G1 X136.998 Y113.264 E2.12231
G1 X136.997 Y113.4 E2.12683
G1 X136.988 Y114.127 E2.15101
G1 X136.937 Y115.064 E2.18222
G1 X136.805 Y115.992 E2.2134
G1 X136.596 Y116.906 E2.24458
G1 X136.309 Y117.799 E2.27578
G1 X135.947 Y118.665 E2.307
G1 X135.513 Y119.496 E2.33818
G1 X135.009 Y120.287 E2.36938
G1 X134.44 Y121.032 E2.40056
G1 X133.809 Y121.727 E2.43178
G1 X133.122 Y122.365 E2.46296
G1 X132.383 Y122.942 E2.49415
G1 X131.597 Y123.454 E2.52535
G1 X130.771 Y123.897 E2.55652
G1 X129.909 Y124.269 E2.58775
G1 X129.02 Y124.565 E2.61891
G1 X128.108 Y124.785 E2.65011
G1 X127.181 Y124.926 E2.6813
G1 X126.297 Y124.987 E2.71077
G1 X125.976 Y124.996 E2.72145
G1 X125.668 Y125 E2.7317
G1 X118.705 Y125 E2.96329
G1 X118.547 Y124.999 E2.96854
G1 X117.85 Y124.989 E2.99173
G1 X117.079 Y124.951 E3.0174
G1 X114.31 Y124.716 E3.10983
G1 X111.791 Y124.575 E3.19374
G1 X109.269 Y124.504 E3.27766
G1 X106.746 Y124.506 E3.36158
G1 X104.257 Y124.577 E3.44439
G1 X101.727 Y124.721 E3.52868
G1 X99.138 Y124.942 E3.6151
G1 X98.338 Y124.981 E3.64174
G1 X98.009 Y124.985 E3.65268
G1 X96.95 Y124.947 E3.68793
G1 X96.571 Y124.915 E3.70058
G1 X95.577 Y124.785 E3.73392
G1 X95.165 Y124.712 E3.74784
G1 X94.183 Y124.492 E3.78131
G1 X93.894 Y124.413 E3.79127
G1 X92.954 Y124.11 E3.82412
G1 X92.581 Y123.971 E3.83736
G1 X91.628 Y123.563 E3.87184
G1 X91.31 Y123.409 E3.88359
G1 X90.405 Y122.918 E3.91784
G1 X90.088 Y122.726 E3.93017
G1 X89.269 Y122.178 E3.96294
G1 X88.974 Y121.961 E3.97512
G1 X88.176 Y121.314 E4.00929
G1 X87.874 Y121.045 E4.02274
G1 X87.154 Y120.342 E4.05621
G1 X86.968 Y120.143 E4.06527
G1 X86.329 Y119.395 E4.09799
G1 X86.046 Y119.032 E4.1133
G1 X85.451 Y118.191 E4.14757
G1 X85.267 Y117.903 E4.15893
G1 X84.751 Y117.005 E4.19338
G1 X84.598 Y116.707 E4.20452
G1 X84.199 Y115.839 E4.2363
G1 X84.048 Y115.469 E4.24959
G1 X83.694 Y114.465 E4.28499
G1 X83.598 Y114.144 E4.29614
G1 X83.364 Y113.216 E4.32797
G1 X83.281 Y112.814 E4.34162
G1 X83.118 Y111.777 E4.37654
G1 X83.085 Y111.473 E4.38671
G1 X83.023 Y110.509 E4.41884
G1 X83.015 Y110.115 E4.43194
G1 X83.043 Y109.087 E4.46615
G1 X83.072 Y108.692 E4.47932
G1 X83.194 Y107.672 E4.51349
G1 X83.247 Y107.357 E4.52411
G1 X83.46 Y106.373 E4.5576
G1 X83.563 Y105.983 E4.57101
G1 X83.864 Y105.022 E4.60451
G1 X83.98 Y104.704 E4.61577
G1 X84.365 Y103.781 E4.64903
G1 X84.532 Y103.427 E4.66205
G1 X85.002 Y102.538 E4.69549
G1 X85.171 Y102.251 E4.70657
G1 X85.73 Y101.396 E4.74055
G1 X85.94 Y101.105 E4.75248
G1 X86.583 Y100.297 E4.78683
G1 X86.885 Y99.952 E4.80208
G1 X87.581 Y99.226 E4.83553
G1 X87.765 Y99.051 E4.84398
G0 F6000 X88.041 Y99.341
G1 F1200 X88.755 Y98.72 E4.87545
G1 X89.085 Y98.458 E4.88946
G1 X89.886 Y97.881 E4.9223
G1 X90.185 Y97.686 E4.93417
G1 X91.018 Y97.195 E4.96633
G1 X91.345 Y97.022 E4.97863
G1 X92.214 Y96.612 E5.01059
G1 X92.537 Y96.477 E5.02224
G1 X93.497 Y96.129 E5.0562
G1 X93.892 Y96.007 E5.06995
G1 X94.776 Y95.775 E5.10035
G1 X95.053 Y95.715 E5.10977
G1 X96.019 Y95.552 E5.14236
G1 X96.447 Y95.5 E5.1567
G1 X97.471 Y95.426 E5.19084
G1 X97.847 Y95.417 E5.20335
G1 X98.76 Y95.435 E5.23373
G1 X99.065 Y95.454 E5.24389
G1 X99.275 Y95.469 E5.25089
G1 X101.959 Y95.69 E5.34047
G1 X104.503 Y95.827 E5.4252
G1 X107.046 Y95.891 E5.50981
G1 X109.558 Y95.883 E5.59336
G1 X112.067 Y95.805 E5.67685
G1 X115.804 Y95.56 E5.80141
G1 X117.099 Y95.448 E5.84464
G1 X117.71 Y95.413 E5.865
G1 X118.026 Y95.404 E5.87551
G1 X118.328 Y95.4 E5.88556
G1 X125.291 Y95.4 E6.11715
G1 X125.443 Y95.401 E6.1222
G1 X126.141 Y95.411 E6.14542
G1 X127.06 Y95.464 E6.17604
G1 X127.971 Y95.597 E6.20666
G1 X128.867 Y95.808 E6.23727
G1 X129.741 Y96.096 E6.26788
G1 X130.588 Y96.459 E6.29853
G1 X131.399 Y96.894 E6.32914
G1 X132.169 Y97.398 E6.35975
G1 X132.893 Y97.967 E6.39038
G1 X133.565 Y98.597 E6.42101
G1 X134.18 Y99.282 E6.45163
G1 X134.733 Y100.018 E6.48225
G1 X135.22 Y100.799 E6.51286
G1 X135.637 Y101.62 E6.54349
G1 X135.982 Y102.474 E6.57412
G1 X136.251 Y103.354 E6.60473
G1 X136.443 Y104.255 E6.63537
G1 X136.556 Y105.168 E6.66597
G1 X136.585 Y105.704 E6.68382
G1 X136.594 Y106.016 E6.6942
G1 X136.598 Y106.322 E6.70438
G1 X136.598 Y113.264 E6.93527
G1 X136.597 Y113.395 E6.93963
G1 X136.588 Y114.122 E6.96381
G1 X136.537 Y115.041 E6.99443
G1 X136.406 Y115.953 E7.02507
G1 X136.196 Y116.849 E7.05568
G1 X135.91 Y117.724 E7.0863
G1 X135.549 Y118.571 E7.11692
G1 X135.115 Y119.383 E7.14754
G1 X134.613 Y120.155 E7.17817
G1 X134.045 Y120.88 E7.2088
G1 X133.417 Y121.553 E7.23942
G1 X132.733 Y122.169 E7.27004
G1 X131.998 Y122.723 E7.30065
G1 X131.218 Y123.212 E7.33127
G1 X130.398 Y123.631 E7.3619
G1 X129.545 Y123.977 E7.39251
G1 X128.665 Y124.248 E7.42314
G1 X127.765 Y124.441 E7.45375
G1 X126.851 Y124.556 E7.48439
G1 X126.286 Y124.587 E7.50321
G1 X125.965 Y124.596 E7.51389
G1 X125.668 Y124.6 E7.52377
G1 X118.705 Y124.6 E7.75536
G1 X118.553 Y124.599 E7.76042
G1 X117.856 Y124.589 E7.7836
G1 X117.113 Y124.552 E7.80835
G1 X114.333 Y124.316 E7.90114
G1 X111.824 Y124.175 E7.98472
G1 X109.28 Y124.104 E8.06937
G1 X106.77 Y124.106 E8.15285
G1 X104.222 Y124.179 E8.23763
G1 X101.707 Y124.322 E8.32142
G1 X99.104 Y124.544 E8.40831
G1 X98.333 Y124.581 E8.43398
G1 X98.004 Y124.585 E8.44492
G1 X96.983 Y124.548 E8.47891
G1 X96.604 Y124.516 E8.49156
G1 X95.647 Y124.391 E8.52366
G1 X95.235 Y124.318 E8.53757
G1 X94.289 Y124.106 E8.56982
G1 X94 Y124.027 E8.57978
G1 X93.094 Y123.735 E8.61144
G1 X92.721 Y123.596 E8.62468
G1 X91.802 Y123.203 E8.65793
G1 X91.484 Y123.049 E8.66968
G1 X90.613 Y122.576 E8.70264
G1 X90.296 Y122.384 E8.71497
G1 X89.506 Y121.856 E8.74657
G1 X89.211 Y121.639 E8.75875
G1 X88.442 Y121.015 E8.79169
G1 X88.14 Y120.746 E8.80514
G1 X87.446 Y120.069 E8.83739
G1 X87.26 Y119.87 E8.84645
G1 X86.644 Y119.149 E8.87799
G1 X86.361 Y118.786 E8.8933
G1 X85.788 Y117.976 E8.9263
G1 X85.604 Y117.688 E8.93767
G1 X85.107 Y116.822 E8.97088
G1 X84.954 Y116.524 E8.98202
G1 X84.57 Y115.688 E9.01262
G1 X84.419 Y115.318 E9.02591
G1 X84.077 Y114.35 E9.06005
G1 X83.981 Y114.029 E9.0712
G1 X83.756 Y113.135 E9.10186
G1 X83.673 Y112.733 E9.11551
G1 X83.516 Y111.734 E9.14915
G1 X83.483 Y111.43 E9.15932
G1 X83.423 Y110.501 E9.19028
G1 X83.415 Y110.107 E9.20339
G1 X83.441 Y109.116 E9.23636
G1 X83.47 Y108.721 E9.24953
G1 X83.589 Y107.738 E9.28247
G1 X83.642 Y107.423 E9.29309
G1 X83.846 Y106.475 E9.32534
G1 X83.949 Y106.085 E9.33876
G1 X84.24 Y105.159 E9.37104
G1 X84.356 Y104.841 E9.3823
G1 X84.727 Y103.951 E9.41437
G1 X84.894 Y103.597 E9.42739
G1 X85.347 Y102.741 E9.4596
G1 X85.516 Y102.454 E9.47068
G1 X86.054 Y101.63 E9.50341
G1 X86.264 Y101.339 E9.51535
G1 X86.884 Y100.56 E9.54846
G1 X87.186 Y100.215 E9.56371
G1 X87.857 Y99.516 E9.59594
G1 X88.041 Y99.341 E9.60438
G0 F6000 X88.317 Y99.631
G1 F1200 X89.004 Y99.034 E9.63465
G1 X89.334 Y98.772 E9.64867
G1 X90.104 Y98.216 E9.68026
G1 X90.403 Y98.021 E9.69213
G1 X91.205 Y97.549 E9.72308
G1 X91.532 Y97.376 E9.73539
G1 X92.369 Y96.981 E9.76617
G1 X92.692 Y96.846 E9.77781
G1 X93.615 Y96.511 E9.81047
G1 X94.01 Y96.389 E9.82422
G1 X94.861 Y96.166 E9.85348
G1 X95.138 Y96.106 E9.86291
G1 X96.067 Y95.949 E9.89425
G1 X96.495 Y95.897 E9.90859
G1 X97.481 Y95.826 E9.94147
G1 X97.857 Y95.817 E9.95397
G1 X98.735 Y95.834 E9.98318
G1 X99.04 Y95.853 E9.99335
G1 X99.242 Y95.867 E10.00008
G1 X101.976 Y96.092 E10.09132
G1 X104.47 Y96.226 E10.17439
G1 X107.038 Y96.292 E10.25983
G1 X109.572 Y96.283 E10.34411
G1 X112.078 Y96.205 E10.4275
G1 X115.86 Y95.957 E10.55356
G1 X117.133 Y95.847 E10.59606
G1 X117.722 Y95.813 E10.61569
G1 X118.038 Y95.804 E10.6262
G1 X118.328 Y95.8 E10.63585
G1 X125.291 Y95.8 E10.86744
G1 X125.437 Y95.801 E10.87229
G1 X126.135 Y95.811 E10.89551
G1 X127.037 Y95.864 E10.92556
G1 X127.93 Y95.996 E10.95559
G1 X128.808 Y96.207 E10.98562
G1 X129.664 Y96.495 E11.01566
G1 X130.491 Y96.857 E11.04569
G1 X131.283 Y97.292 E11.07574
G1 X132.034 Y97.794 E11.10578
G1 X132.737 Y98.361 E11.13582
G1 X133.387 Y98.988 E11.16586
G1 X133.979 Y99.67 E11.1959
G1 X134.509 Y100.401 E11.22593
G1 X134.971 Y101.177 E11.25597
G1 X135.364 Y101.99 E11.286
G1 X135.682 Y102.835 E11.31603
G1 X135.925 Y103.705 E11.34607
G1 X136.09 Y104.593 E11.37611
G1 X136.185 Y105.716 E11.4136
G1 X136.194 Y106.028 E11.42398
G1 X136.198 Y106.322 E11.43376
G1 X136.198 Y113.264 E11.66465
G1 X136.197 Y113.39 E11.66884
G1 X136.188 Y114.117 E11.69303
G1 X136.137 Y115.019 E11.72307
G1 X136.006 Y115.913 E11.75313
G1 X135.797 Y116.791 E11.78314
G1 X135.511 Y117.648 E11.81319
G1 X135.15 Y118.476 E11.84324
G1 X134.718 Y119.268 E11.87324
G1 X134.217 Y120.02 E11.9033
G1 X133.651 Y120.724 E11.93334
G1 X133.026 Y121.375 E11.96336
G1 X132.345 Y121.969 E11.99341
G1 X131.614 Y122.5 E12.02346
G1 X130.84 Y122.964 E12.05348
G1 X130.027 Y123.358 E12.08353
G1 X129.183 Y123.678 E12.11355
G1 X128.313 Y123.923 E12.14361
G1 X127.426 Y124.089 E12.17362
G1 X126.275 Y124.187 E12.21204
G1 X125.954 Y124.196 E12.22273
G1 X125.668 Y124.2 E12.23224
G1 X118.705 Y124.2 E12.46383
G1 X118.559 Y124.199 E12.46868
G1 X117.862 Y124.189 E12.49187
G1 X117.147 Y124.154 E12.51568
G1 X114.353 Y123.917 E12.60894
G1 X111.823 Y123.775 E12.69322
G1 X109.291 Y123.704 E12.77747
G1 X106.758 Y123.706 E12.86172
G1 X104.19 Y123.779 E12.94716
G1 X101.684 Y123.922 E13.03065
G1 X99.07 Y124.145 E13.11791
G1 X98.328 Y124.181 E13.14262
G1 X97.999 Y124.185 E13.15356
G1 X97.017 Y124.15 E13.18624
G1 X96.638 Y124.118 E13.19889
G1 X95.716 Y123.998 E13.22982
G1 X95.304 Y123.925 E13.24373
G1 X94.394 Y123.72 E13.27476
G1 X94.105 Y123.641 E13.28472
G1 X93.233 Y123.36 E13.31519
G1 X92.86 Y123.221 E13.32843
G1 X91.976 Y122.843 E13.36041
G1 X91.658 Y122.689 E13.37216
G1 X90.82 Y122.233 E13.40389
G1 X90.503 Y122.041 E13.41622
G1 X89.743 Y121.533 E13.44663
G1 X89.448 Y121.316 E13.45881
G1 X88.708 Y120.717 E13.49047
G1 X88.406 Y120.448 E13.50392
G1 X87.738 Y119.796 E13.53497
G1 X87.552 Y119.597 E13.54403
G1 X86.96 Y118.903 E13.57437
G1 X86.677 Y118.54 E13.58968
G1 X86.125 Y117.761 E13.62143
G1 X85.941 Y117.473 E13.6328
G1 X85.463 Y116.64 E13.66474
G1 X85.31 Y116.342 E13.67588
G1 X84.94 Y115.537 E13.70535
G1 X84.789 Y115.167 E13.71864
G1 X84.461 Y114.236 E13.75147
G1 X84.365 Y113.915 E13.76262
G1 X84.148 Y113.054 E13.79215
G1 X84.065 Y112.652 E13.8058
G1 X83.914 Y111.691 E13.83816
G1 X83.881 Y111.387 E13.84833
G1 X83.823 Y110.493 E13.87813
G1 X83.815 Y110.099 E13.89123
G1 X83.84 Y109.145 E13.92297
G1 X83.869 Y108.75 E13.93615
G1 X83.983 Y107.805 E13.96781
G1 X84.036 Y107.49 E13.97843
G1 X84.233 Y106.577 E14.0095
G1 X84.336 Y106.187 E14.02291
G1 X84.616 Y105.297 E14.05394
G1 X84.732 Y104.979 E14.0652
G1 X85.089 Y104.122 E14.09608
G1 X85.256 Y103.768 E14.1091
G1 X85.692 Y102.944 E14.1401
G1 X85.861 Y102.657 E14.15118
G1 X86.379 Y101.864 E14.18269
G1 X86.589 Y101.573 E14.19462
G1 X87.185 Y100.824 E14.22646
G1 X87.487 Y100.479 E14.24171
G1 X88.133 Y99.806 E14.27274
G1 X88.317 Y99.631 E14.28118
G1 F1500 E7.78118
;MESH:Fast_Informative_Temperature_Tower.stl
G0 F6000 X100.585 Y106.119
G0 X101.123 Y106.554
G0 X101.823 Y107.34
G0 X101.235 Y108.417
G0 X98.868 Y107.309
G0 X98.101 Y107.174
G0 X97.345 Y107.249
G0 X96.607 Y107.538
G0 X95.991 Y108.007
G0 X95.526 Y108.625
G0 X95.241 Y109.367
G0 X95.173 Y110.14
G0 X95.314 Y110.89
G0 X95.659 Y111.592
G0 X96.172 Y112.159
G0 X96.828 Y112.575
G0 X97.58 Y112.798
G0 X98.361 Y112.804
G0 X99.118 Y112.596
G0 X99.764 Y112.209
G0 X100.308 Y111.632
G0 X110.472 Y110.799
G0 X118.426 Y111.572
G0 X118.998 Y113
;TYPE:WALL-INNER
G1 F1500 E14.28118
G1 F1200 X118.998 Y111 E14.3477
G1 X100.915 Y111 E14.94914
G1 X100.446 Y111.732 E14.97806
G1 X100.276 Y111.951 E14.98728
G1 X100.099 Y112.139 E14.99587
G1 X99.871 Y112.341 E15.006
G1 X99.669 Y112.489 E15.01433
G1 X99.419 Y112.641 E15.02406
G1 X99.184 Y112.755 E15.03275
G1 X98.922 Y112.853 E15.04205
G1 X98.649 Y112.927 E15.05146
G1 X98.387 Y112.973 E15.06031
G1 X98.105 Y112.997 E15.06972
G1 X97.831 Y112.994 E15.07883
G1 X97.553 Y112.967 E15.08812
G1 X97.299 Y112.916 E15.09674
G1 X97.026 Y112.836 E15.1062
G1 X96.757 Y112.73 E15.11582
G1 X96.523 Y112.611 E15.12455
G1 X96.298 Y112.471 E15.13336
G1 X96.069 Y112.296 E15.14295
G1 X95.863 Y112.106 E15.15227
G1 X95.682 Y111.906 E15.16124
G1 X95.515 Y111.684 E15.17048
G1 X95.372 Y111.448 E15.17966
G1 X95.255 Y111.214 E15.18836
G1 X95.152 Y110.944 E15.19797
G1 X95.077 Y110.68 E15.2071
G1 X95.025 Y110.402 E15.21651
G1 X95.002 Y110.147 E15.22502
G1 X95.002 Y109.853 E15.2348
G1 X95.025 Y109.598 E15.24332
G1 X95.077 Y109.319 E15.25276
G1 X95.151 Y109.059 E15.26175
G1 X95.256 Y108.786 E15.27148
G1 X95.376 Y108.544 E15.28046
G1 X95.515 Y108.316 E15.28934
G1 X95.685 Y108.091 E15.29872
G1 X95.863 Y107.894 E15.30755
G1 X96.069 Y107.704 E15.31687
G1 X96.298 Y107.529 E15.32646
G1 X96.523 Y107.389 E15.33527
G1 X96.757 Y107.27 E15.344
G1 X97.026 Y107.164 E15.35362
G1 X97.299 Y107.084 E15.36308
G1 X97.553 Y107.033 E15.3717
G1 X97.831 Y107.006 E15.38099
G1 X98.105 Y107.003 E15.3901
G1 X98.387 Y107.027 E15.39952
G1 X98.649 Y107.073 E15.40836
G1 X98.922 Y107.147 E15.41777
G1 X99.184 Y107.245 E15.42708
G1 X99.419 Y107.359 E15.43576
G1 X99.669 Y107.511 E15.44549
G1 X99.871 Y107.659 E15.45382
G1 X100.099 Y107.861 E15.46395
G1 X100.276 Y108.049 E15.47254
G1 X100.446 Y108.268 E15.48176
G1 X100.915 Y109 E15.51068
G1 X118.998 Y109 E16.11212
G1 X118.998 Y107 E16.17864
G1 X124.998 Y107 E16.3782
G1 X124.998 Y113 E16.57776
G1 X118.998 Y113 E16.77732
G0 F6000 X118.598 Y113.4
G1 F1200 X118.598 Y111.4 E16.84384
G1 X101.134 Y111.4 E17.4247
G1 X100.776 Y111.959 E17.44678
G1 X100.581 Y112.21 E17.45735
G1 X100.374 Y112.43 E17.4674
G1 X100.124 Y112.652 E17.47852
