;FLAVOR:Marlin
;TIME:1649
;Filament used: 1.29949m
;Layer height: 0.2
;MINX:89
;MINY:89
;MINZ:0.2
;MAXX:130.999
;MAXY:131
;MAXZ:20
;Generated with Cura_SteamEngine 4.4.1
M140 S60
M105
M190 S60
M104 S205
M105
M109 S205
M82 ;absolute extrusion mode
M201 X500.00 Y500.00 Z100.00 E5000.00 ;Setup machine max acceleration
M203 X500.00 Y500.00 Z10.00 E50.00 ;Setup machine max feedrate
M204 P500.00 R1000.00 T500.00 ;Setup Print/Retract/Travel acceleration
M205 X8.00 Y8.00 Z0.40 E5.00 ;Setup Jerk
M220 S100 ;Reset Feedrate
M221 S100 ;Reset Flowrate

G28 ;Home
G29 L1 A J ; Enable ABL and 3-point mesh adjust

G92 E0 ;Reset Extruder
G1 Z2.0 F3000 ;Move Z Axis up
G1 X10.1 Y20 Z0.28 F5000.0 ;Move to start position
G1 X10.1 Y200.0 Z0.28 F1500.0 E15 ;Draw the first line
G1 X10.4 Y200.0 Z0.28 F5000.0 ;Move to side a little
G1 X10.4 Y20 Z0.28 F1500.0 E30 ;Draw the second line
G92 E0 ;Reset Extruder
G1 Z2.0 F3000 ;Move Z Axis up
G92 E0
G92 E0
G1 F1500 E-6.5
;LAYER_COUNT:100
;LAYER:0
M107
G0 F6000 X92.21 Y92.252 Z0.2
;TYPE:SKIRT
G1 F1500 E0
G1 F1200 X92.899 Y91.616 E0.03119
G1 X93.64 Y91.041 E0.06238
G1 X94.427 Y90.531 E0.09357
G1 X95.255 Y90.09 E0.12478
G1 X96.117 Y89.721 E0.15596
G1 X97.008 Y89.427 E0.18717
G1 X97.92 Y89.209 E0.21836
G1 X98.847 Y89.071 E0.24953
G1 X99.701 Y89.013 E0.278
G1 X100.021 Y89.004 E0.28865
G1 X100.33 Y89 E0.29892
G1 X119.256 Y89 E0.92841
G1 X119.416 Y89.001 E0.93373
G1 X120.102 Y89.011 E0.95655
G1 X121.039 Y89.065 E0.98776
G1 X121.967 Y89.198 E1.01894
G1 X122.881 Y89.41 E1.05015
G1 X123.773 Y89.699 E1.08134
G1 X124.637 Y90.062 E1.11251
G1 X125.468 Y90.499 E1.14373
G1 X126.258 Y91.004 E1.17492
G1 X127.002 Y91.575 E1.20611
G1 X127.695 Y92.207 E1.23731
G1 X128.331 Y92.895 E1.26847
G1 X128.907 Y93.636 E1.29969
G1 X129.417 Y94.423 E1.33088
G1 X129.859 Y95.25 E1.36207
G1 X130.228 Y96.112 E1.39325
G1 X130.523 Y97.003 E1.42447
G1 X130.741 Y97.915 E1.45566
G1 X130.88 Y98.842 E1.48683
G1 X130.939 Y99.755 E1.51726
G1 X130.962 Y100.746 E1.55023
G1 X130.965 Y100.981 E1.55805
G1 X130.999 Y119.254 E2.16581
G1 X130.998 Y119.4 E2.17067
G1 X130.99 Y120.096 E2.19382
G1 X130.94 Y121.033 E2.22503
G1 X130.809 Y121.962 E2.25623
G1 X130.6 Y122.876 E2.28742
G1 X130.314 Y123.769 E2.31861
G1 X129.953 Y124.635 E2.34981
G1 X129.519 Y125.466 E2.38099
G1 X129.017 Y126.258 E2.41218
G1 X128.448 Y127.004 E2.44339
G1 X127.818 Y127.699 E2.47459
G1 X127.131 Y128.337 E2.50577
G1 X126.393 Y128.915 E2.53695
G1 X125.607 Y129.428 E2.56816
G1 X124.781 Y129.872 E2.59936
G1 X123.92 Y130.244 E2.63055
G1 X123.031 Y130.542 E2.66174
G1 X122.119 Y130.762 E2.69294
G1 X121.271 Y130.895 E2.72149
G1 X121.032 Y130.923 E2.72949
G1 X119.856 Y130.998 E2.76869
G1 X119.644 Y131 E2.77574
G1 X100.707 Y131 E3.40558
G1 X100.565 Y130.999 E3.41031
G1 X99.867 Y130.99 E3.43352
G1 X98.931 Y130.938 E3.4647
G1 X98.002 Y130.806 E3.49591
G1 X97.088 Y130.596 E3.52711
G1 X96.195 Y130.309 E3.5583
G1 X95.33 Y129.946 E3.5895
G1 X94.499 Y129.512 E3.62068
G1 X93.708 Y129.008 E3.65188
G1 X92.963 Y128.438 E3.68308
G1 X92.269 Y127.807 E3.71428
G1 X91.632 Y127.12 E3.74544
G1 X91.055 Y126.38 E3.77665
G1 X90.543 Y125.594 E3.80785
G1 X90.1 Y124.767 E3.83905
G1 X89.729 Y123.906 E3.87023
G1 X89.433 Y123.016 E3.90143
G1 X89.214 Y122.104 E3.93263
G1 X89.073 Y121.177 E3.96381
G1 X89.013 Y120.288 E3.99345
G1 X89.004 Y119.955 E4.00453
G1 X89 Y119.658 E4.01441
G1 X89 Y100.674 E4.64582
G1 X89.001 Y100.509 E4.6513
G1 X89.011 Y99.844 E4.67343
G1 X89.065 Y98.907 E4.70464
G1 X89.199 Y97.979 E4.73583
G1 X89.411 Y97.065 E4.76703
G1 X89.7 Y96.173 E4.79822
G1 X90.065 Y95.309 E4.82942
G1 X90.501 Y94.479 E4.8606
G1 X91.007 Y93.689 E4.8918
G1 X91.578 Y92.945 E4.923
G1 X92.21 Y92.252 E4.95419
G0 F6000 X92.602 Y92.427
G1 F1200 X93.288 Y91.813 E4.98481
G1 X94.024 Y91.261 E5.01541
G1 X94.806 Y90.774 E5.04605
G1 X95.627 Y90.358 E5.07666
G1 X96.481 Y90.014 E5.10729
G1 X97.361 Y89.745 E5.13789
G1 X98.262 Y89.554 E5.16852
G1 X99.176 Y89.442 E5.19915
G1 X99.712 Y89.413 E5.217
G1 X100.032 Y89.404 E5.22765
G1 X100.33 Y89.4 E5.23756
G1 X119.256 Y89.4 E5.86705
G1 X119.411 Y89.401 E5.8722
G1 X120.097 Y89.411 E5.89502
G1 X121.016 Y89.465 E5.92564
G1 X121.927 Y89.597 E5.95626
G1 X122.823 Y89.809 E5.98688
G1 X123.697 Y90.097 E6.01749
G1 X124.543 Y90.461 E6.04812
G1 X125.354 Y90.896 E6.07873
G1 X126.125 Y91.4 E6.10936
G1 X126.848 Y91.969 E6.13997
G1 X127.52 Y92.598 E6.17058
G1 X128.135 Y93.284 E6.20122
G1 X128.687 Y94.02 E6.23182
G1 X129.174 Y94.802 E6.26246
G1 X129.591 Y95.622 E6.29306
G1 X129.936 Y96.476 E6.32369
G1 X130.205 Y97.357 E6.35433
G1 X130.396 Y98.257 E6.38493
G1 X130.509 Y99.171 E6.41556
G1 X130.539 Y99.764 E6.43531
G1 X130.562 Y100.755 E6.46828
G1 X130.565 Y100.981 E6.4758
G1 X130.599 Y119.254 E7.08356
G1 X130.598 Y119.396 E7.08829
G1 X130.59 Y120.092 E7.11144
G1 X130.54 Y121.011 E7.14205
G1 X130.41 Y121.923 E7.17269
G1 X130.201 Y122.819 E7.20329
G1 X129.915 Y123.694 E7.23391
G1 X129.555 Y124.541 E7.26452
G1 X129.122 Y125.354 E7.29515
G1 X128.62 Y126.126 E7.32578
G1 X128.053 Y126.852 E7.35642
G1 X127.426 Y127.525 E7.38701
G1 X126.742 Y128.142 E7.41765
G1 X126.008 Y128.697 E7.44826
G1 X125.228 Y129.186 E7.47888
G1 X124.408 Y129.606 E7.50952
G1 X123.556 Y129.953 E7.54012
G1 X122.676 Y130.224 E7.57074
G1 X121.776 Y130.419 E7.60137
G1 X121.224 Y130.498 E7.61992
G1 X120.985 Y130.526 E7.62792
G1 X119.852 Y130.598 E7.66568
G1 X119.64 Y130.6 E7.67273
G1 X100.707 Y130.6 E8.30245
G1 X100.57 Y130.599 E8.307
G1 X99.872 Y130.59 E8.33022
G1 X98.953 Y130.538 E8.36084
G1 X98.042 Y130.407 E8.39145
G1 X97.146 Y130.197 E8.42206
G1 X96.271 Y129.91 E8.45268
G1 X95.424 Y129.548 E8.48332
G1 X94.612 Y129.114 E8.51394
G1 X93.841 Y128.612 E8.54454
G1 X93.116 Y128.044 E8.57518
G1 X92.443 Y127.415 E8.60582
G1 X91.828 Y126.731 E8.63641
G1 X91.274 Y125.996 E8.66702
G1 X90.786 Y125.215 E8.69765
G1 X90.367 Y124.395 E8.72828
G1 X90.021 Y123.542 E8.7589
G1 X89.751 Y122.662 E8.78951
G1 X89.558 Y121.761 E8.82016
G1 X89.444 Y120.848 E8.85076
G1 X89.413 Y120.277 E8.86978
G1 X89.404 Y119.944 E8.88086
G1 X89.4 Y119.658 E8.89037
G1 X89.4 Y100.674 E9.52178
G1 X89.401 Y100.515 E9.52707
G1 X89.411 Y99.85 E9.54919
G1 X89.465 Y98.931 E9.57981
G1 X89.598 Y98.02 E9.61043
G1 X89.81 Y97.124 E9.64106
G1 X90.099 Y96.249 E9.6717
G1 X90.463 Y95.404 E9.70231
G1 X90.898 Y94.593 E9.73292
G1 X91.403 Y93.822 E9.76357
G1 X91.972 Y93.099 E9.79417
G1 X92.602 Y92.427 E9.82481
G0 F6000 X92.993 Y92.606
G1 F1200 X93.675 Y92.014 E9.85485
G1 X94.407 Y91.485 E9.88488
G1 X95.183 Y91.023 E9.91492
G1 X95.997 Y90.632 E9.94496
G1 X96.842 Y90.313 E9.975
G1 X97.712 Y90.071 E10.00503
G1 X98.6 Y89.907 E10.03507
G1 X99.723 Y89.813 E10.07255
G1 X100.043 Y89.804 E10.0832
G1 X100.33 Y89.8 E10.09274
G1 X119.256 Y89.8 E10.72222
G1 X119.405 Y89.801 E10.72718
G1 X120.091 Y89.811 E10.75
G1 X120.992 Y89.864 E10.78002
G1 X121.886 Y89.997 E10.81008
G1 X122.764 Y90.208 E10.84011
G1 X123.62 Y90.496 E10.87015
G1 X124.447 Y90.859 E10.90019
G1 X125.238 Y91.293 E10.9302
G1 X125.989 Y91.796 E10.96026
G1 X126.692 Y92.363 E10.9903
G1 X127.342 Y92.99 E11.02034
G1 X127.934 Y93.672 E11.05038
G1 X128.463 Y94.403 E11.08039
G1 X128.925 Y95.179 E11.11043
G1 X129.318 Y95.993 E11.14049
G1 X129.636 Y96.838 E11.17052
G1 X129.879 Y97.708 E11.20056
G1 X130.043 Y98.596 E11.2306
G1 X130.139 Y99.773 E11.26988
G1 X130.162 Y100.764 E11.30285
G1 X130.165 Y100.982 E11.3101
G1 X130.199 Y119.255 E11.91786
G1 X130.198 Y119.391 E11.92238
G1 X130.19 Y120.087 E11.94554
G1 X130.14 Y120.989 E11.97558
G1 X130.01 Y121.883 E12.00563
G1 X129.802 Y122.761 E12.03564
G1 X129.516 Y123.618 E12.06569
G1 X129.156 Y124.446 E12.09572
G1 X128.724 Y125.24 E12.12578
G1 X128.224 Y125.991 E12.15579
G1 X127.659 Y126.696 E12.18584
G1 X127.034 Y127.348 E12.21588
G1 X126.354 Y127.942 E12.24591
G1 X125.624 Y128.474 E12.27595
G1 X124.85 Y128.939 E12.30599
G1 X124.037 Y129.333 E12.33603
G1 X123.193 Y129.654 E12.36607
G1 X122.324 Y129.9 E12.39611
G1 X121.178 Y130.101 E12.4348
G1 X120.939 Y130.129 E12.44281
G1 X119.848 Y130.198 E12.47917
G1 X119.636 Y130.2 E12.48622
G1 X100.707 Y130.2 E13.1158
G1 X100.575 Y130.199 E13.12019
G1 X99.877 Y130.19 E13.14341
G1 X98.976 Y130.139 E13.17342
G1 X98.082 Y130.007 E13.20348
G1 X97.204 Y129.798 E13.2335
G1 X96.347 Y129.511 E13.26356
G1 X95.52 Y129.15 E13.29357
G1 X94.727 Y128.717 E13.32362
G1 X93.976 Y128.216 E13.35365
G1 X93.272 Y127.65 E13.38369
G1 X92.621 Y127.024 E13.41373
G1 X92.028 Y126.343 E13.44377
G1 X91.498 Y125.612 E13.4738
G1 X91.034 Y124.837 E13.50384
G1 X90.64 Y124.024 E13.53389
G1 X90.32 Y123.18 E13.56391
G1 X90.076 Y122.31 E13.59396
G1 X89.91 Y121.422 E13.62401
G1 X89.813 Y120.267 E13.66256
G1 X89.804 Y119.934 E13.67364
G1 X89.8 Y119.658 E13.68282
G1 X89.8 Y100.674 E14.31423
G1 X89.801 Y100.521 E14.31932
G1 X89.811 Y99.856 E14.34144
G1 X89.865 Y98.954 E14.3715
G1 X89.998 Y98.061 E14.40152
G1 X90.209 Y97.183 E14.43156
G1 X90.498 Y96.327 E14.46161
G1 X90.861 Y95.5 E14.49165
G1 X91.295 Y94.709 E14.52166
G1 X91.798 Y93.958 E14.55172
G1 X92.366 Y93.256 E14.58175
G1 X92.993 Y92.606 E14.61179
G1 F1500 E8.11179
;MESH:tmpztk4zm23xyzCalibration_cube.stl
G0 F6000 X99.588 Y99.589
G0 X100.414 Y100.414
G0 X101 Y119
;TYPE:WALL-INNER
G1 F1500 E14.61179
G1 F1200 X101 Y101 E15.21047
G1 X119 Y101 E15.80916
G1 X119 Y119 E16.40784
G1 X101 Y119 E17.00652
G0 F6000 X100.6 Y119.4
G1 F1200 X100.6 Y100.6 E17.63181
G1 X119.4 Y100.6 E18.2571
G1 X119.4 Y119.4 E18.88239
G1 X100.6 Y119.4 E19.50768
G0 F6000 X100.2 Y119.8
;TYPE:WALL-OUTER
G1 F1200 X100.2 Y100.2 E20.15958
G1 X119.8 Y100.2 E20.81148
G1 X119.8 Y119.8 E21.46338
G1 X100.2 Y119.8 E22.11528
G0 F6000 X100.47 Y119.53
G0 X101.11 Y118.61
G0 X101.39 Y118.61
;TYPE:SKIN
G1 F1200 X101.39 Y101.39 E22.68802
G1 X118.61 Y101.39 E23.26076
G1 X118.61 Y118.61 E23.8335
G1 X101.39 Y118.61 E24.40624
G0 F6000 X102.044 Y118.449
G1 F1200 X101.549 Y117.954 E24.42952
G0 F6000 X101.549 Y117.388
G1 F1200 X102.61 Y118.449 E24.47942
G0 F6000 X103.176 Y118.449
G1 F1200 X101.549 Y116.823 E24.55593
G0 F6000 X101.549 Y116.257
G1 F1200 X103.741 Y118.449 E24.65904
G0 F6000 X104.307 Y118.449
G1 F1200 X101.549 Y115.691 E24.78876
G0 F6000 X101.549 Y115.126
G1 F1200 X104.873 Y118.449 E24.94509
G0 F6000 X105.438 Y118.449
G1 F1200 X101.549 Y114.56 E25.12802
G0 F6000 X101.549 Y113.994
G1 F1200 X106.004 Y118.449 E25.33757
G0 F6000 X106.57 Y118.449
G1 F1200 X101.549 Y113.429 E25.57372
G0 F6000 X101.549 Y112.863
G1 F1200 X107.135 Y118.449 E25.83646
G0 F6000 X107.701 Y118.449
G1 F1200 X101.549 Y112.297 E26.12584
G0 F6000 X101.549 Y111.732
G1 F1200 X108.267 Y118.449 E26.44181
G0 F6000 X108.832 Y118.449
G1 F1200 X101.549 Y111.166 E26.78438
G0 F6000 X101.549 Y110.6
G1 F1200 X109.398 Y118.449 E27.15357
G0 F6000 X109.964 Y118.449
G1 F1200 X101.549 Y110.035 E27.54936
G0 F6000 X101.549 Y109.469
G1 F1200 X110.529 Y118.449 E27.97175
G0 F6000 X111.095 Y118.449
G1 F1200 X101.549 Y108.903 E28.42077
G0 F6000 X101.549 Y108.337
G1 F1200 X111.661 Y118.449 E28.8964
G0 F6000 X112.227 Y118.449
G1 F1200 X101.549 Y107.772 E29.39864
G0 F6000 X101.549 Y107.206
G1 F1200 X112.792 Y118.449 E29.92748
G0 F6000 X113.358 Y118.449
G1 F1200 X101.549 Y106.64 E30.48294
G0 F6000 X101.549 Y106.075
G1 F1200 X113.924 Y118.449 E31.065
G0 F6000 X114.489 Y118.449
G1 F1200 X101.549 Y105.509 E31.67365
G0 F6000 X101.549 Y104.943
G1 F1200 X115.055 Y118.449 E32.30893
G0 F6000 X115.621 Y118.449
G1 F1200 X101.549 Y104.378 E32.97081
G0 F6000 X101.549 Y103.812
G1 F1200 X116.186 Y118.449 E33.65929
G0 F6000 X116.752 Y118.449
G1 F1200 X101.549 Y103.246 E34.3744
G0 F6000 X101.549 Y102.681
G1 F1200 X117.318 Y118.449 E35.1161
G0 F6000 X117.883 Y118.449
G1 F1200 X101.549 Y102.115 E35.8844
G0 F6000 X101.549 Y101.549
G1 F1200 X118.449 Y118.449 E36.67932
G0 F6000 X118.449 Y117.883
G1 F1200 X102.115 Y101.549 E37.44763
G0 F6000 X102.681 Y101.549
G1 F1200 X118.449 Y117.318 E38.18933
G0 F6000 X118.449 Y116.752
G1 F1200 X103.246 Y101.549 E38.90443
G0 F6000 X103.812 Y101.549
G1 F1200 X118.449 Y116.186 E39.59291
G0 F6000 X118.449 Y115.621
G1 F1200 X104.378 Y101.549 E40.25479
G0 F6000 X104.943 Y101.549
G1 F1200 X118.449 Y115.055 E40.89007
G0 F6000 X118.449 Y114.489
G1 F1200 X105.509 Y101.549 E41.49873
G0 F6000 X106.075 Y101.549
G1 F1200 X118.449 Y113.924 E42.08079
G0 F6000 X118.449 Y113.358
G1 F1200 X106.64 Y101.549 E42.63625
G0 F6000 X107.206 Y101.549
G1 F1200 X118.449 Y112.792 E43.16508
G0 F6000 X118.449 Y112.227
G1 F1200 X107.772 Y101.549 E43.66732
G0 F6000 X108.337 Y101.549
G1 F1200 X118.449 Y111.661 E44.14296
G0 F6000 X118.449 Y111.095
G1 F1200 X108.903 Y101.549 E44.59197
G0 F6000 X109.469 Y101.549
G1 F1200 X118.449 Y110.529 E45.01436
G0 F6000 X118.449 Y109.964
G1 F1200 X110.035 Y101.549 E45.41015
G0 F6000 X110.6 Y101.549
G1 F1200 X118.449 Y109.398 E45.77935
G0 F6000 X118.449 Y108.832
G1 F1200 X111.166 Y101.549 E46.12192
G0 F6000 X111.732 Y101.549
G1 F1200 X118.449 Y108.267 E46.43789
G0 F6000 X118.449 Y107.701
G1 F1200 X112.297 Y101.549 E46.72726
G0 F6000 X112.863 Y101.549
G1 F1200 X118.449 Y107.135 E46.99001
G0 F6000 X118.449 Y106.57
G1 F1200 X113.429 Y101.549 E47.22616
G0 F6000 X113.994 Y101.549
G1 F1200 X118.449 Y106.004 E47.43571
G0 F6000 X118.449 Y105.438
G1 F1200 X114.56 Y101.549 E47.61863
G0 F6000 X115.126 Y101.549
G1 F1200 X118.449 Y104.873 E47.77496
G0 F6000 X118.449 Y104.307
G1 F1200 X115.691 Y101.549 E47.90469
G0 F6000 X116.257 Y101.549
G1 F1200 X118.449 Y103.741 E48.00779
G0 F6000 X118.449 Y103.176
G1 F1200 X116.823 Y101.549 E48.0843
G0 F6000 X117.388 Y101.549
G1 F1200 X118.449 Y102.61 E48.1342
G0 F6000 X118.449 Y102.044
G1 F1200 X117.954 Y101.549 E48.15749
G0 F6000 X117.954 Y100.81
G1 F1500 E41.65749
;MESH:NONMESH
G0 F300 X117.954 Y100.81 Z0.4
G0 F6000 X101.182 Y101.182
G0 X101 Y119
;TIME_ELAPSED:83.827675
;LAYER:1
M140 S60
M106 S85
;TYPE:WALL-INNER
;MESH:tmpztk4zm23xyzCalibration_cube.stl
G1 F1500 E48.15749
G1 F2400 X101 Y101 E48.75617
G1 X119 Y101 E49.35485
G1 X119 Y119 E49.95354
G1 X101 Y119 E50.55222
G0 F10500 X100.6 Y119.4
G1 F2400 X100.6 Y100.6 E51.17751
G1 X119.4 Y100.6 E51.8028
G1 X119.4 Y119.4 E52.42809
G1 X100.6 Y119.4 E53.05338
G0 F10500 X100.2 Y119.8
;TYPE:WALL-OUTER
G1 F2400 X100.2 Y100.2 E53.70528
G1 X119.8 Y100.2 E54.35718
G1 X119.8 Y119.8 E55.00908
G1 X100.2 Y119.8 E55.66097
G0 F10500 X100.47 Y119.53
G0 X101.11 Y118.61
G0 X101.39 Y118.61
;TYPE:SKIN
G1 F2400 X101.39 Y101.39 E56.23371
G1 X118.61 Y101.39 E56.80645
G1 X118.61 Y118.61 E57.37919
G1 X101.39 Y118.61 E57.95193
G0 F10500 X101.11 Y118.61
G0 X101.11 Y102.097
G0 X101.549 Y102.097
G1 F2400 X102.097 Y101.549 E57.97771
G0 F10500 X102.662 Y101.549
G1 F2400 X101.549 Y102.662 E58.03006
G0 F10500 X101.549 Y103.228
G1 F2400 X103.228 Y101.549 E58.10904
G0 F10500 X103.794 Y101.549
G1 F2400 X101.549 Y103.794 E58.21463
G0 F10500 X101.549 Y104.359
G1 F2400 X104.359 Y101.549 E58.34681
G0 F10500 X104.925 Y101.549
G1 F2400 X101.549 Y104.925 E58.5056
G0 F10500 X101.549 Y105.491
G1 F2400 X105.491 Y101.549 E58.69102
G0 F10500 X106.056 Y101.549
G1 F2400 X101.549 Y106.056 E58.90302
G0 F10500 X101.549 Y106.622
G1 F2400 X106.622 Y101.549 E59.14164
G0 F10500 X107.188 Y101.549
G1 F2400 X101.549 Y107.188 E59.40688
G0 F10500 X101.549 Y107.753
G1 F2400 X107.753 Y101.549 E59.6987
G0 F10500 X108.319 Y101.549
G1 F2400 X101.549 Y108.319 E60.01714
G0 F10500 X101.549 Y108.885
G1 F2400 X108.885 Y101.549 E60.3622
G0 F10500 X109.45 Y101.549
G1 F2400 X101.549 Y109.45 E60.73384
G0 F10500 X101.549 Y110.016
G1 F2400 X110.016 Y101.549 E61.1321
G0 F10500 X110.582 Y101.549
G1 F2400 X101.549 Y110.582 E61.55698
G0 F10500 X101.549 Y111.147
G1 F2400 X111.147 Y101.549 E62.00844
G0 F10500 X111.713 Y101.549
G1 F2400 X101.549 Y111.713 E62.48653
G0 F10500 X101.549 Y112.279
G1 F2400 X112.279 Y101.549 E62.99123
G0 F10500 X112.845 Y101.549
G1 F2400 X101.549 Y112.845 E63.52256
G0 F10500 X101.549 Y113.41
G1 F2400 X113.41 Y101.549 E64.08047
G0 F10500 X113.976 Y101.549
G1 F2400 X101.549 Y113.976 E64.665
G0 F10500 X101.549 Y114.542
G1 F2400 X114.542 Y101.549 E65.27615
G0 F10500 X115.107 Y101.549
G1 F2400 X101.549 Y115.107 E65.91387
G0 F10500 X101.549 Y115.673
G1 F2400 X115.673 Y101.549 E66.57822
G0 F10500 X116.239 Y101.549
