;FLAVOR:Marlin
;TIME:797
;Filament used: 0.363041m
;Layer height: 0.2
;MINX:105.7
;MINY:105.7
;MINZ:0.2
;MAXX:129.3
;MAXY:129.3
;MAXZ:15
;Generated with Cura_SteamEngine 4.5.0
M140 S60
M105
M190 S60
M104 S205
M105
M109 S205
M82 ;absolute extrusion mode
; Ender 3 Custom Start G-code
G92 E0 ; Reset Extruder
G28 ; Home all axes
G29 L1 A ; Activate unified bed levelling
G29 J
G1 Z2.0 F3000 ; Move Z Axis up little to prevent scratching of Heat Bed
G1 X0.1 Y20 Z0.3 F5000.0 ; Move to start position
G1 X0.1 Y200.0 Z0.3 F1500.0 E15 ; Draw the first line
G1 X0.4 Y200.0 Z0.3 F5000.0 ; Move to side a little
G1 X0.4 Y20 Z0.3 F1500.0 E30 ; Draw the second line
G92 E0 ; Reset Extruder
G1 Z2.0 F3000 ; Move Z Axis up little to prevent scratching of Heat Bed
G1 X5 Y20 Z0.3 F5000.0 ; Move over to prevent blob squish
G92 E0
G92 E0
G1 F2700 E-5
;LAYER_COUNT:75
;LAYER:0
M107
G0 F6000 X106.397 Y106.669 Z0.2
;TYPE:SKIRT
G1 F2700 E0
G1 F1200 X106.669 Y106.397 E0.01185
G1 X107.087 Y106.086 E0.0279
G1 X107.263 Y105.991 E0.03406
G1 X107.776 Y105.808 E0.05084
G1 X108.153 Y105.735 E0.06267
G1 X108.495 Y105.702 E0.07325
G1 X126.499 Y105.7 E0.62787
G1 X127.023 Y105.778 E0.64419
G1 X127.582 Y105.948 E0.66219
G1 X127.931 Y106.096 E0.67387
G1 X128.331 Y106.397 E0.68929
G1 X128.603 Y106.669 E0.70114
G1 X128.914 Y107.087 E0.71719
G1 X129.009 Y107.263 E0.72335
G1 X129.192 Y107.774 E0.74007
G1 X129.265 Y108.149 E0.75184
G1 X129.298 Y108.493 E0.76248
G1 X129.3 Y126.499 E1.31716
G1 X129.266 Y126.845 E1.32787
G1 X129.191 Y127.228 E1.33989
G1 X129.08 Y127.59 E1.35156
G1 X128.921 Y127.884 E1.36185
G1 X128.704 Y128.208 E1.37387
G1 X128.461 Y128.499 E1.38554
G1 X128.212 Y128.7 E1.3954
G1 X127.886 Y128.919 E1.4075
G1 X127.551 Y129.096 E1.41917
G1 X127.224 Y129.192 E1.42967
G1 X126.847 Y129.265 E1.4415
G1 X126.505 Y129.298 E1.45208
G1 X108.501 Y129.3 E2.0067
G1 X108.155 Y129.266 E2.01741
G1 X107.772 Y129.191 E2.02943
G1 X107.263 Y129.009 E2.04609
G1 X107.087 Y128.914 E2.05225
G1 X106.669 Y128.603 E2.0683
G1 X106.396 Y128.33 E2.08019
G1 X106.158 Y128.035 E2.09187
G1 X106.007 Y127.748 E2.10186
G1 X105.857 Y127.387 E2.1139
G1 X105.749 Y127.023 E2.1256
G1 X105.719 Y126.698 E2.13565
G1 X105.7 Y108.503 E2.69615
G1 X105.734 Y108.155 E2.70692
G1 X105.809 Y107.772 E2.71894
G1 X105.991 Y107.263 E2.7356
G1 X106.086 Y107.087 E2.74176
G1 X106.397 Y106.669 E2.75781
G0 F6000 X106.68 Y106.952
G1 F1200 X106.952 Y106.68 E2.76966
G1 X107.277 Y106.438 E2.78214
G1 X107.453 Y106.343 E2.7883
G1 X107.852 Y106.201 E2.80135
G1 X108.229 Y106.128 E2.81318
G1 X108.495 Y106.102 E2.82141
G1 X126.499 Y106.1 E3.37603
G1 X126.906 Y106.161 E3.3887
G1 X127.465 Y106.331 E3.4067
G1 X127.771 Y106.465 E3.41699
G1 X128.048 Y106.68 E3.42779
G1 X128.32 Y106.952 E3.43964
G1 X128.562 Y107.277 E3.45213
G1 X128.657 Y107.453 E3.45829
G1 X128.799 Y107.85 E3.47128
G1 X128.872 Y108.225 E3.48305
G1 X128.898 Y108.493 E3.49134
G1 X128.9 Y126.499 E4.04602
G1 X128.874 Y126.768 E4.05434
G1 X128.799 Y127.151 E4.06637
G1 X128.696 Y127.469 E4.07666
G1 X128.588 Y127.661 E4.08345
G1 X128.371 Y127.985 E4.09546
G1 X128.154 Y128.238 E4.10573
G1 X127.989 Y128.368 E4.1122
G1 X127.663 Y128.587 E4.1243
G1 X127.365 Y128.739 E4.1346
G1 X127.148 Y128.799 E4.14154
G1 X126.771 Y128.872 E4.15337
G1 X126.505 Y128.898 E4.1616
G1 X108.501 Y128.9 E4.71622
G1 X108.232 Y128.874 E4.72454
G1 X107.849 Y128.799 E4.73657
G1 X107.453 Y128.657 E4.74953
G1 X107.277 Y128.562 E4.75569
G1 X106.952 Y128.32 E4.76817
G1 X106.679 Y128.047 E4.78006
G1 X106.473 Y127.784 E4.79035
G1 X106.376 Y127.594 E4.79693
G1 X106.226 Y127.233 E4.80897
G1 X106.136 Y126.912 E4.81924
G1 X106.119 Y126.697 E4.82588
G1 X106.1 Y108.502 E5.38638
G1 X106.126 Y108.232 E5.39474
G1 X106.201 Y107.849 E5.40676
G1 X106.343 Y107.453 E5.41972
G1 X106.438 Y107.277 E5.42588
G1 X106.68 Y106.952 E5.43836
G0 F6000 X106.963 Y107.235
G1 F1200 X107.235 Y106.963 E5.45021
G1 X107.467 Y106.79 E5.45913
G1 X107.643 Y106.695 E5.46529
G1 X107.928 Y106.593 E5.47461
G1 X108.305 Y106.52 E5.48644
G1 X108.495 Y106.502 E5.49232
G1 X126.499 Y106.5 E6.04694
G1 X126.79 Y106.543 E6.056
G1 X127.349 Y106.713 E6.074
G1 X127.605 Y106.833 E6.08271
G1 X127.765 Y106.963 E6.08906
G1 X128.037 Y107.235 E6.10091
G1 X128.21 Y107.467 E6.10983
G1 X128.305 Y107.643 E6.11599
G1 X128.407 Y107.927 E6.12528
G1 X128.48 Y108.302 E6.13705
G1 X128.498 Y108.493 E6.14296
G1 X128.5 Y126.499 E6.69764
G1 X128.481 Y126.691 E6.70358
G1 X128.406 Y127.074 E6.71561
G1 X128.256 Y127.438 E6.72773
G1 X128.039 Y127.762 E6.73975
G1 X127.766 Y128.036 E6.75166
G1 X127.44 Y128.255 E6.76376
G1 X127.072 Y128.407 E6.77602
G1 X126.695 Y128.48 E6.78785
G1 X126.505 Y128.498 E6.79373
G1 X108.501 Y128.5 E7.34835
G1 X108.309 Y128.481 E7.35429
G1 X107.926 Y128.406 E7.36632
G1 X107.643 Y128.305 E7.37557
G1 X107.467 Y128.21 E7.38173
G1 X107.235 Y128.037 E7.39065
G1 X106.962 Y127.764 E7.40254
G1 X106.746 Y127.441 E7.41451
G1 X106.596 Y127.08 E7.42655
G1 X106.519 Y126.697 E7.43859
G1 X106.5 Y108.502 E7.99909
G1 X106.519 Y108.309 E8.00506
G1 X106.594 Y107.926 E8.01709
G1 X106.695 Y107.643 E8.02634
G1 X106.79 Y107.467 E8.0325
G1 X106.963 Y107.235 E8.04142
G0 F6000 X107.246 Y107.518
G1 F1200 X107.518 Y107.246 E8.05327
G1 X107.657 Y107.142 E8.05862
G1 X107.833 Y107.047 E8.06478
G1 X108.004 Y106.986 E8.07037
G1 X108.381 Y106.913 E8.0822
G1 X108.495 Y106.902 E8.08573
G1 X126.499 Y106.9 E8.64034
G1 X126.674 Y106.926 E8.64579
G1 X127.233 Y107.096 E8.66379
G1 X127.482 Y107.246 E8.67275
G1 X127.754 Y107.518 E8.6846
G1 X127.858 Y107.657 E8.68995
G1 X127.953 Y107.833 E8.69611
G1 X128.014 Y108.003 E8.70167
G1 X128.087 Y108.378 E8.71344
G1 X128.098 Y108.493 E8.717
G1 X128.1 Y126.499 E9.27168
G1 X128.089 Y126.614 E9.27524
G1 X128.014 Y126.997 E9.28726
G1 X127.924 Y127.216 E9.29455
G1 X127.707 Y127.54 E9.30656
G1 X127.543 Y127.704 E9.31371
G1 X127.217 Y127.923 E9.32581
G1 X126.996 Y128.014 E9.33317
G1 X126.619 Y128.087 E9.345
G1 X126.505 Y128.098 E9.34853
G1 X108.501 Y128.1 E9.90314
G1 X108.386 Y128.089 E9.9067
G1 X108.003 Y128.014 E9.91873
G1 X107.833 Y127.953 E9.92429
G1 X107.657 Y127.858 E9.93045
G1 X107.518 Y127.754 E9.9358
G1 X107.245 Y127.481 E9.94769
G1 X107.115 Y127.287 E9.95489
G1 X106.965 Y126.926 E9.96693
G1 X106.919 Y126.697 E9.97412
G1 X106.9 Y108.502 E10.53462
G1 X106.911 Y108.386 E10.53821
G1 X106.986 Y108.003 E10.55024
G1 X107.047 Y107.833 E10.5558
G1 X107.142 Y107.657 E10.56196
G1 X107.246 Y107.518 E10.56731
G0 F6000 X107.529 Y107.801
G1 F1200 X107.801 Y107.529 E10.57916
G1 X107.847 Y107.494 E10.58094
G1 X108.023 Y107.399 E10.5871
G1 X108.08 Y107.379 E10.58896
G1 X108.457 Y107.306 E10.60079
G1 X126.499 Y107.3 E11.15658
G1 X126.557 Y107.309 E11.15839
G1 X127.116 Y107.479 E11.17638
G1 X127.199 Y107.529 E11.17937
G1 X127.471 Y107.801 E11.19122
G1 X127.506 Y107.847 E11.193
G1 X127.601 Y108.023 E11.19916
G1 X127.621 Y108.08 E11.20102
G1 X127.694 Y108.455 E11.21279
G1 X127.7 Y126.499 E11.76864
G1 X127.621 Y126.92 E11.78184
G1 X127.591 Y126.993 E11.78427
G1 X127.374 Y127.317 E11.79628
G1 X127.32 Y127.372 E11.79865
G1 X126.994 Y127.591 E11.81075
G1 X126.92 Y127.621 E11.81321
G1 X126.543 Y127.694 E11.82504
G1 X108.501 Y127.7 E12.38083
G1 X108.08 Y127.621 E12.39402
G1 X108.023 Y127.601 E12.39588
G1 X107.847 Y127.506 E12.40205
G1 X107.801 Y127.471 E12.40383
G1 X107.528 Y127.198 E12.41572
G1 X107.484 Y127.134 E12.41811
G1 X107.334 Y126.773 E12.43015
G1 X107.319 Y126.696 E12.43257
G1 X107.3 Y108.501 E12.99307
G1 X107.379 Y108.08 E13.00627
G1 X107.399 Y108.023 E13.00813
G1 X107.494 Y107.847 E13.01429
G1 X107.529 Y107.801 E13.01607
G1 F2700 E8.01607
;MESH:Flow_rate_calibration_cube_double_wall.stl
G0 F6000 X108.31 Y108.535
G0 X108.289 Y126.579
G0 X108.424 Y126.694
G0 X126.601 Y126.987
G0 X126.658 Y127.284
;TYPE:WALL-OUTER
G1 F2700 E13.01607
G1 F1200 X126.499 Y127.298 E13.02099
G1 X108.509 Y127.3 E13.57517
G1 X108.343 Y127.284 E13.58031
G1 X108.196 Y127.239 E13.58505
G1 X108.058 Y127.165 E13.58987
G1 X107.935 Y127.065 E13.59475
G1 X107.835 Y126.942 E13.59964
G1 X107.761 Y126.804 E13.60446
G1 X107.716 Y126.658 E13.60917
G1 X107.702 Y126.499 E13.61408
G1 X107.7 Y108.509 E14.16827
G1 X107.716 Y108.343 E14.17341
G1 X107.761 Y108.196 E14.17814
G1 X107.835 Y108.058 E14.18297
G1 X107.935 Y107.935 E14.18785
G1 X108.058 Y107.835 E14.19273
G1 X108.196 Y107.761 E14.19756
G1 X108.342 Y107.716 E14.20226
G1 X108.501 Y107.702 E14.20718
G1 X126.491 Y107.7 E14.76136
G1 X126.657 Y107.716 E14.7665
G1 X126.804 Y107.761 E14.77124
G1 X126.942 Y107.835 E14.77606
G1 X127.065 Y107.935 E14.78094
G1 X127.165 Y108.058 E14.78583
G1 X127.239 Y108.196 E14.79065
G1 X127.284 Y108.342 E14.79536
G1 X127.298 Y108.5 E14.80024
G1 X127.3 Y126.488 E15.35437
G1 X127.284 Y126.657 E15.3596
G1 X127.239 Y126.804 E15.36433
G1 X127.165 Y126.942 E15.36916
G1 X127.065 Y127.065 E15.37404
G1 X126.942 Y127.165 E15.37892
G1 X126.804 Y127.239 E15.38375
G1 X126.658 Y127.284 E15.38845
G0 F6000 X126.574 Y126.853
G0 X126.579 Y126.89
;TYPE:WALL-INNER
G1 F1200 X126.487 Y126.898 E15.3913
G1 X108.526 Y126.9 E15.94459
G1 X108.42 Y126.89 E15.94787
G1 X108.355 Y126.87 E15.94997
G1 X108.277 Y126.828 E15.9527
G1 X108.219 Y126.781 E15.95499
G1 X108.172 Y126.723 E15.95729
G1 X108.131 Y126.646 E15.95998
G1 X108.11 Y126.579 E15.96214
G1 X108.102 Y126.487 E15.96499
G1 X108.1 Y108.526 E16.51828
G1 X108.11 Y108.42 E16.52156
G1 X108.13 Y108.355 E16.52366
G1 X108.172 Y108.277 E16.52639
G1 X108.219 Y108.219 E16.52869
G1 X108.277 Y108.172 E16.53098
G1 X108.354 Y108.131 E16.53367
G1 X108.421 Y108.11 E16.53584
G1 X108.513 Y108.102 E16.53868
G1 X126.474 Y108.1 E17.09197
G1 X126.58 Y108.11 E17.09525
G1 X126.645 Y108.13 E17.09735
G1 X126.723 Y108.172 E17.10008
G1 X126.781 Y108.219 E17.10238
G1 X126.828 Y108.277 E17.10468
G1 X126.869 Y108.354 E17.10736
G1 X126.89 Y108.421 E17.10953
G1 X126.898 Y108.509 E17.11225
G1 X126.9 Y126.471 E17.66557
G1 X126.89 Y126.58 E17.66894
G1 X126.87 Y126.645 E17.67104
G1 X126.828 Y126.723 E17.67377
G1 X126.781 Y126.781 E17.67607
G1 X126.723 Y126.828 E17.67837
G1 X126.646 Y126.869 E17.68105
G1 X126.579 Y126.89 E17.68322
G0 F6000 X126.677 Y127.062
;MESH:NONMESH
G0 F300 X126.677 Y127.062 Z0.4
G0 F6000 X126.58 Y126.89
;TIME_ELAPSED:34.725299
;LAYER:1
M140 S60
M106 S85
;TYPE:WALL-INNER
;MESH:Flow_rate_calibration_cube_double_wall.stl
G1 F909.7 X126.498 Y126.897 E17.68575
G1 X108.526 Y126.9 E18.23938
G1 X108.42 Y126.89 E18.24266
G1 X108.355 Y126.87 E18.24476
G1 X108.277 Y126.828 E18.24749
G1 X108.219 Y126.781 E18.24979
G1 X108.172 Y126.723 E18.25209
G1 X108.131 Y126.646 E18.25477
G1 X108.11 Y126.58 E18.25691
G1 X108.103 Y126.498 E18.25944
G1 X108.1 Y108.525 E18.8131
G1 X108.11 Y108.42 E18.81635
G1 X108.13 Y108.355 E18.81845
G1 X108.172 Y108.277 E18.82118
G1 X108.219 Y108.219 E18.82348
G1 X108.277 Y108.172 E18.82578
G1 X108.354 Y108.131 E18.82846
G1 X108.42 Y108.11 E18.8306
G1 X108.502 Y108.103 E18.83313
G1 X126.474 Y108.1 E19.38676
G1 X126.58 Y108.11 E19.39004
G1 X126.645 Y108.13 E19.39214
G1 X126.723 Y108.172 E19.39487
G1 X126.781 Y108.219 E19.39717
G1 X126.828 Y108.277 E19.39947
G1 X126.869 Y108.354 E19.40215
G1 X126.89 Y108.42 E19.40429
G1 X126.897 Y108.502 E19.40682
G1 X126.9 Y126.474 E19.96045
G1 X126.89 Y126.58 E19.96373
G1 X126.87 Y126.645 E19.96583
G1 X126.828 Y126.723 E19.96856
G1 X126.781 Y126.781 E19.97086
G1 X126.723 Y126.828 E19.97316
G1 X126.646 Y126.869 E19.97584
G1 X126.58 Y126.89 E19.97798
G0 F10500 X126.658 Y127.284
;TYPE:WALL-OUTER
G1 F909.7 X126.51 Y127.297 E19.98255
G1 X108.509 Y127.3 E20.53708
G1 X108.343 Y127.284 E20.54222
G1 X108.196 Y127.239 E20.54695
G1 X108.058 Y127.165 E20.55178
G1 X107.935 Y127.065 E20.55666
G1 X107.835 Y126.942 E20.56154
G1 X107.761 Y126.804 E20.56637
G1 X107.716 Y126.658 E20.57107
G1 X107.703 Y126.51 E20.57565
G1 X107.7 Y108.509 E21.13017
G1 X107.716 Y108.343 E21.13531
G1 X107.761 Y108.196 E21.14005
G1 X107.835 Y108.058 E21.14487
G1 X107.935 Y107.935 E21.14975
G1 X108.058 Y107.835 E21.15464
G1 X108.196 Y107.761 E21.15946
G1 X108.342 Y107.716 E21.16417
G1 X108.49 Y107.703 E21.16874
G1 X126.491 Y107.7 E21.72327
G1 X126.657 Y107.716 E21.72841
G1 X126.804 Y107.761 E21.73314
G1 X126.942 Y107.835 E21.73797
G1 X127.065 Y107.935 E21.74285
G1 X127.165 Y108.058 E21.74773
G1 X127.239 Y108.196 E21.75256
G1 X127.284 Y108.342 E21.75726
G1 X127.297 Y108.49 E21.76184
G1 X127.3 Y126.491 E22.31636
G1 X127.284 Y126.657 E22.3215
G1 X127.239 Y126.804 E22.32624
G1 X127.165 Y126.942 E22.33106
G1 X127.065 Y127.065 E22.33594
G1 X126.942 Y127.165 E22.34083
G1 X126.804 Y127.239 E22.34565
G1 X126.658 Y127.284 E22.35036
G0 F10500 X126.574 Y126.853
G0 X126.503 Y126.701
;MESH:NONMESH
G0 F300 X126.503 Y126.701 Z0.6
G0 F10500 X126.58 Y126.89
;TIME_ELAPSED:44.933605
;LAYER:2
M106 S170
;TYPE:WALL-INNER
;MESH:Flow_rate_calibration_cube_double_wall.stl
G1 F909.5 X126.508 Y126.896 E22.35258
G1 X108.526 Y126.9 E22.90652
G1 X108.42 Y126.89 E22.9098
G1 X108.355 Y126.87 E22.9119
G1 X108.277 Y126.828 E22.91463
G1 X108.219 Y126.781 E22.91693
G1 X108.172 Y126.723 E22.91923
G1 X108.131 Y126.646 E22.92191
G1 X108.11 Y126.58 E22.92405
G1 X108.104 Y126.508 E22.92627
G1 X108.1 Y108.526 E23.48021
G1 X108.11 Y108.42 E23.48349
G1 X108.13 Y108.355 E23.48559
G1 X108.172 Y108.277 E23.48831
G1 X108.219 Y108.219 E23.49061
G1 X108.277 Y108.172 E23.49291
G1 X108.354 Y108.131 E23.4956
G1 X108.42 Y108.11 E23.49774
G1 X108.492 Y108.104 E23.49996
G1 X126.474 Y108.1 E24.0539
G1 X126.58 Y108.11 E24.05718
G1 X126.645 Y108.13 E24.05927
G1 X126.723 Y108.172 E24.062
G1 X126.781 Y108.219 E24.0643
G1 X126.828 Y108.277 E24.0666
G1 X126.869 Y108.354 E24.06929
G1 X126.89 Y108.42 E24.07142
G1 X126.896 Y108.492 E24.07365
G1 X126.9 Y126.474 E24.62759
G1 X126.89 Y126.58 E24.63087
G1 X126.87 Y126.645 E24.63296
G1 X126.828 Y126.723 E24.63569
G1 X126.781 Y126.781 E24.63799
G1 X126.723 Y126.828 E24.64029
G1 X126.646 Y126.869 E24.64298
G1 X126.58 Y126.89 E24.64511
G0 F15000 X126.658 Y127.284
;TYPE:WALL-OUTER
G1 F909.5 X126.52 Y127.296 E24.64938
G1 X108.509 Y127.3 E25.20421
G1 X108.343 Y127.284 E25.20935
G1 X108.196 Y127.239 E25.21409
G1 X108.058 Y127.165 E25.21891
G1 X107.935 Y127.065 E25.22379
G1 X107.835 Y126.942 E25.22868
G1 X107.761 Y126.804 E25.2335
G1 X107.716 Y126.658 E25.23821
G1 X107.704 Y126.52 E25.24247
G1 X107.7 Y108.509 E25.79731
G1 X107.716 Y108.343 E25.80244
G1 X107.761 Y108.196 E25.80718
G1 X107.835 Y108.058 E25.812
G1 X107.935 Y107.935 E25.81689
G1 X108.058 Y107.835 E25.82177
G1 X108.196 Y107.761 E25.82659
G1 X108.342 Y107.716 E25.8313
G1 X108.48 Y107.704 E25.83557
G1 X126.491 Y107.7 E26.3904
G1 X126.657 Y107.716 E26.39554
G1 X126.804 Y107.761 E26.40027
G1 X126.942 Y107.835 E26.4051
G1 X127.065 Y107.935 E26.40998
G1 X127.165 Y108.058 E26.41486
G1 X127.239 Y108.196 E26.41969
G1 X127.284 Y108.342 E26.42439
G1 X127.296 Y108.48 E26.42866
G1 X127.3 Y126.491 E26.98349
G1 X127.284 Y126.657 E26.98863
G1 X127.239 Y126.804 E26.99337
G1 X127.165 Y126.942 E26.99819
G1 X127.065 Y127.065 E27.00307
G1 X126.942 Y127.165 E27.00796
G1 X126.804 Y127.239 E27.01278
G1 X126.658 Y127.284 E27.01749
G0 F15000 X126.574 Y126.853
G0 X126.503 Y126.701
;MESH:NONMESH
G0 F300 X126.503 Y126.701 Z0.8
G0 F15000 X126.584 Y126.888
;TIME_ELAPSED:55.145807
;LAYER:3
M106 S255
;TYPE:WALL-INNER
;MESH:Flow_rate_calibration_cube_double_wall.stl
G1 F909.5 X126.508 Y126.895 E27.01984
G1 X108.526 Y126.9 E27.57378
G1 X108.42 Y126.89 E27.57706
G1 X108.355 Y126.87 E27.57915
G1 X108.277 Y126.828 E27.58188
G1 X108.219 Y126.781 E27.58418
G1 X108.172 Y126.723 E27.58648
G1 X108.131 Y126.646 E27.58917
G1 X108.112 Y126.584 E27.59116
G1 X108.105 Y126.508 E27.59352
G1 X108.1 Y108.526 E28.14745
G1 X108.11 Y108.42 E28.15073
G1 X108.13 Y108.355 E28.15283
G1 X108.172 Y108.277 E28.15556
G1 X108.219 Y108.219 E28.15786
G1 X108.277 Y108.172 E28.16016
G1 X108.354 Y108.131 E28.16285
G1 X108.416 Y108.112 E28.16484
G1 X108.492 Y108.105 E28.16719
G1 X126.474 Y108.1 E28.72113
G1 X126.58 Y108.11 E28.72441
G1 X126.645 Y108.13 E28.72651
G1 X126.723 Y108.172 E28.72924
G1 X126.781 Y108.219 E28.73154
G1 X126.828 Y108.277 E28.73384
G1 X126.869 Y108.354 E28.73652
G1 X126.888 Y108.416 E28.73852
