;FLAVOR:Marlin
;TIME:1466
;Filament used: 1.667m
;Layer height: 0.2
;MINX:35.2
;MINY:35.2
;MINZ:0.2
;MAXX:184.8
;MAXY:184.8
;MAXZ:2
;Generated with Cura_SteamEngine 4.4.1
M140 S95
M105
M190 S95
M104 S245
M105
M109 S245
M82 ;absolute extrusion mode
M201 X500.00 Y500.00 Z100.00 E5000.00 ;Setup machine max acceleration
M203 X500.00 Y500.00 Z10.00 E50.00 ;Setup machine max feedrate
M204 P500.00 R1000.00 T500.00 ;Setup Print/Retract/Travel acceleration
M205 X8.00 Y8.00 Z0.40 E5.00 ;Setup Jerk
M220 S100 ;Reset Feedrate
M221 S100 ;Reset Flowrate

G28 ;Home
M420 S1 ; Mesh Bed Levelling enabled

G92 E0 ;Reset Extruder
G1 Z2.0 F3000 ;Move Z Axis up
G1 X10.1 Y20 Z0.28 F5000.0 ;Move to start position
G1 X10.1 Y200.0 Z0.28 F1500.0 E15 ;Draw the first line
G1 X10.4 Y200.0 Z0.28 F5000.0 ;Move to side a little
G1 X10.4 Y20 Z0.28 F1500.0 E30 ;Draw the second line
G92 E0 ;Reset Extruder
G1 Z2.0 F3000 ;Move Z Axis up
G92 E0
G92 E0
G1 F1500 E-5
;LAYER_COUNT:10
;LAYER:0
M107
;MESH:bed_level_test.STL
G0 F6000 X55.3 Y164.7 Z0.2
;TYPE:WALL-OUTER
G1 F1500 E0
G1 F1200 X164.7 Y164.7 E3.63866
G1 X164.7 Y55.3 E7.27732
G1 X55.3 Y55.3 E10.91598
G1 X55.3 Y164.7 E14.55464
G0 F6000 X55.2 Y164.8
G1 F1200 X55.2 Y55.2 E18.19995
G1 X164.8 Y55.2 E21.84526
G1 X164.8 Y164.8 E25.49057
G1 X55.2 Y164.8 E29.13588
G0 F6000 X55.4 Y164.6
G1 F1500 E24.13588
G0 F6000 X65.3 Y164.5
G0 X65.3 Y163.835
G0 X65.3 Y155.665
G0 X65.3 Y154.98
G0 X65.3 Y154.7
G1 F1500 E29.13588
G1 F1200 X154.7 Y154.7 E32.10933
G1 X154.7 Y65.3 E35.08279
G1 X65.3 Y65.3 E38.05625
G1 X65.3 Y154.7 E41.0297
G0 F6000 X65.2 Y154.8
G1 F1200 X65.2 Y65.2 E44.00981
G1 X154.8 Y65.2 E46.98992
G1 X154.8 Y154.8 E49.97003
G1 X65.2 Y154.8 E52.95013
G0 F6000 X65.4 Y154.6
G1 F1500 E47.95013
G0 F6000 X75.3 Y154.5
G0 X75.3 Y153.835
G0 X75.3 Y145.665
G0 X75.3 Y144.98
G0 X75.3 Y144.7
G1 F1500 E52.95013
G1 F1200 X144.7 Y144.7 E55.25839
G1 X144.7 Y75.3 E57.56664
G1 X75.3 Y75.3 E59.8749
G1 X75.3 Y144.7 E62.18315
G0 F6000 X75.2 Y144.8
G1 F1200 X75.2 Y75.2 E64.49805
G1 X144.8 Y75.2 E66.81296
G1 X144.8 Y144.8 E69.12786
G1 X75.2 Y144.8 E71.44277
G0 F6000 X75.4 Y144.6
G1 F1500 E66.44277
G0 F6000 X85.3 Y144.5
G0 X85.3 Y143.835
G0 X85.3 Y135.665
G0 X85.3 Y134.98
G0 X85.3 Y134.7
G1 F1500 E71.44277
G1 F1200 X134.7 Y134.7 E73.08582
G1 X134.7 Y85.3 E74.72887
G1 X85.3 Y85.3 E76.37192
G1 X85.3 Y134.7 E78.01497
G0 F6000 X85.2 Y134.8
G1 F1200 X85.2 Y85.2 E79.66468
G1 X134.8 Y85.2 E81.31438
G1 X134.8 Y134.8 E82.96408
G1 X85.2 Y134.8 E84.61378
G0 F6000 X85.4 Y134.6
G1 F1500 E79.61378
G0 F6000 X95.3 Y134.5
G0 X95.3 Y133.835
G0 X95.3 Y125.665
G0 X95.3 Y124.98
G0 X95.3 Y124.7
G1 F1500 E84.61378
G1 F1200 X124.7 Y124.7 E85.59163
G1 X124.7 Y95.3 E86.56948
G1 X95.3 Y95.3 E87.54733
G1 X95.3 Y124.7 E88.52518
G0 F6000 X95.2 Y124.8
G1 F1200 X95.2 Y95.2 E89.50968
G1 X124.8 Y95.2 E90.49418
G1 X124.8 Y124.8 E91.47868
G1 X95.2 Y124.8 E92.46318
G0 F6000 X95.4 Y124.6
G1 F1500 E87.46318
G0 F6000 X95.014 Y124.986
G0 X95.014 Y125.665
G0 X95.014 Y173.835
G0 X95.014 Y174.5
G0 X45.3 Y174.7
G1 F1500 E92.46318
G1 F1200 X174.7 Y174.7 E96.76704
G1 X174.7 Y45.3 E101.0709
G1 X45.3 Y45.3 E105.37476
G1 X45.3 Y174.7 E109.67862
G0 F6000 X45.2 Y174.8
G1 F1200 X45.2 Y45.2 E113.98913
G1 X174.8 Y45.2 E118.29965
G1 X174.8 Y174.8 E122.61016
G1 X45.2 Y174.8 E126.92068
G0 F6000 X45.4 Y174.6
G1 F1500 E121.92068
G0 F6000 X45.014 Y174.986
G0 X45.014 Y175.665
G0 X45.014 Y183.835
G0 X45.014 Y184.5
G0 X35.3 Y184.7
G1 F1500 E126.92068
G1 F1200 X184.7 Y184.7 E131.88974
G1 X184.7 Y35.3 E136.8588
G1 X35.3 Y35.3 E141.82787
G1 X35.3 Y184.7 E146.79693
G0 F6000 X35.2 Y184.8
G1 F1200 X35.2 Y35.2 E151.77265
G1 X184.8 Y35.2 E156.74836
G1 X184.8 Y184.8 E161.72408
G1 X35.2 Y184.8 E166.6998
G0 F6000 X35.4 Y184.6
G1 F1500 E161.6998
;MESH:NONMESH
G0 F300 X35.4 Y184.6 Z0.4
G0 F6000 X55.3 Y184.5
G0 X55.3 Y183.835
G0 X55.3 Y165.665
G0 X55.3 Y164.98
G0 X55.3 Y164.7
;TIME_ELAPSED:263.810582
;LAYER:1
M140 S95
M106 S85
;TYPE:WALL-OUTER
;MESH:bed_level_test.STL
G1 F1500 E166.6998
G1 F1875 X164.7 Y164.7 E170.33846
G1 X164.7 Y55.3 E173.97711
G1 X55.3 Y55.3 E177.61577
G1 X55.3 Y164.7 E181.25443
G0 F9375 X55.2 Y164.8
G1 F1875 X55.2 Y55.2 E184.89974
G1 X164.8 Y55.2 E188.54505
G1 X164.8 Y164.8 E192.19036
G1 X55.2 Y164.8 E195.83568
G0 F9375 X55.4 Y164.6
G1 F1500 E190.83568
G0 F9375 X65.3 Y164.5
G0 X65.3 Y163.835
G0 X65.3 Y155.665
G0 X65.3 Y154.98
G0 X65.3 Y154.7
G1 F1500 E195.83568
G1 F1875 X154.7 Y154.7 E198.80913
G1 X154.7 Y65.3 E201.78259
G1 X65.3 Y65.3 E204.75604
G1 X65.3 Y154.7 E207.7295
G0 F9375 X65.2 Y154.8
G1 F1875 X65.2 Y65.2 E210.70961
G1 X154.8 Y65.2 E213.68972
G1 X154.8 Y154.8 E216.66982
G1 X65.2 Y154.8 E219.64993
G0 F9375 X65.4 Y154.6
G1 F1500 E214.64993
G0 F9375 X75.3 Y154.5
G0 X75.3 Y153.835
G0 X75.3 Y145.665
G0 X75.3 Y144.98
G0 X75.3 Y144.7
G1 F1500 E219.64993
G1 F1875 X144.7 Y144.7 E221.95819
G1 X144.7 Y75.3 E224.26644
G1 X75.3 Y75.3 E226.57469
G1 X75.3 Y144.7 E228.88295
G0 F9375 X75.2 Y144.8
G1 F1875 X75.2 Y75.2 E231.19785
G1 X144.8 Y75.2 E233.51276
G1 X144.8 Y144.8 E235.82766
G1 X75.2 Y144.8 E238.14257
G0 F9375 X75.4 Y144.6
G1 F1500 E233.14257
G0 F9375 X85.3 Y144.5
G0 X85.3 Y143.835
G0 X85.3 Y135.665
G0 X85.3 Y134.98
G0 X85.3 Y134.7
G1 F1500 E238.14257
G1 F1875 X134.7 Y134.7 E239.78562
G1 X134.7 Y85.3 E241.42867
G1 X85.3 Y85.3 E243.07172
G1 X85.3 Y134.7 E244.71477
G0 F9375 X85.2 Y134.8
G1 F1875 X85.2 Y85.2 E246.36447
G1 X134.8 Y85.2 E248.01418
G1 X134.8 Y134.8 E249.66388
G1 X85.2 Y134.8 E251.31358
G0 F9375 X85.4 Y134.6
G1 F1500 E246.31358
G0 F9375 X95.3 Y134.5
G0 X95.3 Y133.835
G0 X95.3 Y125.665
G0 X95.3 Y124.98
G0 X95.3 Y124.7
G1 F1500 E251.31358
G1 F1875 X124.7 Y124.7 E252.29143
G1 X124.7 Y95.3 E253.26928
G1 X95.3 Y95.3 E254.24712
G1 X95.3 Y124.7 E255.22497
G0 F9375 X95.2 Y124.8
G1 F1875 X95.2 Y95.2 E256.20947
G1 X124.8 Y95.2 E257.19397
G1 X124.8 Y124.8 E258.17847
G1 X95.2 Y124.8 E259.16297
G0 F9375 X95.4 Y124.6
G1 F1500 E254.16297
G0 F9375 X95.014 Y124.986
G0 X95.014 Y125.665
G0 X95.014 Y173.835
G0 X95.014 Y174.5
G0 X45.3 Y174.7
G1 F1500 E259.16297
G1 F1875 X174.7 Y174.7 E263.46683
G1 X174.7 Y45.3 E267.7707
G1 X45.3 Y45.3 E272.07456
G1 X45.3 Y174.7 E276.37842
G0 F9375 X45.2 Y174.8
G1 F1875 X45.2 Y45.2 E280.68893
G1 X174.8 Y45.2 E284.99945
G1 X174.8 Y174.8 E289.30996
G1 X45.2 Y174.8 E293.62047
G0 F9375 X45.4 Y174.6
G1 F1500 E288.62047
G0 F9375 X45.014 Y174.986
G0 X45.014 Y175.665
G0 X45.014 Y183.835
G0 X45.014 Y184.5
G0 X35.3 Y184.7
G1 F1500 E293.62047
G1 F1875 X184.7 Y184.7 E298.58954
G1 X184.7 Y35.3 E303.5586
G1 X35.3 Y35.3 E308.52766
G1 X35.3 Y184.7 E313.49673
G0 F9375 X35.2 Y184.8
G1 F1875 X35.2 Y35.2 E318.47245
G1 X184.8 Y35.2 E323.44816
G1 X184.8 Y184.8 E328.42388
G1 X35.2 Y184.8 E333.39959
G0 F9375 X35.4 Y184.6
G1 F1500 E328.39959
;MESH:NONMESH
G0 F300 X35.4 Y184.6 Z0.6
G0 F9375 X55.3 Y184.5
G0 X55.3 Y183.835
G0 X55.3 Y165.665
G0 X55.3 Y164.98
G0 X55.3 Y164.7
;TIME_ELAPSED:434.198247
;LAYER:2
M106 S170
;TYPE:WALL-OUTER
;MESH:bed_level_test.STL
G1 F1500 E333.39959
G1 F2550 X164.7 Y164.7 E337.03825
G1 X164.7 Y55.3 E340.67691
G1 X55.3 Y55.3 E344.31557
G1 X55.3 Y164.7 E347.95423
G0 F12750 X55.2 Y164.8
G1 F2550 X55.2 Y55.2 E351.59954
G1 X164.8 Y55.2 E355.24485
G1 X164.8 Y164.8 E358.89016
G1 X55.2 Y164.8 E362.53547
G0 F12750 X55.4 Y164.6
G1 F1500 E357.53547
G0 F12750 X65.3 Y164.5
G0 X65.3 Y163.835
G0 X65.3 Y155.665
G0 X65.3 Y154.98
G0 X65.3 Y154.7
G1 F1500 E362.53547
G1 F2550 X154.7 Y154.7 E365.50893
G1 X154.7 Y65.3 E368.48238
G1 X65.3 Y65.3 E371.45584
G1 X65.3 Y154.7 E374.4293
G0 F12750 X65.2 Y154.8
G1 F2550 X65.2 Y65.2 E377.4094
G1 X154.8 Y65.2 E380.38951
G1 X154.8 Y154.8 E383.36962
G1 X65.2 Y154.8 E386.34973
G0 F12750 X65.4 Y154.6
G1 F1500 E381.34973
G0 F12750 X75.3 Y154.5
G0 X75.3 Y153.835
G0 X75.3 Y145.665
G0 X75.3 Y144.98
G0 X75.3 Y144.7
G1 F1500 E386.34973
G1 F2550 X144.7 Y144.7 E388.65798
G1 X144.7 Y75.3 E390.96624
G1 X75.3 Y75.3 E393.27449
G1 X75.3 Y144.7 E395.58274
G0 F12750 X75.2 Y144.8
G1 F2550 X75.2 Y75.2 E397.89765
G1 X144.8 Y75.2 E400.21255
G1 X144.8 Y144.8 E402.52746
G1 X75.2 Y144.8 E404.84236
G0 F12750 X75.4 Y144.6
G1 F1500 E399.84236
G0 F12750 X85.3 Y144.5
G0 X85.3 Y143.835
G0 X85.3 Y135.665
G0 X85.3 Y134.98
G0 X85.3 Y134.7
G1 F1500 E404.84236
G1 F2550 X134.7 Y134.7 E406.48541
G1 X134.7 Y85.3 E408.12847
G1 X85.3 Y85.3 E409.77152
G1 X85.3 Y134.7 E411.41457
G0 F12750 X85.2 Y134.8
G1 F2550 X85.2 Y85.2 E413.06427
G1 X134.8 Y85.2 E414.71397
G1 X134.8 Y134.8 E416.36367
G1 X85.2 Y134.8 E418.01338
G0 F12750 X85.4 Y134.6
G1 F1500 E413.01338
G0 F12750 X95.3 Y134.5
G0 X95.3 Y133.835
G0 X95.3 Y125.665
G0 X95.3 Y124.98
G0 X95.3 Y124.7
G1 F1500 E418.01338
G1 F2550 X124.7 Y124.7 E418.99123
G1 X124.7 Y95.3 E419.96907
G1 X95.3 Y95.3 E420.94692
G1 X95.3 Y124.7 E421.92477
G0 F12750 X95.2 Y124.8
G1 F2550 X95.2 Y95.2 E422.90927
G1 X124.8 Y95.2 E423.89377
G1 X124.8 Y124.8 E424.87827
G1 X95.2 Y124.8 E425.86277
G0 F12750 X95.4 Y124.6
G1 F1500 E420.86277
G0 F12750 X95.014 Y124.986
G0 X95.014 Y125.665
G0 X95.014 Y173.835
G0 X95.014 Y174.5
G0 X45.3 Y174.7
G1 F1500 E425.86277
G1 F2550 X174.7 Y174.7 E430.16663
G1 X174.7 Y45.3 E434.47049
G1 X45.3 Y45.3 E438.77435
G1 X45.3 Y174.7 E443.07822
G0 F12750 X45.2 Y174.8
G1 F2550 X45.2 Y45.2 E447.38873
G1 X174.8 Y45.2 E451.69924
G1 X174.8 Y174.8 E456.00976
G1 X45.2 Y174.8 E460.32027
G0 F12750 X45.4 Y174.6
G1 F1500 E455.32027
G0 F12750 X45.014 Y174.986
G0 X45.014 Y175.665
G0 X45.014 Y183.835
G0 X45.014 Y184.5
G0 X35.3 Y184.7
G1 F1500 E460.32027
G1 F2550 X184.7 Y184.7 E465.28933
G1 X184.7 Y35.3 E470.2584
G1 X35.3 Y35.3 E475.22746
G1 X35.3 Y184.7 E480.19653
G0 F12750 X35.2 Y184.8
G1 F2550 X35.2 Y35.2 E485.17224
G1 X184.8 Y35.2 E490.14796
G1 X184.8 Y184.8 E495.12367
G1 X35.2 Y184.8 E500.09939
G0 F12750 X35.4 Y184.6
G1 F1500 E495.09939
;MESH:NONMESH
G0 F300 X35.4 Y184.6 Z0.8
G0 F12750 X55.3 Y184.5
G0 X55.3 Y183.835
G0 X55.3 Y165.665
G0 X55.3 Y164.98
G0 X55.3 Y164.7
;TIME_ELAPSED:563.318608
;LAYER:3
M106 S255
;TYPE:WALL-OUTER
;MESH:bed_level_test.STL
G1 F1500 E500.09939
G1 F2550 X164.7 Y164.7 E503.73805
G1 X164.7 Y55.3 E507.37671
G1 X55.3 Y55.3 E511.01537
G1 X55.3 Y164.7 E514.65403
G0 F12750 X55.2 Y164.8
G1 F2550 X55.2 Y55.2 E518.29934
G1 X164.8 Y55.2 E521.94465
G1 X164.8 Y164.8 E525.58996
G1 X55.2 Y164.8 E529.23527
G0 F12750 X55.4 Y164.6
G1 F1500 E524.23527
G0 F12750 X65.3 Y164.5
G0 X65.3 Y163.835
G0 X65.3 Y155.665
G0 X65.3 Y154.98
G0 X65.3 Y154.7
G1 F1500 E529.23527
G1 F2550 X154.7 Y154.7 E532.20872
G1 X154.7 Y65.3 E535.18218
G1 X65.3 Y65.3 E538.15564
G1 X65.3 Y154.7 E541.12909
G0 F12750 X65.2 Y154.8
G1 F2550 X65.2 Y65.2 E544.1092
G1 X154.8 Y65.2 E547.08931
G1 X154.8 Y154.8 E550.06942
G1 X65.2 Y154.8 E553.04953
G0 F12750 X65.4 Y154.6
G1 F1500 E548.04953
G0 F12750 X75.3 Y154.5
G0 X75.3 Y153.835
G0 X75.3 Y145.665
G0 X75.3 Y144.98
G0 X75.3 Y144.7
G1 F1500 E553.04953
G1 F2550 X144.7 Y144.7 E555.35778
G1 X144.7 Y75.3 E557.66603
G1 X75.3 Y75.3 E559.97429
G1 X75.3 Y144.7 E562.28254
G0 F12750 X75.2 Y144.8
G1 F2550 X75.2 Y75.2 E564.59744
G1 X144.8 Y75.2 E566.91235
G1 X144.8 Y144.8 E569.22726
G1 X75.2 Y144.8 E571.54216
G0 F12750 X75.4 Y144.6
G1 F1500 E566.54216
G0 F12750 X85.3 Y144.5
G0 X85.3 Y143.835
G0 X85.3 Y135.665
G0 X85.3 Y134.98
G0 X85.3 Y134.7
G1 F1500 E571.54216
G1 F2550 X134.7 Y134.7 E573.18521
G1 X134.7 Y85.3 E574.82826
G1 X85.3 Y85.3 E576.47131
G1 X85.3 Y134.7 E578.11436
G0 F12750 X85.2 Y134.8
G1 F2550 X85.2 Y85.2 E579.76407
G1 X134.8 Y85.2 E581.41377
G1 X134.8 Y134.8 E583.06347
G1 X85.2 Y134.8 E584.71317
G0 F12750 X85.4 Y134.6
G1 F1500 E579.71317
G0 F12750 X95.3 Y134.5
G0 X95.3 Y133.835
G0 X95.3 Y125.665
G0 X95.3 Y124.98
G0 X95.3 Y124.7
G1 F1500 E584.71317
G1 F2550 X124.7 Y124.7 E585.69102
G1 X124.7 Y95.3 E586.66887
G1 X95.3 Y95.3 E587.64672
G1 X95.3 Y124.7 E588.62457
G0 F12750 X95.2 Y124.8
G1 F2550 X95.2 Y95.2 E589.60907
G1 X124.8 Y95.2 E590.59357
G1 X124.8 Y124.8 E591.57807
G1 X95.2 Y124.8 E592.56257
G0 F12750 X95.4 Y124.6
G1 F1500 E587.56257
G0 F12750 X95.014 Y124.986
G0 X95.014 Y125.665
G0 X95.014 Y173.835
G0 X95.014 Y174.5
G0 X45.3 Y174.7
G1 F1500 E592.56257
G1 F2550 X174.7 Y174.7 E596.86643
G1 X174.7 Y45.3 E601.17029
G1 X45.3 Y45.3 E605.47415
G1 X45.3 Y174.7 E609.77801
G0 F12750 X45.2 Y174.8
G1 F2550 X45.2 Y45.2 E614.08853
G1 X174.8 Y45.2 E618.39904
G1 X174.8 Y174.8 E622.70955
G1 X45.2 Y174.8 E627.02007
G0 F12750 X45.4 Y174.6
G1 F1500 E622.02007
G0 F12750 X45.014 Y174.986
G0 X45.014 Y175.665
G0 X45.014 Y183.835
G0 X45.014 Y184.5
G0 X35.3 Y184.7
G1 F1500 E627.02007
G1 F2550 X184.7 Y184.7 E631.98913
G1 X184.7 Y35.3 E636.95819
G1 X35.3 Y35.3 E641.92726
G1 X35.3 Y184.7 E646.89632
G0 F12750 X35.2 Y184.8
G1 F2550 X35.2 Y35.2 E651.87204
G1 X184.8 Y35.2 E656.84775
G1 X184.8 Y184.8 E661.82347
G1 X35.2 Y184.8 E666.79919
G0 F12750 X35.4 Y184.6
G1 F1500 E661.79919
;MESH:NONMESH
G0 F300 X35.4 Y184.6 Z1
G0 F12750 X55.3 Y184.5
G0 X55.3 Y183.835
G0 X55.3 Y165.665
G0 X55.3 Y164.98
G0 X55.3 Y164.7
;TIME_ELAPSED:692.438969
;LAYER:4
;TYPE:WALL-OUTER
;MESH:bed_level_test.STL
G1 F1500 E666.79919
G1 F2550 X164.7 Y164.7 E670.43785
G1 X164.7 Y55.3 E674.0765
G1 X55.3 Y55.3 E677.71516
G1 X55.3 Y164.7 E681.35382
G0 F12750 X55.2 Y164.8
G1 F2550 X55.2 Y55.2 E684.99913
G1 X164.8 Y55.2 E688.64444
G1 X164.8 Y164.8 E692.28975
G1 X55.2 Y164.8 E695.93507
G0 F12750 X55.4 Y164.6
G1 F1500 E690.93507
G0 F12750 X65.3 Y164.5
G0 X65.3 Y163.835
G0 X65.3 Y155.665
G0 X65.3 Y154.98
G0 X65.3 Y154.7
G1 F1500 E695.93507
G1 F2550 X154.7 Y154.7 E698.90852
G1 X154.7 Y65.3 E701.88198
G1 X65.3 Y65.3 E704.85543
G1 X65.3 Y154.7 E707.82889
G0 F12750 X65.2 Y154.8
G1 F2550 X65.2 Y65.2 E710.809
G1 X154.8 Y65.2 E713.78911
G1 X154.8 Y154.8 E716.76921
G1 X65.2 Y154.8 E719.74932
G0 F12750 X65.4 Y154.6
G1 F1500 E714.74932
G0 F12750 X75.3 Y154.5
G0 X75.3 Y153.835
G0 X75.3 Y145.665
G0 X75.3 Y144.98
G0 X75.3 Y144.7
G1 F1500 E719.74932
G1 F2550 X144.7 Y144.7 E722.05758
G1 X144.7 Y75.3 E724.36583
G1 X75.3 Y75.3 E726.67408
G1 X75.3 Y144.7 E728.98234
G0 F12750 X75.2 Y144.8
G1 F2550 X75.2 Y75.2 E731.29724
G1 X144.8 Y75.2 E733.61215
G1 X144.8 Y144.8 E735.92705
G1 X75.2 Y144.8 E738.24196
G0 F12750 X75.4 Y144.6
G1 F1500 E733.24196
G0 F12750 X85.3 Y144.5
G0 X85.3 Y143.835
G0 X85.3 Y135.665
G0 X85.3 Y134.98
G0 X85.3 Y134.7
G1 F1500 E738.24196
G1 F2550 X134.7 Y134.7 E739.88501
G1 X134.7 Y85.3 E741.52806
G1 X85.3 Y85.3 E743.17111
G1 X85.3 Y134.7 E744.81416
G0 F12750 X85.2 Y134.8
G1 F2550 X85.2 Y85.2 E746.46386
G1 X134.8 Y85.2 E748.11357
G1 X134.8 Y134.8 E749.76327
G1 X85.2 Y134.8 E751.41297
G0 F12750 X85.4 Y134.6
G1 F1500 E746.41297
G0 F12750 X95.3 Y134.5
G0 X95.3 Y133.835
G0 X95.3 Y125.665
G0 X95.3 Y124.98
G0 X95.3 Y124.7
G1 F1500 E751.41297
G1 F2550 X124.7 Y124.7 E752.39082
G1 X124.7 Y95.3 E753.36867
G1 X95.3 Y95.3 E754.34651
G1 X95.3 Y124.7 E755.32436
G0 F12750 X95.2 Y124.8
G1 F2550 X95.2 Y95.2 E756.30886
G1 X124.8 Y95.2 E757.29336
G1 X124.8 Y124.8 E758.27786
G1 X95.2 Y124.8 E759.26236
G0 F12750 X95.4 Y124.6
G1 F1500 E754.26236
G0 F12750 X95.014 Y124.986
G0 X95.014 Y125.665
G0 X95.014 Y173.835
G0 X95.014 Y174.5
G0 X45.3 Y174.7
G1 F1500 E759.26236
G1 F2550 X174.7 Y174.7 E763.56622
G1 X174.7 Y45.3 E767.87009
G1 X45.3 Y45.3 E772.17395
G1 X45.3 Y174.7 E776.47781
G0 F12750 X45.2 Y174.8
G1 F2550 X45.2 Y45.2 E780.78832
G1 X174.8 Y45.2 E785.09884
G1 X174.8 Y174.8 E789.40935
G1 X45.2 Y174.8 E793.71986
G0 F12750 X45.4 Y174.6
G1 F1500 E788.71986
G0 F12750 X45.014 Y174.986
G0 X45.014 Y175.665
G0 X45.014 Y183.835
G0 X45.014 Y184.5
G0 X35.3 Y184.7
G1 F1500 E793.71986
G1 F2550 X184.7 Y184.7 E798.68893
G1 X184.7 Y35.3 E803.65799
G1 X35.3 Y35.3 E808.62706
G1 X35.3 Y184.7 E813.59612
G0 F12750 X35.2 Y184.8
G1 F2550 X35.2 Y35.2 E818.57184
G1 X184.8 Y35.2 E823.54755
G1 X184.8 Y184.8 E828.52327
G1 X35.2 Y184.8 E833.49898
G0 F12750 X35.4 Y184.6
G1 F1500 E828.49898
;MESH:NONMESH
G0 F300 X35.4 Y184.6 Z1.2
G0 F12750 X55.3 Y184.5
G0 X55.3 Y183.835
G0 X55.3 Y165.665
G0 X55.3 Y164.98
G0 X55.3 Y164.7
;TIME_ELAPSED:821.559330
;LAYER:5
;TYPE:WALL-OUTER
;MESH:bed_level_test.STL
G1 F1500 E833.49898
G1 F2550 X164.7 Y164.7 E837.13764
G1 X164.7 Y55.3 E840.7763
G1 X55.3 Y55.3 E844.41496
G1 X55.3 Y164.7 E848.05362
G0 F12750 X55.2 Y164.8
