;FLAVOR:Marlin
;TIME:2205
;Filament used: 0.914204m
;Layer height: 0.2
;MINX:91.501
;MINY:91.501
;MINZ:0.2
;MAXX:143.499
;MAXY:143.499
;MAXZ:40
;POSTPROCESSED
;Generated with Cura_SteamEngine 4.5.0
M140 S60
M105
M190 S60
M104 S205
M105
M109 S205
M82 ;absolute extrusion mode
; Ender 3 Custom Start G-code
G92 E0 ; Reset Extruder
G28 ; Home all axes
G29 L1 A ; Activate unified bed levelling
G29 J
G1 Z2.0 F3000 ; Move Z Axis up little to prevent scratching of Heat Bed
G1 X0.1 Y20 Z0.3 F5000.0 ; Move to start position
G1 X0.1 Y200.0 Z0.3 F1500.0 E15 ; Draw the first line
G1 X0.4 Y200.0 Z0.3 F5000.0 ; Move to side a little
G1 X0.4 Y20 Z0.3 F1500.0 E30 ; Draw the second line
G92 E0 ; Reset Extruder
G1 Z2.0 F3000 ; Move Z Axis up little to prevent scratching of Heat Bed
G1 X5 Y20 Z0.3 F5000.0 ; Move over to prevent blob squish
G92 E0
G92 E0
G1 F2700 E-4.5
;LAYER_COUNT:200
;LAYER:0
M205 J0.025
M117 Junction Dev - 0.025
M107
G0 F6000 X94.702 Y94.767 Z0.2
;TYPE:SKIRT
G1 F2700 E0
G1 F1200 X95.39 Y94.13 E0.03119
G1 X96.131 Y93.554 E0.0624
G1 X96.917 Y93.043 E0.09358
G1 X97.745 Y92.601 E0.1248
G1 X98.606 Y92.232 E0.15596
G1 X99.497 Y91.936 E0.18718
G1 X100.409 Y91.718 E0.21837
G1 X101.336 Y91.579 E0.24955
G1 X101.986 Y91.528 E0.27123
G1 X102.301 Y91.513 E0.28172
G1 X102.823 Y91.501 E0.29909
G1 X121.951 Y91.501 E0.93529
G1 X122.649 Y91.511 E0.95851
G1 X123.585 Y91.565 E0.98969
G1 X124.513 Y91.697 E1.02087
G1 X125.427 Y91.909 E1.05207
G1 X126.319 Y92.198 E1.08326
G1 X127.184 Y92.561 E1.11446
G1 X128.014 Y92.997 E1.14564
G1 X128.805 Y93.502 E1.17686
G1 X129.549 Y94.073 E1.20805
G1 X130.242 Y94.705 E1.23924
G1 X130.58 Y95.056 E1.25545
G1 X131.118 Y95.644 E1.28196
G1 X132.113 Y96.773 E1.33201
G1 X133.843 Y98.627 E1.41635
G1 X135.616 Y100.422 E1.50027
G1 X137.42 Y102.148 E1.58331
G1 X139.344 Y103.888 E1.66959
G1 X139.759 Y104.254 E1.68799
G1 X140.436 Y104.903 E1.71919
G1 X141.055 Y105.608 E1.75039
G1 X141.611 Y106.363 E1.78158
G1 X142.101 Y107.163 E1.81278
G1 X142.521 Y108.001 E1.84395
G1 X142.869 Y108.873 E1.87518
G1 X143.14 Y109.77 E1.90635
G1 X143.335 Y110.688 E1.93756
G1 X143.45 Y111.618 E1.96873
G1 X143.481 Y112.169 E1.98708
G1 X143.491 Y112.495 E1.99793
G1 X143.496 Y112.83 E2.00908
G1 X143.499 Y131.956 E2.64521
G1 X143.49 Y132.619 E2.66726
G1 X143.437 Y133.556 E2.69848
G1 X143.305 Y134.484 E2.72965
G1 X143.094 Y135.398 E2.76085
G1 X142.806 Y136.291 E2.79206
G1 X142.443 Y137.155 E2.82323
G1 X142.008 Y137.986 E2.85443
G1 X141.503 Y138.777 E2.88564
G1 X140.933 Y139.522 E2.91684
G1 X140.302 Y140.215 E2.94801
G1 X139.614 Y140.852 E2.9792
G1 X138.874 Y141.429 E3.01041
G1 X138.088 Y141.94 E3.04159
G1 X137.261 Y142.382 E3.07278
G1 X136.399 Y142.752 E3.10398
G1 X135.509 Y143.048 E3.13517
G1 X134.597 Y143.267 E3.16637
G1 X133.499 Y143.424 E3.20326
G1 X133.184 Y143.453 E3.21378
G1 X132.177 Y143.499 E3.24731
G1 X113.049 Y143.499 E3.88351
G1 X112.351 Y143.489 E3.90673
G1 X111.415 Y143.435 E3.93791
G1 X110.487 Y143.303 E3.96909
G1 X109.573 Y143.091 E4.00029
G1 X108.681 Y142.802 E4.03148
G1 X107.816 Y142.439 E4.06268
G1 X106.986 Y142.003 E4.09386
G1 X106.195 Y141.498 E4.12508
G1 X105.451 Y140.927 E4.15627
G1 X104.758 Y140.295 E4.18746
G1 X104.413 Y139.937 E4.204
G1 X103.854 Y139.326 E4.23154
G1 X102.866 Y138.204 E4.28127
G1 X101.156 Y136.372 E4.36462
G1 X99.384 Y134.578 E4.44849
G1 X97.58 Y132.853 E4.53151
G1 X95.696 Y131.148 E4.61602
G1 X95.248 Y130.754 E4.63586
G1 X94.571 Y130.105 E4.66705
G1 X93.951 Y129.4 E4.69828
G1 X93.394 Y128.646 E4.72946
G1 X92.903 Y127.847 E4.76065
G1 X92.482 Y127.009 E4.79184
G1 X92.134 Y126.138 E4.82304
G1 X91.861 Y125.241 E4.85422
G1 X91.666 Y124.323 E4.88544
G1 X91.55 Y123.393 E4.91661
G1 X91.517 Y122.798 E4.93643
G1 X91.504 Y122.17 E4.95732
G1 X91.501 Y102.999 E5.59495
G1 X91.51 Y102.361 E5.61617
G1 X91.563 Y101.424 E5.64739
G1 X91.696 Y100.496 E5.67857
G1 X91.907 Y99.582 E5.70977
G1 X92.196 Y98.69 E5.74096
G1 X92.559 Y97.825 E5.77216
G1 X92.995 Y96.995 E5.80334
G1 X93.5 Y96.204 E5.83455
G1 X94.07 Y95.46 E5.86573
G1 X94.702 Y94.767 E5.89692
G0 F6000 X95.094 Y94.941
G1 F1200 X95.779 Y94.326 E5.92754
G1 X96.515 Y93.773 E5.95816
G1 X97.296 Y93.286 E5.98877
G1 X98.117 Y92.869 E6.0194
G1 X98.971 Y92.524 E6.05003
G1 X99.851 Y92.255 E6.08064
G1 X100.751 Y92.063 E6.11125
G1 X102.005 Y91.928 E6.15319
G1 X102.32 Y91.913 E6.16368
G1 X102.823 Y91.901 E6.18042
G1 X121.945 Y91.901 E6.81642
G1 X122.643 Y91.911 E6.83964
G1 X123.562 Y91.964 E6.87025
G1 X124.473 Y92.097 E6.90087
G1 X125.369 Y92.308 E6.93149
G1 X126.243 Y92.596 E6.9621
G1 X127.09 Y92.959 E6.99275
G1 X127.901 Y93.394 E7.02336
G1 X128.671 Y93.898 E7.05396
G1 X129.395 Y94.467 E7.08459
G1 X130.286 Y95.327 E7.12578
G1 X130.818 Y95.908 E7.15198
G1 X131.837 Y97.064 E7.20323
G1 X133.548 Y98.899 E7.28668
G1 X135.32 Y100.692 E7.37053
G1 X137.157 Y102.449 E7.45507
G1 X139.057 Y104.168 E7.54029
G1 X139.495 Y104.554 E7.55971
G1 X140.158 Y105.192 E7.59031
G1 X140.764 Y105.885 E7.62093
G1 X141.307 Y106.629 E7.65157
G1 X141.784 Y107.416 E7.68218
G1 X142.191 Y108.242 E7.7128
G1 X142.524 Y109.101 E7.74345
G1 X142.782 Y109.984 E7.77404
G1 X142.962 Y110.887 E7.80467
G1 X143.081 Y112.181 E7.84789
G1 X143.096 Y112.83 E7.86948
G1 X143.099 Y131.951 E8.50545
G1 X143.09 Y132.614 E8.5275
G1 X143.038 Y133.533 E8.55811
G1 X142.906 Y134.444 E8.58873
G1 X142.695 Y135.34 E8.61935
G1 X142.407 Y136.215 E8.64999
G1 X142.045 Y137.061 E8.68059
G1 X141.611 Y137.873 E8.71121
G1 X141.107 Y138.644 E8.74185
G1 X140.539 Y139.368 E8.77246
G1 X139.91 Y140.041 E8.8031
G1 X139.225 Y140.656 E8.83371
G1 X138.49 Y141.209 E8.86431
G1 X137.709 Y141.697 E8.89494
G1 X136.888 Y142.115 E8.92558
G1 X136.035 Y142.46 E8.95618
G1 X135.155 Y142.73 E8.9868
G1 X134.254 Y142.922 E9.01744
G1 X133.463 Y143.025 E9.04397
G1 X133.148 Y143.054 E9.05449
G1 X132.177 Y143.099 E9.08682
G1 X113.055 Y143.099 E9.72282
G1 X112.357 Y143.089 E9.74604
G1 X111.438 Y143.036 E9.77666
G1 X110.527 Y142.903 E9.80728
G1 X109.631 Y142.692 E9.83789
G1 X108.757 Y142.404 E9.8685
G1 X107.91 Y142.041 E9.89915
G1 X107.099 Y141.606 E9.92976
G1 X106.329 Y141.102 E9.96037
G1 X105.605 Y140.533 E9.99099
G1 X104.708 Y139.666 E10.03249
G1 X104.154 Y139.061 E10.05977
G1 X103.158 Y137.931 E10.10987
G1 X101.451 Y136.1 E10.19313
G1 X99.68 Y134.308 E10.27693
G1 X97.842 Y132.55 E10.36152
G1 X95.934 Y130.824 E10.44709
G1 X95.512 Y130.453 E10.46578
G1 X94.848 Y129.816 E10.49639
G1 X94.242 Y129.123 E10.52701
G1 X93.698 Y128.38 E10.55763
G1 X93.22 Y127.593 E10.58826
G1 X92.813 Y126.767 E10.61889
G1 X92.478 Y125.91 E10.64949
G1 X92.22 Y125.026 E10.68012
G1 X92.039 Y124.123 E10.71075
G1 X91.917 Y122.787 E10.75537
G1 X91.904 Y122.17 E10.7759
G1 X91.901 Y103.004 E11.41336
G1 X91.91 Y102.366 E11.43458
G1 X91.963 Y101.447 E11.4652
G1 X92.096 Y100.536 E11.49582
G1 X92.307 Y99.64 E11.52644
G1 X92.595 Y98.766 E11.55704
G1 X92.957 Y97.92 E11.58765
G1 X93.392 Y97.108 E11.61829
G1 X93.896 Y96.337 E11.64892
G1 X94.465 Y95.613 E11.67955
G1 X95.094 Y94.941 E11.71017
G0 F6000 X95.485 Y95.12
G1 F1200 X96.167 Y94.527 E11.74023
G1 X96.898 Y93.998 E11.77024
G1 X97.674 Y93.535 E11.80029
G1 X98.487 Y93.142 E11.83033
G1 X99.332 Y92.823 E11.86037
G1 X100.202 Y92.58 E11.89041
G1 X101.09 Y92.415 E11.92045
G1 X102.024 Y92.328 E11.95165
G1 X102.339 Y92.313 E11.96214
G1 X102.823 Y92.301 E11.97824
G1 X121.939 Y92.301 E12.61404
G1 X122.637 Y92.311 E12.63726
G1 X123.539 Y92.364 E12.66731
G1 X124.432 Y92.496 E12.69734
G1 X125.31 Y92.707 E12.72737
G1 X126.166 Y92.995 E12.75741
G1 X126.993 Y93.357 E12.78744
G1 X127.785 Y93.792 E12.81749
G1 X128.536 Y94.294 E12.84753
G1 X129.239 Y94.861 E12.87757
G1 X129.992 Y95.598 E12.91262
G1 X130.518 Y96.173 E12.93854
G1 X131.528 Y97.319 E12.98934
G1 X133.255 Y99.17 E13.07354
G1 X135.06 Y100.997 E13.15896
G1 X136.878 Y102.735 E13.24262
G1 X138.804 Y104.479 E13.32904
G1 X139.23 Y104.854 E13.34791
G1 X139.881 Y105.481 E13.37797
G1 X140.473 Y106.162 E13.40799
G1 X141.003 Y106.894 E13.43804
G1 X141.466 Y107.669 E13.46807
G1 X141.859 Y108.482 E13.4981
G1 X142.178 Y109.327 E13.52815
G1 X142.421 Y110.197 E13.55819
G1 X142.586 Y111.085 E13.58823
G1 X142.681 Y112.193 E13.62522
G1 X142.696 Y112.83 E13.64641
G1 X142.699 Y131.945 E14.28218
G1 X142.69 Y132.608 E14.30423
G1 X142.638 Y133.51 E14.33428
G1 X142.506 Y134.403 E14.36431
G1 X142.296 Y135.282 E14.39436
G1 X142.009 Y136.138 E14.42439
G1 X141.647 Y136.965 E14.45442
G1 X141.213 Y137.758 E14.48449
G1 X140.711 Y138.509 E14.51453
G1 X140.145 Y139.212 E14.54455
G1 X139.519 Y139.863 E14.57459
G1 X138.837 Y140.455 E14.60462
G1 X138.106 Y140.985 E14.63466
G1 X137.331 Y141.449 E14.6647
G1 X136.518 Y141.842 E14.69473
G1 X135.673 Y142.161 E14.72477
G1 X134.803 Y142.404 E14.75482
G1 X133.916 Y142.57 E14.78483
G1 X133.426 Y142.627 E14.80124
G1 X133.111 Y142.656 E14.81176
G1 X132.177 Y142.699 E14.84286
G1 X113.061 Y142.699 E15.47866
G1 X112.363 Y142.689 E15.50188
G1 X111.461 Y142.636 E15.53193
G1 X110.568 Y142.504 E15.56195
G1 X109.69 Y142.293 E15.59199
G1 X108.834 Y142.005 E15.62203
G1 X108.007 Y141.643 E15.65205
G1 X107.215 Y141.208 E15.68211
G1 X106.464 Y140.706 E15.71215
G1 X105.761 Y140.139 E15.74219
G1 X105.002 Y139.396 E15.77752
G1 X104.454 Y138.797 E15.80452
G1 X103.467 Y137.677 E15.85417
G1 X101.728 Y135.812 E15.93898
G1 X99.94 Y134.003 E16.02358
G1 X98.122 Y132.264 E16.10726
G1 X96.234 Y130.555 E16.19196
G1 X95.776 Y130.153 E16.21223
G1 X95.125 Y129.527 E16.24226
G1 X94.532 Y128.846 E16.2723
G1 X94.002 Y128.115 E16.30233
G1 X93.538 Y127.34 E16.33237
G1 X93.144 Y126.527 E16.36242
G1 X92.824 Y125.683 E16.39244
G1 X92.58 Y124.813 E16.4225
G1 X92.414 Y123.926 E16.45251
G1 X92.317 Y122.775 E16.49093
G1 X92.304 Y122.17 E16.51105
G1 X92.301 Y103.01 E17.14832
G1 X92.31 Y102.372 E17.16954
G1 X92.363 Y101.471 E17.19956
G1 X92.495 Y100.577 E17.22962
G1 X92.706 Y99.699 E17.25965
G1 X92.993 Y98.843 E17.28968
G1 X93.355 Y98.016 E17.31971
G1 X93.789 Y97.224 E17.34974
G1 X94.292 Y96.473 E17.37981
G1 X94.858 Y95.77 E17.40982
G1 X95.485 Y95.12 E17.43986
G1 F2700 E12.93986
;MESH:Object 1
G0 F6000 X102.82 Y101.835
G0 X102.82 Y102.82
G0 X102.886 Y122.118
G0 X112.828 Y122.172
G0 X112.84 Y132.16
G0 X112.7 Y132.3
;TYPE:WALL-OUTER
G1 F2700 E17.43986
G1 F1200 X112.7 Y122.3 E17.77246
G1 X102.704 Y122.3 E18.10493
G1 X102.7 Y102.7 E18.75683
G1 X122.3 Y102.7 E19.40873
G1 X122.3 Y112.7 E19.74133
G1 X132.296 Y112.7 E20.0738
G1 X132.3 Y132.3 E20.7257
G1 X112.7 Y132.3 E21.3776
G0 F6000 X113.09 Y131.91
;TYPE:SKIN
G1 F1200 X113.09 Y121.91 E21.7102
G1 X103.094 Y121.91 E22.04267
G1 X103.09 Y103.09 E22.66862
G1 X121.91 Y103.09 E23.29458
G1 X121.91 Y113.09 E23.62718
G1 X131.906 Y113.09 E23.95965
G1 X131.91 Y131.91 E24.5856
G1 X113.09 Y131.91 E25.21156
G0 F6000 X113.647 Y131.749
G1 F1200 X113.25 Y131.352 E25.23023
G0 F6000 X113.25 Y130.786
G1 F1200 X114.213 Y131.749 E25.27553
G0 F6000 X114.778 Y131.749
G1 F1200 X113.25 Y130.22 E25.34743
G0 F6000 X113.25 Y129.655
G1 F1200 X115.344 Y131.749 E25.44592
G0 F6000 X115.91 Y131.749
G1 F1200 X113.25 Y129.089 E25.57104
G0 F6000 X113.25 Y128.523
G1 F1200 X116.476 Y131.749 E25.72278
G0 F6000 X117.041 Y131.749
G1 F1200 X113.25 Y127.958 E25.9011
G0 F6000 X113.25 Y127.392
G1 F1200 X117.607 Y131.749 E26.10604
G0 F6000 X118.173 Y131.749
G1 F1200 X113.25 Y126.826 E26.3376
G0 F6000 X113.25 Y126.26
G1 F1200 X118.738 Y131.749 E26.59576
G0 F6000 X119.304 Y131.749
G1 F1200 X113.25 Y125.695 E26.88052
G0 F6000 X113.25 Y125.129
G1 F1200 X119.87 Y131.749 E27.19191
G0 F6000 X120.435 Y131.749
G1 F1200 X113.25 Y124.563 E27.52989
G0 F6000 X113.25 Y123.998
G1 F1200 X121.001 Y131.749 E27.89448
G0 F6000 X121.567 Y131.749
G1 F1200 X113.25 Y123.432 E28.28568
G0 F6000 X113.25 Y122.866
G1 F1200 X122.132 Y131.749 E28.70349
G0 F6000 X122.698 Y131.749
G1 F1200 X113.25 Y122.301 E29.14789
G0 F6000 X112.697 Y121.748
G1 F1200 X103.251 Y112.301 E29.59223
G0 F6000 X103.251 Y111.736
G1 F1200 X123.264 Y131.749 E30.53358
G0 F6000 X123.829 Y131.749
G1 F1200 X103.251 Y111.17 E31.50153
G0 F6000 X103.251 Y110.604
G1 F1200 X124.395 Y131.749 E32.4961
G0 F6000 X124.961 Y131.749
G1 F1200 X103.251 Y110.039 E33.51727
G0 F6000 X103.251 Y109.473
G1 F1200 X125.527 Y131.749 E34.56507
G0 F6000 X126.092 Y131.749
G1 F1200 X103.25 Y108.907 E35.63948
G0 F6000 X103.25 Y108.341
G1 F1200 X126.658 Y131.749 E36.74052
G0 F6000 X127.224 Y131.749
G1 F1200 X103.25 Y107.775 E37.86819
G0 F6000 X103.25 Y107.21
G1 F1200 X127.789 Y131.749 E39.02243
G0 F6000 X128.355 Y131.749
G1 F1200 X103.25 Y106.644 E40.20329
G0 F6000 X103.249 Y106.078
G1 F1200 X128.921 Y131.749 E41.4108
G0 F6000 X129.486 Y131.749
G1 F1200 X103.249 Y105.512 E42.6449
G0 F6000 X103.249 Y104.946
G1 F1200 X130.052 Y131.749 E43.90564
G0 F6000 X130.618 Y131.749
G1 F1200 X103.249 Y104.38 E45.19299
G0 F6000 X103.249 Y103.815
G1 F1200 X131.183 Y131.749 E46.50692
G0 F6000 X131.749 Y131.749
G1 F1200 X103.249 Y103.249 E47.84747
G0 F6000 X103.816 Y103.25
G1 F1200 X131.749 Y131.183 E49.16135
G0 F6000 X131.749 Y130.618
G1 F1200 X104.381 Y103.25 E50.44866
G0 F6000 X104.947 Y103.25
G1 F1200 X131.749 Y130.052 E51.70935
G0 F6000 X131.749 Y129.486
G1 F1200 X105.513 Y103.25 E52.94341
G0 F6000 X106.078 Y103.25
G1 F1200 X131.749 Y128.921 E54.15089
G0 F6000 X131.748 Y128.354
G1 F1200 X106.644 Y103.25 E55.33171
G0 F6000 X107.21 Y103.25
G1 F1200 X131.748 Y127.789 E56.48592
G0 F6000 X131.748 Y127.223
G1 F1200 X107.775 Y103.25 E57.61354
G0 F6000 X108.341 Y103.25
G1 F1200 X131.748 Y126.657 E58.71453
G0 F6000 X131.748 Y126.091
G1 F1200 X108.907 Y103.25 E59.7889
G0 F6000 X109.472 Y103.25
G1 F1200 X131.748 Y125.525 E60.83667
G0 F6000 X131.748 Y124.959
G1 F1200 X110.038 Y103.25 E61.85782
G0 F6000 X110.604 Y103.25
G1 F1200 X131.748 Y124.394 E62.85237
G0 F6000 X131.748 Y123.828
G1 F1200 X111.169 Y103.25 E63.82032
G0 F6000 X111.735 Y103.25
G1 F1200 X131.748 Y123.262 E64.76165
G0 F6000 X131.748 Y122.697
G1 F1200 X122.301 Y113.25 E65.20601
G0 F6000 X122.866 Y113.25
G1 F1200 X131.747 Y122.13 E65.62372
G0 F6000 X131.747 Y121.565
G1 F1200 X123.432 Y113.25 E66.01483
G0 F6000 X123.998 Y113.25
G1 F1200 X131.747 Y120.999 E66.37932
G0 F6000 X131.747 Y120.433
G1 F1200 X124.563 Y113.25 E66.71721
G0 F6000 X125.129 Y113.25
G1 F1200 X131.747 Y119.868 E67.0285
G0 F6000 X131.746 Y119.301
G1 F1200 X125.695 Y113.25 E67.31312
G0 F6000 X126.26 Y113.25
G1 F1200 X131.746 Y118.735 E67.57114
G0 F6000 X131.746 Y118.17
G1 F1200 X126.826 Y113.25 E67.80256
G0 F6000 X127.392 Y113.25
G1 F1200 X131.746 Y117.604 E68.00736
G0 F6000 X131.746 Y117.038
G1 F1200 X127.958 Y113.25 E68.18554
G0 F6000 X128.523 Y113.25
G1 F1200 X131.746 Y116.473 E68.33714
G0 F6000 X131.746 Y115.906
G1 F1200 X129.089 Y113.25 E68.46209
G0 F6000 X129.655 Y113.25
G1 F1200 X131.746 Y115.341 E68.56044
G0 F6000 X131.746 Y114.775
G1 F1200 X130.22 Y113.25 E68.6322
G0 F6000 X130.786 Y113.25
G1 F1200 X131.746 Y114.209 E68.67733
G0 F6000 X131.746 Y113.644
G1 F1200 X131.352 Y113.25 E68.69586
G0 F6000 X131.352 Y112.81
G0 X122.172 Y112.828
G0 X122.19 Y112.698
G0 X121.749 Y112.698
G1 F1200 X112.301 Y103.25 E69.14027
G0 F6000 X112.866 Y103.25
G1 F1200 X121.749 Y112.132 E69.55807
G0 F6000 X121.749 Y111.567
G1 F1200 X113.432 Y103.25 E69.94928
G0 F6000 X113.998 Y103.25
G1 F1200 X121.749 Y111.001 E70.31386
G0 F6000 X121.749 Y110.435
G1 F1200 X114.564 Y103.25 E70.65182
G0 F6000 X115.129 Y103.25
G1 F1200 X121.749 Y109.87 E70.96321
G0 F6000 X121.749 Y109.304
G1 F1200 X115.695 Y103.25 E71.24797
G0 F6000 X116.261 Y103.25
G1 F1200 X121.749 Y108.738 E71.50611
G0 F6000 X121.749 Y108.173
G1 F1200 X116.826 Y103.25 E71.73767
G0 F6000 X117.392 Y103.25
G1 F1200 X121.749 Y107.607 E71.94261
G0 F6000 X121.749 Y107.041
G1 F1200 X117.958 Y103.25 E72.12093
G0 F6000 X118.523 Y103.25
G1 F1200 X121.749 Y106.476 E72.27267
G0 F6000 X121.749 Y105.91
G1 F1200 X119.089 Y103.25 E72.39779
G0 F6000 X119.655 Y103.25
G1 F1200 X121.749 Y105.344 E72.49628
G0 F6000 X121.749 Y104.779
G1 F1200 X120.22 Y103.25 E72.5682
G0 F6000 X120.786 Y103.25
G1 F1200 X121.749 Y104.213 E72.6135
G0 F6000 X121.749 Y103.647
G1 F1200 X121.352 Y103.25 E72.63217
G0 F6000 X121.352 Y102.81
G0 X102.882 Y102.882
G0 X102.812 Y112.868
G0 X103.251 Y112.868
