;FLAVOR:Marlin
;TIME:3444
;Filament used: 1.89421m
;Layer height: 0.2
;MINX:82.66
;MINY:90.772
;MINZ:0.2
;MAXX:151.261
;MAXY:168.195
;MAXZ:20
;Generated with Cura_SteamEngine 4.4.1
M140 S60
M105
M190 S60
M104 S235
M105
M109 S235
M82 ;absolute extrusion mode
M201 X500.00 Y500.00 Z100.00 E5000.00 ;Setup machine max acceleration
M203 X500.00 Y500.00 Z10.00 E50.00 ;Setup machine max feedrate
M204 P500.00 R1000.00 T500.00 ;Setup Print/Retract/Travel acceleration
M205 X8.00 Y8.00 Z0.40 E5.00 ;Setup Jerk
M220 S100 ;Reset Feedrate
M221 S100 ;Reset Flowrate

G28 ;Home

G92 E0 ;Reset Extruder
G1 Z2.0 F3000 ;Move Z Axis up
G1 X10.1 Y20 Z0.28 F5000.0 ;Move to start position
G1 X10.1 Y200.0 Z0.28 F1500.0 E15 ;Draw the first line
G1 X10.4 Y200.0 Z0.28 F5000.0 ;Move to side a little
G1 X10.4 Y20 Z0.28 F1500.0 E30 ;Draw the second line
G92 E0 ;Reset Extruder
G1 Z2.0 F3000 ;Move Z Axis up

G92 E0
G92 E0
G1 F1500 E-6.5
;LAYER_COUNT:100
;LAYER:0
M107
G0 F6000 X87.773 Y95.065 Z0.2
;TYPE:SKIRT
G1 F1500 E0
G1 F1200 X88.164 Y94.716 E0.01743
G1 X88.501 Y94.43 E0.03213
G1 X89.236 Y93.859 E0.06309
G1 X89.403 Y93.74 E0.06991
G1 X89.78 Y93.482 E0.0851
G1 X90.159 Y93.235 E0.10015
G1 X90.986 Y92.747 E0.13209
G1 X91.164 Y92.652 E0.1388
G1 X91.61 Y92.426 E0.15543
G1 X91.996 Y92.242 E0.16965
G1 X92.784 Y91.904 E0.19817
G1 X92.987 Y91.826 E0.2054
G1 X93.548 Y91.627 E0.2252
G1 X93.981 Y91.487 E0.24034
G1 X94.839 Y91.248 E0.26996
G1 X95.034 Y91.202 E0.27662
G1 X95.53 Y91.097 E0.29349
G1 X95.972 Y91.014 E0.30844
G1 X96.974 Y90.873 E0.3421
G1 X97.187 Y90.853 E0.34921
G1 X97.637 Y90.82 E0.36422
G1 X97.846 Y90.809 E0.37118
G1 X98.222 Y90.796 E0.3837
G1 X99.417 Y90.774 E0.42345
G1 X99.619 Y90.772 E0.43017
G1 X125.594 Y90.772 E1.2941
G1 X125.747 Y90.773 E1.29919
G1 X126.466 Y90.783 E1.3231
G1 X127.402 Y90.836 E1.35429
G1 X128.331 Y90.969 E1.3855
G1 X129.245 Y91.18 E1.4167
G1 X130.137 Y91.468 E1.44788
G1 X131.002 Y91.831 E1.47908
G1 X131.832 Y92.267 E1.51026
G1 X132.623 Y92.772 E1.54147
G1 X133.367 Y93.342 E1.57265
G1 X134.061 Y93.973 E1.60384
G1 X134.698 Y94.662 E1.63505
G1 X135.274 Y95.402 E1.66624
G1 X135.785 Y96.188 E1.69742
G1 X136.181 Y96.921 E1.72513
G1 X136.483 Y97.534 E1.74786
G1 X136.675 Y97.946 E1.76298
G1 X137.153 Y99.026 E1.80226
G1 X138.248 Y101.326 E1.88699
G1 X139.39 Y103.561 E1.97047
G1 X140.6 Y105.77 E2.05424
G1 X141.872 Y107.944 E2.13801
G1 X143.205 Y110.083 E2.22184
G1 X144.594 Y112.177 E2.30542
G1 X146.035 Y114.222 E2.38862
G1 X147.623 Y116.342 E2.47672
G1 X148.375 Y117.317 E2.51768
G1 X148.949 Y118.136 E2.55094
G1 X149.191 Y118.517 E2.56595
G1 X149.66 Y119.33 E2.59717
G1 X149.87 Y119.755 E2.61294
G1 X149.964 Y119.956 E2.62032
G1 X150.267 Y120.667 E2.64602
G1 X150.372 Y120.94 E2.65575
G1 X150.671 Y121.829 E2.68695
G1 X150.878 Y122.666 E2.71562
G1 X150.988 Y123.199 E2.73373
G1 X151.138 Y124.124 E2.76489
G1 X151.185 Y124.609 E2.7811
G1 X151.224 Y125.135 E2.79864
G1 X151.253 Y125.829 E2.82174
G1 X151.258 Y126.292 E2.83715
G1 X151.259 Y126.406 E2.84094
G1 X151.261 Y131.199 E3.00035
G1 X151.261 Y131.207 E3.00062
G1 X151.259 Y139.209 E3.26677
G1 X151.258 Y139.36 E3.27179
G1 X151.25 Y139.932 E3.29082
G1 X151.22 Y140.598 E3.31299
G1 X151.204 Y140.812 E3.32013
G1 X151.138 Y141.448 E3.34139
G1 X150.985 Y142.592 E3.37978
G1 X150.675 Y145.184 E3.46661
G1 X150.451 Y147.662 E3.54936
G1 X150.293 Y150.198 E3.63387
G1 X150.205 Y152.768 E3.7194
G1 X150.188 Y154.477 E3.77625
G1 X150.188 Y156.436 E3.8414
G1 X150.187 Y156.589 E3.84649
G1 X150.177 Y157.306 E3.87034
G1 X150.124 Y158.243 E3.90156
G1 X149.991 Y159.171 E3.93274
G1 X149.78 Y160.085 E3.96394
G1 X149.492 Y160.977 E3.99511
G1 X149.128 Y161.842 E4.02633
G1 X148.693 Y162.673 E4.05752
G1 X148.188 Y163.463 E4.08871
G1 X147.618 Y164.208 E4.11991
G1 X146.986 Y164.901 E4.1511
G1 X146.298 Y165.538 E4.18229
G1 X145.558 Y166.114 E4.21348
G1 X144.771 Y166.625 E4.24469
G1 X143.944 Y167.067 E4.27587
G1 X143.082 Y167.437 E4.30707
G1 X142.192 Y167.732 E4.33826
G1 X141.28 Y167.95 E4.36945
G1 X140.352 Y168.09 E4.40066
G1 X139.738 Y168.139 E4.42115
G1 X139.169 Y168.168 E4.4401
G1 X138.779 Y168.181 E4.45308
G1 X137.937 Y168.194 E4.48109
G1 X137.767 Y168.195 E4.48674
G1 X107.448 Y168.195 E5.49515
G1 X107.297 Y168.194 E5.50018
G1 X106.497 Y168.183 E5.52679
G1 X105.712 Y168.144 E5.55293
G1 X105.396 Y168.117 E5.56348
G1 X104.465 Y167.997 E5.5947
G1 X103.939 Y167.893 E5.61253
G1 X103.459 Y167.786 E5.62889
G1 X102.127 Y167.4 E5.67501
G1 X101.863 Y167.305 E5.68435
G1 X100.995 Y166.95 E5.71554
G1 X100.272 Y166.585 E5.74247
G1 X99.801 Y166.325 E5.76037
G1 X98.743 Y165.66 E5.80193
G1 X98.435 Y165.441 E5.8145
G1 X97.694 Y164.865 E5.84572
G1 X96.911 Y164.132 E5.88139
G1 X96.5 Y163.708 E5.90103
G1 X95.876 Y163.008 E5.93222
G1 X95.156 Y162.017 E5.97296
G1 X94.903 Y161.625 E5.98848
G1 X94.301 Y160.569 E6.02891
G1 X94.113 Y160.192 E6.04292
G1 X93.577 Y158.923 E6.08874
G1 X93.496 Y158.692 E6.09688
G1 X93.223 Y157.794 E6.1281
G1 X93.077 Y157.145 E6.15022
G1 X92.965 Y156.567 E6.1698
G1 X92.826 Y155.639 E6.20101
G1 X92.777 Y155.003 E6.22223
G1 X92.646 Y152.281 E6.31287
G1 X92.455 Y149.75 E6.39729
G1 X92.192 Y147.223 E6.48179
G1 X91.864 Y144.754 E6.56463
G1 X91.462 Y142.266 E6.64846
G1 X90.994 Y139.812 E6.73155
G1 X90.446 Y137.327 E6.81619
G1 X89.843 Y134.911 E6.89901
G1 X89.16 Y132.476 E6.98312
G1 X88.403 Y130.046 E7.06777
G1 X87.599 Y127.697 E7.15035
G1 X86.703 Y125.305 E7.23531
G1 X85.768 Y123.007 E7.31782
G1 X84.737 Y120.667 E7.40287
G1 X84.138 Y119.384 E7.44997
G1 X83.957 Y118.974 E7.46487
G1 X83.832 Y118.675 E7.47565
G1 X83.513 Y117.81 E7.50632
G1 X83.371 Y117.37 E7.52169
G1 X83.122 Y116.473 E7.55266
G1 X83.075 Y116.27 E7.55959
G1 X82.98 Y115.816 E7.57501
G1 X82.899 Y115.384 E7.58963
G1 X82.736 Y114.101 E7.63265
G1 X82.705 Y113.644 E7.64788
G1 X82.682 Y113.096 E7.66613
G1 X82.662 Y111.976 E7.70338
G1 X82.66 Y111.78 E7.7099
G1 X82.66 Y107.479 E7.85295
G1 X82.661 Y107.324 E7.85811
G1 X82.668 Y106.827 E7.87464
G1 X82.679 Y106.467 E7.88662
G1 X82.711 Y105.784 E7.90936
G1 X82.784 Y104.935 E7.93771
G1 X82.833 Y104.543 E7.95084
G1 X82.988 Y103.621 E7.98194
G1 X83.073 Y103.221 E7.99554
G1 X83.287 Y102.379 E8.02444
G1 X83.349 Y102.17 E8.03169
G1 X83.527 Y101.622 E8.05085
G1 X83.683 Y101.182 E8.06638
G1 X84.054 Y100.269 E8.09916
G1 X84.138 Y100.086 E8.10585
G1 X84.327 Y99.694 E8.12033
G1 X84.522 Y99.31 E8.13465
G1 X84.953 Y98.54 E8.164
G1 X85.064 Y98.359 E8.17106
G1 X85.392 Y97.856 E8.19104
G1 X85.647 Y97.487 E8.20595
G1 X86.213 Y96.738 E8.23718
G1 X86.355 Y96.566 E8.2446
G1 X86.667 Y96.205 E8.26047
G1 X86.959 Y95.881 E8.27497
G1 X87.621 Y95.207 E8.3064
G1 X87.773 Y95.065 E8.31332
G0 F6000 X88.046 Y95.357
G1 F1200 X88.423 Y95.021 E8.33011
G1 X88.76 Y94.735 E8.34481
G1 X89.468 Y94.184 E8.37465
G1 X89.635 Y94.065 E8.38147
G1 X89.998 Y93.817 E8.39609
G1 X90.377 Y93.57 E8.41114
G1 X91.174 Y93.1 E8.44191
G1 X91.352 Y93.005 E8.44863
G1 X91.782 Y92.788 E8.46465
G1 X92.168 Y92.604 E8.47887
G1 X92.927 Y92.277 E8.50636
G1 X93.13 Y92.199 E8.51359
G1 X93.671 Y92.008 E8.53267
G1 X94.104 Y91.868 E8.54781
G1 X94.931 Y91.637 E8.57637
G1 X95.126 Y91.591 E8.58303
G1 X95.604 Y91.49 E8.59928
G1 X96.046 Y91.407 E8.61424
G1 X97.011 Y91.271 E8.64665
G1 X97.224 Y91.251 E8.65377
G1 X97.658 Y91.22 E8.66824
G1 X97.867 Y91.209 E8.6752
G1 X98.229 Y91.196 E8.68725
G1 X99.424 Y91.174 E8.727
G1 X99.619 Y91.172 E8.73348
G1 X125.594 Y91.172 E9.59742
G1 X125.741 Y91.173 E9.60231
G1 X126.46 Y91.183 E9.62622
G1 X127.38 Y91.236 E9.65687
G1 X128.291 Y91.368 E9.68749
G1 X129.187 Y91.579 E9.7181
G1 X130.061 Y91.867 E9.74871
G1 X130.908 Y92.229 E9.77935
G1 X131.719 Y92.664 E9.80996
G1 X132.49 Y93.168 E9.84059
G1 X133.214 Y93.736 E9.8712
G1 X133.886 Y94.365 E9.90181
G1 X134.501 Y95.05 E9.93243
G1 X135.054 Y95.786 E9.96305
G1 X135.542 Y96.567 E9.99368
G1 X135.822 Y97.097 E10.01362
G1 X136.124 Y97.71 E10.03635
G1 X136.309 Y98.108 E10.05095
G1 X136.784 Y99.181 E10.08997
G1 X137.888 Y101.502 E10.17546
G1 X139.04 Y103.756 E10.25965
G1 X140.262 Y105.985 E10.3442
G1 X141.505 Y108.11 E10.42608
G1 X142.875 Y110.309 E10.51225
G1 X144.267 Y112.407 E10.59599
G1 X145.716 Y114.463 E10.67965
G1 X147.306 Y116.585 E10.76785
G1 X148.058 Y117.561 E10.80883
G1 X148.612 Y118.351 E10.84092
G1 X148.854 Y118.732 E10.85593
G1 X149.508 Y119.925 E10.90118
G1 X149.602 Y120.126 E10.90856
G1 X149.893 Y120.811 E10.93331
G1 X149.998 Y121.084 E10.94304
G1 X150.291 Y121.957 E10.97367
G1 X150.486 Y122.747 E11.00073
G1 X150.596 Y123.28 E11.01884
G1 X150.786 Y124.638 E11.06444
G1 X150.825 Y125.164 E11.08199
G1 X150.853 Y125.834 E11.10429
G1 X150.858 Y126.297 E11.11969
G1 X150.859 Y126.407 E11.12335
G1 X150.861 Y131.2 E11.28276
G1 X150.861 Y131.207 E11.283
G1 X150.859 Y139.209 E11.54915
G1 X150.858 Y139.354 E11.55397
G1 X150.85 Y139.926 E11.57299
G1 X150.821 Y140.568 E11.59437
G1 X150.805 Y140.782 E11.60151
G1 X150.742 Y141.395 E11.622
G1 X150.585 Y142.568 E11.66136
G1 X150.278 Y145.133 E11.74729
G1 X150.049 Y147.673 E11.83211
G1 X149.894 Y150.159 E11.91495
G1 X149.805 Y152.751 E12.00122
G1 X149.788 Y154.477 E12.05863
G1 X149.788 Y156.436 E12.12378
G1 X149.787 Y156.584 E12.1287
G1 X149.777 Y157.301 E12.15255
G1 X149.724 Y158.22 E12.18317
G1 X149.592 Y159.131 E12.21379
G1 X149.381 Y160.027 E12.2444
G1 X149.093 Y160.902 E12.27504
G1 X148.73 Y161.748 E12.30566
G1 X148.296 Y162.559 E12.33625
G1 X147.792 Y163.33 E12.36689
G1 X147.224 Y164.054 E12.3975
G1 X146.594 Y164.726 E12.42813
G1 X145.909 Y165.341 E12.45875
G1 X145.173 Y165.895 E12.48939
G1 X144.392 Y166.382 E12.52
G1 X143.572 Y166.8 E12.55062
G1 X142.718 Y167.144 E12.58124
G1 X141.838 Y167.414 E12.61185
G1 X140.937 Y167.606 E12.6425
G1 X139.718 Y167.739 E12.68328
G1 X139.149 Y167.768 E12.70223
G1 X138.773 Y167.781 E12.71474
G1 X137.931 Y167.794 E12.74275
G1 X137.767 Y167.795 E12.74821
G1 X107.448 Y167.795 E13.75662
G1 X107.302 Y167.794 E13.76148
G1 X106.502 Y167.783 E13.78809
G1 X105.746 Y167.746 E13.81326
G1 X105.43 Y167.719 E13.82381
G1 X104.517 Y167.6 E13.85443
G1 X104.026 Y167.503 E13.87108
G1 X103.546 Y167.396 E13.88744
G1 X102.263 Y167.024 E13.93187
G1 X101.999 Y166.929 E13.9412
G1 X101.147 Y166.58 E13.97182
G1 X100.465 Y166.235 E13.99724
G1 X99.994 Y165.975 E14.01514
G1 X98.974 Y165.334 E14.0552
G1 X98.666 Y165.115 E14.06777
G1 X97.94 Y164.549 E14.09839
G1 X97.198 Y163.854 E14.13221
G1 X96.787 Y163.43 E14.15185
G1 X96.175 Y162.741 E14.1825
G1 X95.492 Y161.8 E14.22117
G1 X95.239 Y161.408 E14.23669
G1 X94.659 Y160.39 E14.27566
G1 X94.471 Y160.013 E14.28967
G1 X93.954 Y158.791 E14.3338
G1 X93.873 Y158.56 E14.34194
G1 X93.607 Y157.678 E14.37258
G1 X93.47 Y157.068 E14.39338
G1 X93.358 Y156.49 E14.41296
G1 X93.222 Y155.58 E14.44356
G1 X93.176 Y154.983 E14.46348
G1 X93.044 Y152.234 E14.55501
G1 X92.853 Y149.711 E14.63917
G1 X92.592 Y147.2 E14.72314
G1 X92.257 Y144.674 E14.80789
G1 X91.857 Y142.199 E14.89127
G1 X91.383 Y139.716 E14.97535
G1 X90.841 Y137.257 E15.0591
G1 X90.228 Y134.802 E15.14326
G1 X89.544 Y132.364 E15.22748
G1 X88.791 Y129.945 E15.31174
G1 X87.965 Y127.533 E15.39654
G1 X87.089 Y125.194 E15.47961
G1 X86.132 Y122.842 E15.56407
G1 X85.085 Y120.465 E15.65046
G1 X84.501 Y119.214 E15.69638
G1 X84.326 Y118.82 E15.71071
G1 X84.201 Y118.521 E15.72149
G1 X83.893 Y117.688 E15.75103
G1 X83.751 Y117.248 E15.76641
G1 X83.512 Y116.383 E15.79626
G1 X83.465 Y116.18 E15.80319
G1 X83.374 Y115.742 E15.81807
G1 X83.293 Y115.31 E15.83269
G1 X83.135 Y114.074 E15.87413
G1 X83.104 Y113.617 E15.88937
G1 X83.082 Y113.089 E15.90694
G1 X83.062 Y111.969 E15.9442
G1 X83.06 Y111.78 E15.95049
G1 X83.06 Y107.479 E16.09354
G1 X83.061 Y107.33 E16.09849
G1 X83.068 Y106.833 E16.11503
G1 X83.079 Y106.486 E16.12657
G1 X83.111 Y105.803 E16.14931
G1 X83.181 Y104.984 E16.17665
G1 X83.23 Y104.592 E16.18979
G1 X83.38 Y103.704 E16.21975
G1 X83.465 Y103.304 E16.23335
G1 X83.671 Y102.492 E16.26121
G1 X83.733 Y102.283 E16.26846
G1 X83.904 Y101.756 E16.28689
G1 X84.06 Y101.316 E16.30242
G1 X84.417 Y100.436 E16.334
G1 X84.501 Y100.253 E16.3407
G1 X84.684 Y99.876 E16.35464
G1 X84.879 Y99.492 E16.36896
G1 X85.294 Y98.75 E16.39724
G1 X85.405 Y98.569 E16.4043
G1 X85.721 Y98.084 E16.42355
G1 X85.976 Y97.715 E16.43847
G1 X86.522 Y96.993 E16.46858
G1 X86.664 Y96.821 E16.476
G1 X86.964 Y96.473 E16.49128
G1 X87.256 Y96.149 E16.50579
G1 X87.894 Y95.499 E16.53608
G1 X88.046 Y95.357 E16.543
G0 F6000 X88.319 Y95.649
G1 F1200 X88.682 Y95.326 E16.55916
G1 X89.019 Y95.04 E16.57386
G1 X89.7 Y94.51 E16.60256
G1 X89.867 Y94.391 E16.60938
G1 X90.217 Y94.153 E16.62346
G1 X90.596 Y93.906 E16.63851
G1 X91.362 Y93.452 E16.66812
G1 X91.54 Y93.357 E16.67483
G1 X91.954 Y93.149 E16.69024
G1 X92.34 Y92.965 E16.70446
G1 X93.071 Y92.651 E16.73093
G1 X93.274 Y92.573 E16.73816
G1 X93.794 Y92.389 E16.7565
G1 X94.227 Y92.249 E16.77164
G1 X95.023 Y92.026 E16.79913
G1 X95.218 Y91.98 E16.8058
G1 X95.678 Y91.883 E16.82143
G1 X96.12 Y91.8 E16.83639
G1 X97.048 Y91.67 E16.86756
G1 X97.261 Y91.65 E16.87467
G1 X97.679 Y91.619 E16.88862
G1 X97.888 Y91.608 E16.89558
G1 X98.236 Y91.596 E16.90716
G1 X99.431 Y91.574 E16.94691
G1 X99.619 Y91.572 E16.95316
G1 X125.594 Y91.572 E17.8171
G1 X125.736 Y91.573 E17.82182
G1 X126.455 Y91.583 E17.84574
G1 X127.356 Y91.636 E17.87575
G1 X128.25 Y91.768 E17.90581
G1 X129.128 Y91.978 E17.93584
G1 X129.984 Y92.266 E17.96588
G1 X130.812 Y92.628 E17.99593
G1 X131.604 Y93.061 E18.02595
G1 X132.354 Y93.564 E18.05599
G1 X133.058 Y94.13 E18.08603
G1 X133.708 Y94.757 E18.11607
G1 X134.3 Y95.438 E18.14608
G1 X134.83 Y96.17 E18.17614
G1 X135.463 Y97.274 E18.21847
G1 X135.765 Y97.887 E18.2412
G1 X135.944 Y98.27 E18.25526
G1 X136.442 Y99.395 E18.29618
G1 X137.514 Y101.648 E18.37916
G1 X138.691 Y103.951 E18.46519
G1 X139.909 Y106.173 E18.54946
G1 X141.179 Y108.344 E18.63312
G1 X142.519 Y110.496 E18.71744
G1 X143.951 Y112.653 E18.80355
G1 X145.385 Y114.688 E18.88635
G1 X146.988 Y116.829 E18.97531
G1 X147.741 Y117.805 E19.01631
G1 X148.274 Y118.565 E19.04718
G1 X148.516 Y118.946 E19.0622
G1 X149.146 Y120.094 E19.10575
G1 X149.24 Y120.295 E19.11313
G1 X149.52 Y120.954 E19.13695
G1 X149.625 Y121.227 E19.14667
G1 X149.912 Y122.084 E19.17673
G1 X150.094 Y122.827 E19.20218
G1 X150.204 Y123.36 E19.22028
G1 X150.387 Y124.668 E19.26421
G1 X150.426 Y125.194 E19.28175
G1 X150.453 Y125.838 E19.30319
G1 X150.458 Y126.301 E19.31859
G1 X150.459 Y126.407 E19.32211
G1 X150.461 Y131.2 E19.48153
G1 X150.461 Y131.207 E19.48176
G1 X150.459 Y139.209 E19.74791
G1 X150.458 Y139.349 E19.75257
G1 X150.45 Y139.921 E19.77159
G1 X150.423 Y140.538 E19.79213
G1 X150.407 Y140.752 E19.79927
G1 X150.345 Y141.342 E19.819
G1 X150.199 Y142.432 E19.85558
G1 X149.877 Y145.12 E19.94562
G1 X149.652 Y147.613 E20.02888
G1 X149.493 Y150.156 E20.11362
G1 X149.406 Y152.733 E20.19938
G1 X149.388 Y154.477 E20.25739
G1 X149.388 Y156.436 E20.32255
G1 X149.387 Y156.578 E20.32727
G1 X149.377 Y157.295 E20.35112
G1 X149.324 Y158.197 E20.38117
G1 X149.192 Y159.09 E20.4112
G1 X148.982 Y159.968 E20.44122
G1 X148.694 Y160.825 E20.47129
G1 X148.332 Y161.652 E20.50132
G1 X147.898 Y162.444 E20.53136
G1 X147.396 Y163.195 E20.5614
G1 X146.83 Y163.898 E20.59142
G1 X146.203 Y164.548 E20.62146
G1 X145.521 Y165.141 E20.65152
G1 X144.79 Y165.67 E20.68153
G1 X144.015 Y166.133 E20.71156
G1 X143.201 Y166.526 E20.74162
G1 X142.356 Y166.845 E20.77166
G1 X141.487 Y167.088 E20.80167
G1 X140.599 Y167.254 E20.83172
G1 X139.697 Y167.34 E20.86186
G1 X139.128 Y167.369 E20.88081
G1 X138.766 Y167.381 E20.89285
G1 X137.924 Y167.394 E20.92086
G1 X137.767 Y167.395 E20.92608
G1 X107.448 Y167.395 E21.9345
G1 X107.308 Y167.394 E21.93915
G1 X106.508 Y167.383 E21.96576
G1 X105.78 Y167.347 E21.99001
G1 X105.464 Y167.32 E22.00056
G1 X104.568 Y167.203 E22.03061
G1 X104.113 Y167.113 E22.04604
G1 X103.633 Y167.006 E22.06239
G1 X102.398 Y166.648 E22.10516
G1 X102.134 Y166.553 E22.11449
G1 X101.299 Y166.209 E22.14453
G1 X100.659 Y165.885 E22.16839
G1 X100.188 Y165.625 E22.18628
G1 X99.206 Y165.008 E22.22485
G1 X98.898 Y164.789 E22.23742
G1 X98.186 Y164.233 E22.26747
G1 X97.485 Y163.575 E22.29945
G1 X97.074 Y163.151 E22.31909
G1 X96.475 Y162.476 E22.3491
G1 X95.828 Y161.583 E22.38578
