;FLAVOR:Marlin
;TIME:2077
;Filament used: 1.8093m
;Layer height: 0.16
;MINX:19.607
;MINY:85.606
;MINZ:0.2
;MAXX:192.393
;MAXY:134.757
;MAXZ:4.88
;Generated with Cura_SteamEngine 4.4.1
M140 S60
M105
M190 S60
M104 S205
M105
M109 S205
M82 ;absolute extrusion mode
M201 X500.00 Y500.00 Z100.00 E5000.00 ;Setup machine max acceleration
M203 X500.00 Y500.00 Z10.00 E50.00 ;Setup machine max feedrate
M204 P500.00 R1000.00 T500.00 ;Setup Print/Retract/Travel acceleration
M205 X8.00 Y8.00 Z0.40 E5.00 ;Setup Jerk
M220 S100 ;Reset Feedrate
M221 S100 ;Reset Flowrate

G28 ;Home
M420 L1 S1 ; Enable bed mesh levelling, mesh slot 1
G29 J3 ; 3x3 grid mesh adjust

G92 E0 ;Reset Extruder
G1 Z2.0 F3000 ;Move Z Axis up
G1 X10.1 Y20 Z0.28 F5000.0 ;Move to start position
G1 X10.1 Y200.0 Z0.28 F1500.0 E15 ;Draw the first line
G1 X10.4 Y200.0 Z0.28 F5000.0 ;Move to side a little
G1 X10.4 Y20 Z0.28 F1500.0 E30 ;Draw the second line
G92 E0 ;Reset Extruder
G1 Z2.0 F3000 ;Move Z Axis up
G92 E0
G92 E0
G1 F1500 E-6.5
;LAYER_COUNT:27
;LAYER:0
M107
G0 F6000 X27.859 Y110.011 Z0.2
;TYPE:SKIRT
G1 F1500 E0
G1 F1200 X29.17 Y109.735 E0.04456
G1 X30.075 Y109.601 E0.07499
G1 X30.223 Y109.58 E0.07996
G1 X31.023 Y109.473 E0.10681
G1 X33.528 Y109.064 E0.19123
G1 X36.013 Y108.587 E0.27539
G1 X38.429 Y108.053 E0.35768
G1 X40.901 Y107.431 E0.44246
G1 X43.316 Y106.751 E0.52591
G1 X45.723 Y106 E0.60977
G1 X48.102 Y105.183 E0.69344
G1 X50.467 Y104.294 E0.77747
G1 X52.79 Y103.345 E0.86093
G1 X55.102 Y102.323 E0.94501
G1 X57.348 Y101.254 E1.02774
G1 X59.607 Y100.099 E1.11212
G1 X61.802 Y98.898 E1.19534
G1 X63.994 Y97.616 E1.2798
G1 X66.123 Y96.29 E1.36323
G1 X68.228 Y94.893 E1.44725
G1 X70.281 Y93.447 E1.53077
G1 X72.294 Y91.942 E1.61437
G1 X74.251 Y90.389 E1.69746
G1 X76.704 Y88.316 E1.80428
G1 X76.705 Y88.318 E1.80436
G1 X77.308 Y87.823 E1.83031
G1 X78.081 Y87.292 E1.8615
G1 X78.897 Y86.829 E1.8927
G1 X79.749 Y86.437 E1.9239
G1 X80.631 Y86.119 E1.95508
G1 X81.537 Y85.877 E1.98627
G1 X82.46 Y85.713 E2.01745
G1 X83.743 Y85.617 E2.06024
G1 X84.372 Y85.607 E2.08117
G1 X84.547 Y85.606 E2.08699
G1 X127.376 Y85.606 E3.51148
G1 X127.534 Y85.607 E3.51674
G1 X128.232 Y85.617 E3.53996
G1 X129.168 Y85.671 E3.57114
G1 X130.096 Y85.803 E3.60232
G1 X131.01 Y86.015 E3.63352
G1 X131.902 Y86.304 E3.66471
G1 X132.767 Y86.667 E3.69591
G1 X133.597 Y87.103 E3.72709
G1 X134.388 Y87.608 E3.75831
G1 X135.205 Y88.24 E3.79266
G1 X137.191 Y89.931 E3.87942
G1 X139.129 Y91.493 E3.9622
G1 X141.137 Y93.021 E4.04613
G1 X143.191 Y94.494 E4.1302
G1 X145.263 Y95.892 E4.21333
G1 X147.425 Y97.264 E4.2985
G1 X149.554 Y98.532 E4.38091
G1 X151.762 Y99.764 E4.46501
G1 X153.992 Y100.927 E4.54866
G1 X156.258 Y102.029 E4.63247
G1 X158.556 Y103.066 E4.71632
G1 X160.875 Y104.035 E4.79992
G1 X163.253 Y104.952 E4.88469
G1 X165.586 Y105.773 E4.96695
G1 X167.98 Y106.542 E5.05058
G1 X170.415 Y107.25 E5.13492
G1 X172.846 Y107.882 E5.21846
G1 X175.31 Y108.449 E5.30256
G1 X177.775 Y108.944 E5.38618
G1 X180.251 Y109.366 E5.46972
G1 X182.695 Y109.714 E5.55183
G1 X182.927 Y109.75 E5.55964
G1 X183 Y109.762 E5.5621
G1 X183.918 Y109.953 E5.59328
G1 X184.817 Y110.222 E5.6245
G1 X185.689 Y110.567 E5.65569
G1 X186.529 Y110.984 E5.68688
G1 X187.33 Y111.472 E5.71807
G1 X188.087 Y112.026 E5.74927
G1 X188.794 Y112.642 E5.78046
G1 X189.445 Y113.317 E5.81165
G1 X190.037 Y114.044 E5.84284
G1 X190.565 Y114.82 E5.87405
G1 X191.025 Y115.637 E5.90524
G1 X191.413 Y116.491 E5.93644
G1 X191.727 Y117.374 E5.96761
G1 X192.01 Y118.498 E6.00616
G1 X192.103 Y118.972 E6.02222
G1 X192.232 Y119.794 E6.0499
G1 X192.3 Y120.367 E6.06909
G1 X192.357 Y121.007 E6.09046
G1 X192.369 Y121.208 E6.09716
G1 X192.385 Y121.565 E6.10904
G1 X192.393 Y121.859 E6.11883
G1 X192.392 Y122.506 E6.14035
G1 X192.379 Y122.917 E6.15402
G1 X192.349 Y123.45 E6.17178
G1 X192.324 Y123.761 E6.18216
G1 X192.251 Y124.415 E6.20404
G1 X192.177 Y124.94 E6.22168
G1 X192.074 Y125.55 E6.24225
G1 X192.006 Y125.892 E6.25385
G1 X191.784 Y126.803 E6.28504
G1 X191.485 Y127.692 E6.31623
G1 X191.112 Y128.553 E6.34744
G1 X190.666 Y129.378 E6.37863
G1 X190.152 Y130.163 E6.40984
G1 X189.573 Y130.9 E6.44101
G1 X188.934 Y131.586 E6.4722
G1 X188.238 Y132.215 E6.5034
G1 X187.491 Y132.782 E6.53459
G1 X186.699 Y133.284 E6.56578
G1 X185.866 Y133.716 E6.59699
G1 X185 Y134.076 E6.62818
G1 X184.106 Y134.361 E6.65939
G1 X183.192 Y134.568 E6.69056
G1 X182.263 Y134.697 E6.72175
G1 X181.425 Y134.745 E6.74967
G1 X180.949 Y134.754 E6.76551
G1 X180.741 Y134.756 E6.77242
G1 X126.915 Y134.757 E8.56268
G1 X71.437 Y134.756 E10.40789
G1 X70.776 Y134.757 E10.42988
G1 X70.759 Y134.757 E10.43044
G1 X31.472 Y134.756 E11.73713
G1 X31.312 Y134.755 E11.74245
G1 X30.624 Y134.745 E11.76534
G1 X29.688 Y134.691 E11.79652
G1 X28.759 Y134.558 E11.82774
G1 X27.846 Y134.346 E11.85891
G1 X26.953 Y134.058 E11.89012
G1 X26.089 Y133.694 E11.9213
G1 X25.259 Y133.258 E11.95248
G1 X24.469 Y132.752 E11.98369
G1 X23.724 Y132.182 E12.01489
G1 X23.031 Y131.55 E12.04608
G1 X22.395 Y130.861 E12.07727
G1 X21.819 Y130.12 E12.10848
G1 X21.309 Y129.334 E12.13965
G1 X20.867 Y128.506 E12.17087
G1 X20.498 Y127.644 E12.20205
G1 X20.203 Y126.754 E12.23324
G1 X19.992 Y125.876 E12.26327
G1 X19.903 Y125.425 E12.27856
G1 X19.776 Y124.631 E12.30531
G1 X19.706 Y124.059 E12.32447
G1 X19.644 Y123.364 E12.34768
G1 X19.629 Y123.107 E12.35624
G1 X19.614 Y122.761 E12.36776
G1 X19.607 Y122.5 E12.37644
G1 X19.609 Y121.852 E12.398
G1 X19.622 Y121.447 E12.41147
G1 X19.65 Y120.93 E12.4287
G1 X19.675 Y120.615 E12.43921
G1 X19.748 Y119.952 E12.46139
G1 X19.825 Y119.405 E12.47976
G1 X19.923 Y118.826 E12.49929
G1 X19.986 Y118.504 E12.51021
G1 X20.205 Y117.592 E12.5414
G1 X20.501 Y116.702 E12.5726
G1 X20.872 Y115.841 E12.60378
G1 X21.314 Y115.014 E12.63497
G1 X21.826 Y114.228 E12.66617
G1 X22.403 Y113.488 E12.69738
G1 X23.04 Y112.8 E12.72856
G1 X23.734 Y112.169 E12.75976
G1 X24.479 Y111.6 E12.79094
G1 X25.27 Y111.096 E12.82214
G1 X26.101 Y110.661 E12.85333
G1 X26.966 Y110.299 E12.88452
G1 X27.859 Y110.011 E12.91573
G0 F6000 X28.178 Y110.341
G1 F1200 X29.228 Y110.13 E12.95135
G1 X30.133 Y109.996 E12.98178
G1 X30.277 Y109.976 E12.98661
G1 X31.099 Y109.866 E13.0142
G1 X33.596 Y109.459 E13.09834
G1 X36.069 Y108.984 E13.1821
G1 X38.549 Y108.436 E13.26657
G1 X41.002 Y107.818 E13.35071
G1 X43.429 Y107.135 E13.43457
G1 X45.835 Y106.384 E13.5184
G1 X48.236 Y105.559 E13.60284
G1 X50.611 Y104.667 E13.68722
G1 X52.966 Y103.705 E13.77183
G1 X55.242 Y102.698 E13.85461
G1 X57.536 Y101.607 E13.9391
G1 X59.803 Y100.448 E14.02378
G1 X62.017 Y99.237 E14.10772
G1 X64.186 Y97.968 E14.1913
G1 X66.349 Y96.621 E14.27605
G1 X68.45 Y95.227 E14.35991
G1 X70.488 Y93.791 E14.44283
G1 X72.558 Y92.243 E14.5288
G1 X74.505 Y90.698 E14.61147
G1 X76.84 Y88.725 E14.71314
G1 X76.85 Y88.716 E14.71359
G1 X76.868 Y88.701 E14.71437
G1 X76.963 Y88.621 E14.7185
G1 X76.964 Y88.622 E14.71855
G1 X77.562 Y88.133 E14.74424
G1 X78.322 Y87.613 E14.77487
G1 X79.124 Y87.162 E14.80547
G1 X79.963 Y86.782 E14.83611
G1 X80.831 Y86.475 E14.86673
G1 X81.723 Y86.246 E14.89736
G1 X82.631 Y86.094 E14.92798
G1 X83.749 Y86.017 E14.96525
G1 X84.378 Y86.007 E14.98618
G1 X84.547 Y86.006 E14.9918
G1 X127.376 Y86.006 E16.4163
G1 X127.528 Y86.007 E16.42135
G1 X128.226 Y86.017 E16.44457
G1 X129.145 Y86.07 E16.47519
G1 X130.056 Y86.203 E16.50581
G1 X130.952 Y86.414 E16.53642
G1 X131.826 Y86.702 E16.56703
G1 X132.673 Y87.065 E16.59768
G1 X133.484 Y87.5 E16.62829
G1 X134.254 Y88.004 E16.6589
G1 X134.945 Y88.545 E16.68809
G1 X136.903 Y90.212 E16.77362
G1 X138.903 Y91.824 E16.85905
G1 X140.901 Y93.344 E16.94255
G1 X142.963 Y94.823 E17.02695
G1 X145.046 Y96.229 E17.11054
G1 X147.171 Y97.577 E17.19424
G1 X149.377 Y98.891 E17.27964
G1 X151.561 Y100.11 E17.36283
G1 X153.839 Y101.298 E17.44828
G1 X156.055 Y102.375 E17.53023
G1 X158.43 Y103.447 E17.61689
G1 X160.713 Y104.401 E17.69919
G1 X163.102 Y105.323 E17.78436
G1 X165.447 Y106.148 E17.86704
G1 X167.894 Y106.933 E17.95251
G1 X170.299 Y107.632 E18.03581
G1 X172.769 Y108.275 E18.1207
G1 X175.213 Y108.837 E18.20411
G1 X177.728 Y109.342 E18.28943
G1 X180.168 Y109.758 E18.37176
G1 X182.638 Y110.11 E18.45474
G1 X182.862 Y110.144 E18.46228
G1 X182.935 Y110.156 E18.46474
G1 X183.837 Y110.345 E18.49539
G1 X184.718 Y110.611 E18.526
G1 X185.573 Y110.953 E18.55663
G1 X186.395 Y111.367 E18.58724
G1 X187.178 Y111.852 E18.61787
G1 X187.916 Y112.402 E18.64848
G1 X188.603 Y113.014 E18.67909
G1 X189.235 Y113.684 E18.70972
G1 X189.806 Y114.406 E18.74034
G1 X190.313 Y115.175 E18.77097
G1 X190.751 Y115.985 E18.8016
G1 X191.117 Y116.829 E18.8322
G1 X191.408 Y117.703 E18.86283
G1 X191.618 Y118.575 E18.89267
G1 X191.711 Y119.049 E18.90873
G1 X191.835 Y119.841 E18.9354
G1 X191.903 Y120.414 E18.95459
G1 X191.958 Y121.031 E18.97519
G1 X191.97 Y121.232 E18.98189
G1 X191.985 Y121.576 E18.99334
G1 X191.993 Y121.87 E19.00312
G1 X191.992 Y122.493 E19.02384
G1 X191.979 Y122.904 E19.03752
G1 X191.95 Y123.418 E19.05464
G1 X191.925 Y123.729 E19.06502
G1 X191.855 Y124.359 E19.0861
G1 X191.781 Y124.884 E19.10374
G1 X191.681 Y125.472 E19.12357
G1 X191.613 Y125.814 E19.13517
G1 X191.395 Y126.708 E19.16578
G1 X191.1 Y127.58 E19.1964
G1 X190.73 Y128.424 E19.22705
G1 X190.288 Y129.231 E19.25765
G1 X189.778 Y129.998 E19.28828
G1 X189.203 Y130.717 E19.31891
G1 X188.568 Y131.384 E19.34954
G1 X187.878 Y131.993 E19.38015
G1 X187.137 Y132.54 E19.41078
G1 X186.352 Y133.02 E19.44138
G1 X185.528 Y133.431 E19.47201
G1 X184.671 Y133.768 E19.50264
G1 X183.789 Y134.03 E19.53324
G1 X182.887 Y134.215 E19.56386
G1 X181.972 Y134.32 E19.5945
G1 X181.417 Y134.345 E19.61298
G1 X180.941 Y134.354 E19.62881
G1 X180.741 Y134.356 E19.63546
G1 X126.915 Y134.357 E21.42572
G1 X71.436 Y134.356 E23.27096
G1 X70.775 Y134.357 E23.29295
G1 X70.759 Y134.357 E23.29348
G1 X31.472 Y134.356 E24.60017
G1 X31.318 Y134.355 E24.60529
G1 X30.63 Y134.345 E24.62818
G1 X29.711 Y134.292 E24.65879
G1 X28.8 Y134.159 E24.68942
G1 X27.904 Y133.947 E24.72004
G1 X27.029 Y133.659 E24.75068
G1 X26.183 Y133.296 E24.7813
G1 X25.372 Y132.86 E24.81192
G1 X24.602 Y132.356 E24.84253
G1 X23.878 Y131.788 E24.87314
G1 X23.206 Y131.158 E24.90377
G1 X22.592 Y130.472 E24.93439
G1 X22.039 Y129.736 E24.96501
G1 X21.552 Y128.955 E24.99563
G1 X21.135 Y128.134 E25.02625
G1 X20.791 Y127.28 E25.05688
G1 X20.522 Y126.4 E25.08748
G1 X20.385 Y125.798 E25.10802
G1 X20.296 Y125.347 E25.12331
G1 X20.173 Y124.583 E25.14904
G1 X20.103 Y124.011 E25.16821
G1 X20.043 Y123.341 E25.19058
G1 X20.028 Y123.084 E25.19915
G1 X20.014 Y122.75 E25.21026
G1 X20.007 Y122.489 E25.21895
G1 X20.008 Y121.865 E25.2397
G1 X20.021 Y121.46 E25.25318
G1 X20.049 Y120.961 E25.2698
G1 X20.074 Y120.646 E25.28031
G1 X20.144 Y120.007 E25.30169
G1 X20.221 Y119.46 E25.32007
G1 X20.315 Y118.903 E25.33885
G1 X20.378 Y118.581 E25.34977
G1 X20.594 Y117.686 E25.38039
G1 X20.887 Y116.813 E25.41102
G1 X21.254 Y115.969 E25.44163
G1 X21.693 Y115.159 E25.47227
G1 X22.201 Y114.391 E25.5029
G1 X22.774 Y113.67 E25.53353
G1 X23.406 Y113.002 E25.56411
G1 X24.095 Y112.391 E25.59474
G1 X24.834 Y111.842 E25.62536
G1 X25.618 Y111.359 E25.65599
G1 X26.44 Y110.945 E25.6866
G1 X27.296 Y110.605 E25.71724
G1 X28.178 Y110.341 E25.74786
G0 F6000 X28.493 Y110.676
G1 F1200 X29.287 Y110.526 E25.77473
G1 X30.192 Y110.392 E25.80516
G1 X30.33 Y110.373 E25.80979
G1 X31.145 Y110.264 E25.83714
G1 X33.664 Y109.853 E25.92203
G1 X36.166 Y109.373 E26.00677
G1 X38.628 Y108.828 E26.09064
G1 X41.094 Y108.208 E26.17521
G1 X43.551 Y107.516 E26.26011
G1 X45.947 Y106.768 E26.34359
G1 X48.401 Y105.925 E26.42989
G1 X50.767 Y105.036 E26.51396
G1 X53.071 Y104.095 E26.59674
G1 X55.427 Y103.053 E26.68242
G1 X57.711 Y101.966 E26.76655
G1 X59.998 Y100.797 E26.85198
G1 X62.205 Y99.59 E26.93564
G1 X64.394 Y98.31 E27.01998
G1 X66.56 Y96.96 E27.10487
G1 X68.679 Y95.554 E27.18945
G1 X70.752 Y94.093 E27.2738
G1 X72.779 Y92.578 E27.35797
G1 X74.766 Y91.002 E27.44232
G1 X77.221 Y88.927 E27.54924
G1 X77.222 Y88.929 E27.54931
G1 X77.816 Y88.443 E27.57484
G1 X78.563 Y87.935 E27.60488
G1 X79.351 Y87.495 E27.6349
G1 X80.176 Y87.127 E27.66495
G1 X81.03 Y86.833 E27.69499
G1 X81.907 Y86.616 E27.72504
G1 X82.799 Y86.478 E27.75506
G1 X83.756 Y86.417 E27.78695
G1 X84.385 Y86.407 E27.80787
G1 X84.547 Y86.406 E27.81326
G1 X127.376 Y86.406 E29.23776
G1 X127.522 Y86.407 E29.24262
G1 X128.22 Y86.417 E29.26584
G1 X129.122 Y86.47 E29.29589
G1 X130.015 Y86.602 E29.32591
G1 X130.893 Y86.813 E29.35595
G1 X131.749 Y87.101 E29.38598
G1 X132.576 Y87.463 E29.41601
G1 X133.368 Y87.898 E29.44606
G1 X134.119 Y88.4 E29.47611
G1 X134.686 Y88.849 E29.50016
G1 X136.679 Y90.545 E29.5872
G1 X138.633 Y92.121 E29.6707
G1 X140.671 Y93.672 E29.75588
G1 X142.728 Y95.147 E29.84007
G1 X144.839 Y96.571 E29.92476
G1 X146.973 Y97.926 E30.00884
G1 X149.156 Y99.225 E30.09333
G1 X151.387 Y100.471 E30.17832
G1 X153.658 Y101.655 E30.2635
G1 X155.894 Y102.742 E30.34619
G1 X158.247 Y103.804 E30.43206
G1 X160.563 Y104.772 E30.51554
G1 X162.962 Y105.697 E30.60106
G1 X165.34 Y106.534 E30.68491
G1 X167.764 Y107.312 E30.76958
G1 X170.191 Y108.018 E30.85365
G1 X172.676 Y108.664 E30.93905
G1 X175.123 Y109.227 E31.02256
G1 X177.647 Y109.734 E31.10819
G1 X180.117 Y110.155 E31.19153
G1 X182.582 Y110.506 E31.27434
G1 X182.798 Y110.539 E31.28161
G1 X182.871 Y110.551 E31.28407
G1 X183.754 Y110.737 E31.31408
G1 X184.618 Y111 E31.34412
G1 X185.455 Y111.339 E31.37416
G1 X186.259 Y111.75 E31.40419
G1 X187.024 Y112.231 E31.43424
G1 X187.743 Y112.778 E31.46429
G1 X188.411 Y113.386 E31.49433
G1 X189.022 Y114.05 E31.52435
G1 X189.572 Y114.766 E31.55438
G1 X190.057 Y115.529 E31.58445
G1 X190.472 Y116.33 E31.61445
G1 X190.815 Y117.166 E31.64451
G1 X191.082 Y118.029 E31.67455
G1 X191.225 Y118.652 E31.69581
G1 X191.318 Y119.126 E31.71188
G1 X191.438 Y119.888 E31.73753
G1 X191.506 Y120.461 E31.75673
G1 X191.559 Y121.055 E31.77656
G1 X191.571 Y121.256 E31.78326
G1 X191.585 Y121.587 E31.79428
G1 X191.593 Y121.881 E31.80406
G1 X191.592 Y122.48 E31.82398
G1 X191.579 Y122.891 E31.83766
G1 X191.551 Y123.386 E31.85415
G1 X191.526 Y123.697 E31.86453
G1 X191.459 Y124.304 E31.88484
G1 X191.385 Y124.829 E31.90247
G1 X191.289 Y125.394 E31.92153
G1 X191.221 Y125.736 E31.93313
G1 X191.006 Y126.613 E31.96316
G1 X190.714 Y127.468 E31.99321
G1 X190.348 Y128.293 E32.02323
G1 X189.91 Y129.083 E32.05328
G1 X189.404 Y129.831 E32.08331
G1 X188.834 Y130.531 E32.11334
G1 X188.204 Y131.179 E32.1434
G1 X187.519 Y131.767 E32.17342
G1 X186.785 Y132.293 E32.20346
G1 X186.007 Y132.752 E32.2335
G1 X185.192 Y133.141 E32.26354
G1 X184.345 Y133.455 E32.29358
G1 X183.474 Y133.694 E32.32362
G1 X182.585 Y133.855 E32.35367
G1 X181.41 Y133.945 E32.39287
G1 X180.934 Y133.954 E32.4087
G1 X180.741 Y133.956 E32.41512
G1 X126.915 Y133.957 E34.20538
G1 X71.435 Y133.956 E36.05065
G1 X70.774 Y133.957 E36.07264
G1 X70.759 Y133.957 E36.07314
G1 X31.472 Y133.956 E37.37983
G1 X31.324 Y133.955 E37.38475
G1 X30.636 Y133.945 E37.40764
G1 X29.734 Y133.892 E37.43769
G1 X28.841 Y133.759 E37.46772
G1 X27.963 Y133.548 E37.49775
G1 X27.107 Y133.26 E37.52779
G1 X26.28 Y132.898 E37.55782
G1 X25.488 Y132.463 E37.58787
G1 X24.738 Y131.961 E37.61789
G1 X24.035 Y131.394 E37.64793
G1 X23.385 Y130.767 E37.67796
G1 X22.793 Y130.085 E37.708
G1 X22.263 Y129.353 E37.73806
G1 X21.801 Y128.577 E37.7681
G1 X21.409 Y127.764 E37.79812
G1 X21.09 Y126.919 E37.82816
G1 X20.777 Y125.721 E37.86934
G1 X20.688 Y125.27 E37.88463
G1 X20.571 Y124.534 E37.90942
G1 X20.501 Y123.962 E37.92858
G1 X20.442 Y123.317 E37.95013
G1 X20.427 Y123.06 E37.95869
G1 X20.414 Y122.739 E37.96937
G1 X20.407 Y122.478 E37.97806
G1 X20.408 Y121.878 E37.99801
G1 X20.421 Y121.473 E38.01149
G1 X20.448 Y120.993 E38.02748
G1 X20.473 Y120.678 E38.03799
G1 X20.541 Y120.063 E38.05857
G1 X20.618 Y119.516 E38.07694
G1 X20.708 Y118.979 E38.09505
G1 X20.771 Y118.657 E38.10597
G1 X20.983 Y117.78 E38.13598
G1 X21.273 Y116.924 E38.16604
G1 X21.636 Y116.098 E38.19604
G1 X22.072 Y115.306 E38.22611
G1 X22.576 Y114.557 E38.25614
G1 X23.144 Y113.855 E38.28618
G1 X23.772 Y113.206 E38.31621
G1 X24.455 Y112.615 E38.34625
G1 X25.187 Y112.087 E38.37627
G1 X25.964 Y111.625 E38.40634
