;FLAVOR:Marlin
;TIME:7008
;Filament used: 4.16751m
;Layer height: 0.16
;MINX:62.854
;MINY:23.498
;MINZ:0.2
;MAXX:164.749
;MAXY:196.688
;MAXZ:8.28
;Generated with Cura_SteamEngine 4.4.1
M140 S60
M105
M190 S60
M104 S205
M105
M109 S205
M82 ;absolute extrusion mode
M201 X500.00 Y500.00 Z100.00 E5000.00 ;Setup machine max acceleration
M203 X500.00 Y500.00 Z10.00 E50.00 ;Setup machine max feedrate
M204 P500.00 R1000.00 T500.00 ;Setup Print/Retract/Travel acceleration
M205 X8.00 Y8.00 Z0.40 E5.00 ;Setup Jerk
M220 S100 ;Reset Feedrate
M221 S100 ;Reset Flowrate

G28 ;Home
M420 L1 S1 ; Enable bed mesh levelling, mesh slot 1
G29 J3 ; 3x3 grid mesh adjust

G92 E0 ;Reset Extruder
G1 Z2.0 F3000 ;Move Z Axis up
G1 X10.1 Y20 Z0.28 F5000.0 ;Move to start position
G1 X10.1 Y200.0 Z0.28 F1500.0 E15 ;Draw the first line
G1 X10.4 Y200.0 Z0.28 F5000.0 ;Move to side a little
G1 X10.4 Y20 Z0.28 F1500.0 E30 ;Draw the second line
G92 E0 ;Reset Extruder
G1 Z2.0 F3000 ;Move Z Axis up
G92 E0
G92 E0
G1 F1500 E-6.5
;LAYER_COUNT:52
;LAYER:0
M107
G0 F6000 X65.354 Y48.599 Z0.2
;TYPE:SKIRT
G1 F1500 E0
G1 F1200 X65.801 Y48.006 E0.0247
G1 X65.968 Y47.799 E0.03355
G1 X66.168 Y47.558 E0.04396
G1 X67.494 Y46.007 E0.11183
G1 X69.1 Y44.017 E0.19688
G1 X70.61 Y42.035 E0.27976
G1 X72.083 Y39.982 E0.3638
G1 X73.499 Y37.888 E0.44787
G1 X74.947 Y35.609 E0.53768
G1 X75.483 Y34.839 E0.56888
G1 X76.124 Y34.073 E0.6021
G1 X76.268 Y33.916 E0.60919
G1 X76.512 Y33.658 E0.621
G1 X76.693 Y33.473 E0.62961
G1 X76.778 Y33.387 E0.63363
G1 X82.966 Y27.2 E0.92467
G1 X83.073 Y27.095 E0.92966
G1 X83.553 Y26.628 E0.95193
G1 X84.253 Y26.003 E0.98314
G1 X85.003 Y25.44 E1.01434
G1 X85.798 Y24.943 E1.04552
G1 X86.633 Y24.516 E1.07671
G1 X87.501 Y24.161 E1.1079
G1 X88.397 Y23.882 E1.13912
G1 X89.312 Y23.679 E1.17029
G1 X90.242 Y23.556 E1.20149
G1 X90.95 Y23.515 E1.22508
G1 X91.512 Y23.501 E1.24378
G1 X91.786 Y23.498 E1.25289
G1 X136.517 Y23.498 E2.74065
G1 X136.674 Y23.499 E2.74587
G1 X137.375 Y23.509 E2.76919
G1 X138.311 Y23.562 E2.80037
G1 X139.24 Y23.695 E2.83158
G1 X140.153 Y23.907 E2.86276
G1 X141.046 Y24.195 E2.89396
G1 X141.91 Y24.559 E2.92515
G1 X142.741 Y24.995 E2.95636
G1 X143.531 Y25.5 E2.98755
G1 X144.275 Y26.07 E3.01872
G1 X144.672 Y26.419 E3.0363
G1 X144.825 Y26.56 E3.04322
G1 X145.053 Y26.775 E3.05364
G1 X145.217 Y26.935 E3.06126
G1 X151.521 Y33.239 E3.35778
G1 X151.634 Y33.354 E3.36315
G1 X152.104 Y33.838 E3.38559
G1 X152.729 Y34.538 E3.4168
G1 X153.536 Y35.663 E3.46285
G1 X154.88 Y37.809 E3.54707
G1 X156.284 Y39.918 E3.63133
G1 X157.73 Y41.963 E3.71464
G1 X159.231 Y43.964 E3.79783
G1 X160.846 Y45.995 E3.88414
G1 X161.738 Y47.081 E3.93088
G1 X162.302 Y47.83 E3.96207
G1 X162.8 Y48.625 E3.99327
G1 X163.228 Y49.459 E4.02444
G1 X163.584 Y50.327 E4.05565
G1 X163.865 Y51.222 E4.08685
G1 X164.068 Y52.138 E4.11805
G1 X164.193 Y53.067 E4.14923
G1 X164.235 Y53.809 E4.17395
G1 X164.248 Y54.371 E4.19265
G1 X164.251 Y54.625 E4.2011
G1 X164.251 Y99.356 E5.68885
G1 X164.25 Y99.512 E5.69404
G1 X164.24 Y100.218 E5.71753
G1 X164.231 Y100.532 E5.72798
G1 X164.213 Y100.953 E5.74199
G1 X164.206 Y101.101 E5.74692
G1 X164.101 Y102.976 E5.80938
G1 X164.03 Y105.497 E5.89326
G1 X164.032 Y108.022 E5.97724
G1 X164.103 Y110.512 E6.06009
G1 X164.247 Y113.03 E6.14398
G1 X164.462 Y115.545 E6.22793
G1 X164.669 Y117.421 E6.29071
G1 X164.724 Y118.141 E6.31473
G1 X164.733 Y118.344 E6.32149
G1 X164.743 Y118.697 E6.33323
G1 X164.748 Y119.106 E6.34684
G1 X164.749 Y119.24 E6.35129
G1 X164.749 Y163.971 E7.83905
G1 X164.748 Y164.129 E7.84431
G1 X164.738 Y164.827 E7.86752
G1 X164.684 Y165.763 E7.89871
G1 X164.552 Y166.691 E7.92988
G1 X164.34 Y167.605 E7.96109
G1 X164.051 Y168.497 E7.99228
G1 X163.688 Y169.362 E8.02348
G1 X163.252 Y170.192 E8.05466
G1 X162.747 Y170.983 E8.08587
G1 X162.414 Y171.432 E8.10447
G1 X161.756 Y172.276 E8.14006
G1 X161.64 Y172.423 E8.14629
G1 X161.378 Y172.748 E8.16017
G1 X159.853 Y174.747 E8.2438
G1 X158.388 Y176.786 E8.32731
G1 X156.981 Y178.864 E8.41077
G1 X155.634 Y180.982 E8.49426
G1 X154.199 Y183.389 E8.58746
G1 X153.751 Y184.167 E8.61732
G1 X153.249 Y184.959 E8.64851
G1 X152.681 Y185.705 E8.6797
G1 X152.297 Y186.143 E8.69907
G1 X152.15 Y186.302 E8.70627
G1 X151.936 Y186.528 E8.71662
G1 X151.755 Y186.713 E8.72523
G1 X151.67 Y186.799 E8.72925
G1 X145.49 Y192.978 E9.01992
G1 X145.392 Y193.074 E9.02448
G1 X144.909 Y193.545 E9.04692
G1 X144.21 Y194.171 E9.07813
G1 X143.46 Y194.735 E9.10934
G1 X142.666 Y195.233 E9.14051
G1 X141.831 Y195.661 E9.17172
G1 X140.964 Y196.017 E9.20289
G1 X140.069 Y196.297 E9.23409
G1 X139.153 Y196.5 E9.26529
G1 X138.223 Y196.625 E9.2965
G1 X137.578 Y196.664 E9.31799
G1 X137.011 Y196.682 E9.33686
G1 X136.662 Y196.688 E9.34847
G1 X91.931 Y196.688 E10.83623
G1 X91.773 Y196.687 E10.84148
G1 X91.075 Y196.677 E10.8647
G1 X90.139 Y196.623 E10.89589
G1 X89.211 Y196.491 E10.92706
G1 X88.297 Y196.279 E10.95827
G1 X87.405 Y195.99 E10.98945
G1 X86.54 Y195.627 E11.02066
G1 X85.71 Y195.191 E11.05184
G1 X84.919 Y194.686 E11.08305
G1 X83.857 Y193.839 E11.12823
G1 X83.701 Y193.698 E11.13523
G1 X83.38 Y193.395 E11.14991
G1 X83.185 Y193.204 E11.15899
G1 X83.104 Y193.124 E11.16277
G1 X76.927 Y186.947 E11.45332
G1 X76.821 Y186.84 E11.45833
G1 X76.351 Y186.357 E11.48074
G1 X75.727 Y185.658 E11.51191
G1 X75.167 Y184.912 E11.54293
G1 X74.628 Y184.127 E11.57461
G1 X74.536 Y183.991 E11.58007
G1 X74.15 Y183.41 E11.60327
G1 X72.681 Y181.332 E11.68791
G1 X71.191 Y179.345 E11.77051
G1 X69.619 Y177.369 E11.8545
G1 X67.994 Y175.441 E11.93836
G1 X66.225 Y173.457 E12.02677
G1 X65.763 Y172.954 E12.04949
G1 X65.158 Y172.237 E12.08069
G1 X64.617 Y171.471 E12.11188
G1 X64.143 Y170.662 E12.14306
G1 X63.74 Y169.815 E12.17426
G1 X63.41 Y168.937 E12.20546
G1 X63.157 Y168.034 E12.23665
G1 X62.981 Y167.113 E12.26784
G1 X62.884 Y166.18 E12.29904
G1 X62.866 Y165.71 E12.31468
G1 X62.856 Y165.153 E12.33321
G1 X62.854 Y164.956 E12.33976
G1 X62.854 Y120.225 E13.82752
G1 X62.855 Y120.067 E13.83278
G1 X62.865 Y119.37 E13.85596
G1 X62.915 Y118.468 E13.88601
G1 X62.982 Y117.776 E13.90913
G1 X63.002 Y117.586 E13.91548
G1 X63.142 Y116.36 E13.95653
G1 X63.356 Y113.858 E14.04005
G1 X63.5 Y111.339 E14.12397
G1 X63.571 Y108.85 E14.20678
G1 X63.573 Y106.326 E14.29073
G1 X63.502 Y103.778 E14.37551
G1 X63.378 Y101.489 E14.45176
G1 X63.364 Y101.094 E14.4649
G1 X63.354 Y100.542 E14.48327
G1 X63.352 Y100.343 E14.48988
G1 X63.352 Y55.611 E15.97768
G1 X63.353 Y55.453 E15.98293
G1 X63.363 Y54.755 E16.00615
G1 X63.417 Y53.819 E16.03733
G1 X63.549 Y52.891 E16.06851
G1 X63.761 Y51.977 E16.09972
G1 X64.05 Y51.085 E16.1309
G1 X64.413 Y50.22 E16.1621
G1 X64.849 Y49.39 E16.19329
G1 X65.354 Y48.599 E16.2245
G0 F6000 X65.75 Y48.733
G1 F1200 X66.112 Y48.257 E16.24439
G1 X66.279 Y48.05 E16.25324
G1 X66.472 Y47.817 E16.2633
G1 X67.84 Y46.217 E16.33331
G1 X69.383 Y44.305 E16.41503
G1 X70.937 Y42.265 E16.50033
G1 X72.406 Y40.217 E16.58416
G1 X73.824 Y38.12 E16.66835
G1 X75.284 Y35.823 E16.75888
G1 X75.811 Y35.068 E16.7895
G1 X76.419 Y34.343 E16.82097
G1 X76.563 Y34.186 E16.82806
G1 X76.798 Y33.938 E16.83942
G1 X76.979 Y33.753 E16.84803
G1 X77.061 Y33.67 E16.85191
G1 X83.249 Y27.483 E17.14295
G1 X83.352 Y27.381 E17.14777
G1 X83.832 Y26.914 E17.17004
G1 X84.519 Y26.302 E17.20065
G1 X85.257 Y25.751 E17.23128
G1 X86.04 Y25.266 E17.26191
G1 X86.862 Y24.851 E17.29254
G1 X87.716 Y24.509 E17.32314
G1 X88.598 Y24.243 E17.35378
G1 X89.499 Y24.053 E17.3844
G1 X90.413 Y23.943 E17.41502
G1 X90.96 Y23.915 E17.43324
G1 X91.522 Y23.901 E17.45194
G1 X91.786 Y23.898 E17.46072
G1 X136.517 Y23.898 E18.94848
G1 X136.668 Y23.899 E18.9535
G1 X137.369 Y23.909 E18.97682
G1 X138.288 Y23.962 E19.00743
G1 X139.199 Y24.095 E19.03806
G1 X140.095 Y24.306 E19.06867
G1 X140.97 Y24.594 E19.09931
G1 X141.816 Y24.957 E19.12993
G1 X142.627 Y25.392 E19.16054
G1 X143.398 Y25.896 E19.19118
G1 X144.401 Y26.713 E19.2342
G1 X144.554 Y26.854 E19.24112
G1 X144.773 Y27.062 E19.25117
G1 X144.937 Y27.222 E19.25879
G1 X145.03 Y27.314 E19.26314
G1 X151.348 Y33.632 E19.56032
G1 X151.818 Y34.116 E19.58276
G1 X152.43 Y34.804 E19.61338
G1 X153.197 Y35.875 E19.6572
G1 X154.551 Y38.037 E19.74204
G1 X155.941 Y40.125 E19.82547
G1 X157.417 Y42.212 E19.91049
G1 X158.913 Y44.208 E19.99346
G1 X160.536 Y46.248 E20.08016
G1 X161.429 Y47.335 E20.12695
G1 X161.982 Y48.071 E20.15757
G1 X162.469 Y48.852 E20.18818
G1 X162.886 Y49.673 E20.21881
G1 X163.231 Y50.527 E20.24944
G1 X163.5 Y51.407 E20.28005
G1 X163.692 Y52.307 E20.31066
G1 X163.805 Y53.221 E20.34129
G1 X163.835 Y53.818 E20.36117
G1 X163.848 Y54.38 E20.37987
G1 X163.851 Y54.625 E20.38802
G1 X163.851 Y99.356 E21.87578
G1 X163.85 Y99.506 E21.88076
G1 X163.84 Y100.212 E21.90425
G1 X163.831 Y100.515 E21.91433
G1 X163.813 Y100.936 E21.92835
G1 X163.806 Y101.078 E21.93307
G1 X163.701 Y102.941 E21.99514
G1 X163.63 Y105.486 E22.07982
G1 X163.632 Y107.999 E22.1634
G1 X163.705 Y110.544 E22.24808
G1 X163.85 Y113.088 E22.33283
G1 X164.063 Y115.583 E22.41612
G1 X164.271 Y117.465 E22.4791
G1 X164.325 Y118.159 E22.50225
G1 X164.334 Y118.362 E22.50901
G1 X164.343 Y118.701 E22.52029
G1 X164.348 Y119.11 E22.53389
G1 X164.349 Y119.24 E22.53821
G1 X164.349 Y163.971 E24.02597
G1 X164.348 Y164.123 E24.03103
G1 X164.338 Y164.821 E24.05425
G1 X164.285 Y165.74 E24.08486
G1 X164.152 Y166.651 E24.11548
G1 X163.941 Y167.547 E24.1461
G1 X163.653 Y168.421 E24.17671
G1 X163.29 Y169.268 E24.20736
G1 X162.855 Y170.079 E24.23797
G1 X162.099 Y171.186 E24.28255
G1 X161.441 Y172.03 E24.31815
G1 X161.329 Y172.172 E24.32416
G1 X161.064 Y172.5 E24.33819
G1 X159.526 Y174.517 E24.42255
G1 X158.064 Y176.551 E24.50586
G1 X156.629 Y178.672 E24.59104
G1 X155.295 Y180.768 E24.67367
G1 X153.887 Y183.13 E24.76513
G1 X153.405 Y183.967 E24.79726
G1 X152.911 Y184.744 E24.82788
G1 X152.352 Y185.476 E24.85851
G1 X152.003 Y185.872 E24.87607
G1 X151.856 Y186.031 E24.88327
G1 X151.65 Y186.248 E24.89322
G1 X151.469 Y186.433 E24.90183
G1 X151.387 Y186.516 E24.90571
G1 X145.207 Y192.695 E25.19638
G1 X145.112 Y192.788 E25.2008
G1 X144.629 Y193.259 E25.22324
G1 X143.943 Y193.873 E25.25386
G1 X143.206 Y194.424 E25.28447
G1 X142.424 Y194.91 E25.31509
G1 X141.602 Y195.326 E25.34573
G1 X140.748 Y195.669 E25.37634
G1 X139.867 Y195.936 E25.40696
G1 X138.966 Y196.127 E25.43759
G1 X138.053 Y196.238 E25.46818
G1 X137.565 Y196.265 E25.48444
G1 X136.998 Y196.283 E25.5033
G1 X136.662 Y196.288 E25.51448
G1 X91.931 Y196.288 E27.00224
G1 X91.779 Y196.287 E27.0073
G1 X91.081 Y196.277 E27.03051
G1 X90.162 Y196.224 E27.06113
G1 X89.251 Y196.091 E27.09175
G1 X88.355 Y195.88 E27.12237
G1 X87.481 Y195.592 E27.15298
G1 X86.634 Y195.229 E27.18362
G1 X85.823 Y194.794 E27.21423
G1 X85.053 Y194.29 E27.24484
G1 X84.125 Y193.542 E27.28449
G1 X83.969 Y193.401 E27.29148
G1 X83.66 Y193.11 E27.3056
G1 X83.465 Y192.919 E27.31468
G1 X77.21 Y186.664 E27.60889
G1 X77.108 Y186.561 E27.61371
G1 X76.638 Y186.078 E27.63613
G1 X76.025 Y185.391 E27.66675
G1 X75.497 Y184.686 E27.69605
G1 X74.958 Y183.901 E27.72772
G1 X74.869 Y183.769 E27.73301
G1 X74.493 Y183.203 E27.75561
G1 X72.994 Y181.083 E27.84197
G1 X71.508 Y179.102 E27.92434
G1 X69.936 Y177.125 E28.00835
G1 X68.3 Y175.184 E28.09278
G1 X66.534 Y173.203 E28.18105
G1 X66.057 Y172.684 E28.20449
G1 X65.465 Y171.979 E28.23511
G1 X64.935 Y171.226 E28.26574
G1 X64.473 Y170.43 E28.29635
G1 X64.082 Y169.596 E28.32698
G1 X63.765 Y168.732 E28.35759
G1 X63.523 Y167.844 E28.38821
G1 X63.36 Y166.938 E28.41882
G1 X63.266 Y165.703 E28.46002
G1 X63.256 Y165.146 E28.47855
G1 X63.254 Y164.956 E28.48487
G1 X63.254 Y120.225 E29.97263
G1 X63.255 Y120.073 E29.97768
G1 X63.265 Y119.376 E30.00087
G1 X63.313 Y118.506 E30.02985
G1 X63.38 Y117.814 E30.05297
G1 X63.4 Y117.632 E30.05906
G1 X63.54 Y116.407 E30.10007
G1 X63.753 Y113.914 E30.18329
G1 X63.898 Y111.374 E30.26791
G1 X63.971 Y108.826 E30.35269
G1 X63.973 Y106.315 E30.43621
G1 X63.902 Y103.783 E30.52045
G1 X63.777 Y101.467 E30.5976
G1 X63.764 Y101.087 E30.61024
G1 X63.754 Y100.535 E30.6286
G1 X63.752 Y100.343 E30.63499
G1 X63.752 Y55.611 E32.12278
G1 X63.753 Y55.459 E32.12784
G1 X63.763 Y54.761 E32.15106
G1 X63.816 Y53.842 E32.18167
G1 X63.949 Y52.931 E32.21229
G1 X64.16 Y52.035 E32.24291
G1 X64.448 Y51.161 E32.27352
G1 X64.811 Y50.314 E32.30417
G1 X65.246 Y49.503 E32.33478
G1 X65.75 Y48.733 E32.36539
G0 F6000 X66.146 Y48.868
G1 F1200 X66.423 Y48.508 E32.38049
G1 X66.59 Y48.301 E32.38934
G1 X66.776 Y48.077 E32.39902
G1 X68.139 Y46.482 E32.4688
G1 X69.715 Y44.53 E32.55225
G1 X71.249 Y42.517 E32.63642
G1 X72.73 Y40.452 E32.72094
G1 X74.176 Y38.313 E32.80682
G1 X75.622 Y36.038 E32.89648
G1 X76.14 Y35.298 E32.92652
G1 X76.714 Y34.613 E32.95624
G1 X76.858 Y34.456 E32.96333
G1 X77.084 Y34.218 E32.97425
G1 X77.265 Y34.033 E32.98285
G1 X77.344 Y33.953 E32.98659
G1 X83.532 Y27.766 E33.27764
G1 X83.631 Y27.668 E33.28227
G1 X84.111 Y27.201 E33.30454
G1 X84.786 Y26.601 E33.33458
G1 X85.511 Y26.062 E33.36463
G1 X86.281 Y25.59 E33.39467
G1 X87.089 Y25.188 E33.42468
G1 X87.93 Y24.859 E33.45472
G1 X88.797 Y24.605 E33.48477
G1 X89.683 Y24.429 E33.51481
G1 X90.97 Y24.315 E33.55779
G1 X91.532 Y24.301 E33.57648
G1 X91.786 Y24.298 E33.58493
G1 X136.517 Y24.298 E35.07269
G1 X136.662 Y24.299 E35.07751
G1 X137.363 Y24.309 E35.10083
G1 X138.265 Y24.362 E35.13088
G1 X139.158 Y24.494 E35.16091
G1 X140.037 Y24.705 E35.19097
G1 X140.893 Y24.993 E35.22101
G1 X141.72 Y25.355 E35.25104
G1 X142.512 Y25.789 E35.28108
G1 X143.262 Y26.292 E35.31111
G1 X144.13 Y27.007 E35.34852
G1 X144.283 Y27.148 E35.35544
G1 X144.494 Y27.348 E35.36511
G1 X144.658 Y27.508 E35.37273
G1 X151.061 Y33.911 E35.6739
G1 X151.531 Y34.395 E35.69634
G1 X152.13 Y35.07 E35.72636
G1 X152.858 Y36.087 E35.76796
G1 X154.223 Y38.266 E35.85348
G1 X155.614 Y40.356 E35.93698
G1 X157.085 Y42.437 E36.02174
G1 X158.596 Y44.451 E36.10548
G1 X160.227 Y46.502 E36.19264
G1 X161.12 Y47.589 E36.23943
G1 X161.662 Y48.311 E36.26946
G1 X162.137 Y49.079 E36.29949
G1 X162.543 Y49.886 E36.32954
G1 X162.876 Y50.725 E36.35956
G1 X163.134 Y51.591 E36.38961
G1 X163.314 Y52.476 E36.41965
G1 X163.415 Y53.373 E36.44967
G1 X163.435 Y53.827 E36.46479
G1 X163.448 Y54.389 E36.48349
G1 X163.451 Y54.625 E36.49134
G1 X163.451 Y99.356 E37.9791
G1 X163.45 Y99.5 E37.98389
G1 X163.44 Y100.206 E38.00737
G1 X163.432 Y100.498 E38.01708
G1 X163.414 Y100.919 E38.0311
G1 X163.407 Y101.056 E38.03566
G1 X163.301 Y102.943 E38.09852
G1 X163.23 Y105.475 E38.18277
G1 X163.232 Y108.01 E38.26709
G1 X163.305 Y110.579 E38.35257
G1 X163.448 Y113.073 E38.43565
G1 X163.669 Y115.662 E38.52208
G1 X163.873 Y117.509 E38.58388
G1 X163.925 Y118.176 E38.60613
G1 X163.934 Y118.379 E38.61289
G1 X163.943 Y118.706 E38.62377
G1 X163.948 Y119.115 E38.63738
G1 X163.949 Y119.24 E38.64153
G1 X163.949 Y163.971 E40.12929
G1 X163.948 Y164.117 E40.13415
G1 X163.938 Y164.815 E40.15737
G1 X163.885 Y165.717 E40.18742
G1 X163.753 Y166.61 E40.21744
G1 X163.542 Y167.488 E40.24748
G1 X163.254 Y168.344 E40.27752
G1 X162.892 Y169.171 E40.30754
G1 X162.457 Y169.963 E40.3376
G1 X161.783 Y170.94 E40.37707
G1 X161.125 Y171.784 E40.41267
G1 X161.017 Y171.92 E40.41844
G1 X160.768 Y172.228 E40.43162
G1 X159.216 Y174.263 E40.51674
G1 X157.719 Y176.346 E40.60206
G1 X156.309 Y178.43 E40.68574
G1 X154.942 Y180.579 E40.77046
G1 X153.557 Y182.903 E40.86044
G1 X153.058 Y183.768 E40.89365
G1 X152.573 Y184.529 E40.92367
G1 X152.023 Y185.245 E40.9537
G1 X151.71 Y185.6 E40.96944
G1 X151.563 Y185.759 E40.97664
G1 X151.364 Y185.968 E40.98624
G1 X151.183 Y186.153 E40.99485
G1 X151.104 Y186.233 E40.99858
G1 X144.924 Y192.412 E41.28925
G1 X144.833 Y192.502 E41.29351
G1 X144.35 Y192.973 E41.31594
G1 X143.676 Y193.574 E41.34598
G1 X142.952 Y194.113 E41.376
G1 X142.183 Y194.586 E41.40603
G1 X141.375 Y194.99 E41.43608
G1 X140.534 Y195.32 E41.46612
G1 X139.668 Y195.574 E41.49614
G1 X138.782 Y195.751 E41.52619
G1 X137.553 Y195.865 E41.56724
G1 X136.986 Y195.883 E41.58611
G1 X136.662 Y195.888 E41.59689
G1 X91.931 Y195.888 E43.08465
G1 X91.785 Y195.887 E43.0895
G1 X91.087 Y195.877 E43.11272
G1 X90.185 Y195.824 E43.14277
G1 X89.292 Y195.692 E43.1728
G1 X88.414 Y195.481 E43.20283
G1 X87.558 Y195.193 E43.23287
