;FLAVOR:Marlin
;TIME:2348
;Filament used: 1.94904m
;Layer height: 0.2
;MINX:100.191
;MINY:35.946
;MINZ:0.2
;MAXX:130.398
;MAXY:191.197
;MAXZ:8
;Generated with Cura_SteamEngine 4.5.0
M140 S60
M105
M190 S60
M104 S205
M105
M109 S205
M82 ;absolute extrusion mode
; Ender 3 Custom Start G-code
G92 E0 ; Reset Extruder
G28 ; Home all axes
G29 L1 A ; Activate unified bed levelling
G29 J
G1 Z2.0 F3000 ; Move Z Axis up little to prevent scratching of Heat Bed
G1 X0.1 Y20 Z0.3 F5000.0 ; Move to start position
G1 X0.1 Y200.0 Z0.3 F1500.0 E15 ; Draw the first line
G1 X0.4 Y200.0 Z0.3 F5000.0 ; Move to side a little
G1 X0.4 Y20 Z0.3 F1500.0 E30 ; Draw the second line
G92 E0 ; Reset Extruder
G1 Z2.0 F3000 ; Move Z Axis up little to prevent scratching of Heat Bed
G1 X5 Y20 Z0.3 F5000.0 ; Move over to prevent blob squish
G92 E0
G92 E0
G1 F2700 E-4.5
;LAYER_COUNT:40
;LAYER:0
M107
G0 F6000 X107.229 Y44.108 Z0.2
;TYPE:SKIRT
G1 F2700 E0
G1 F1200 X107.53 Y43.382 E0.02614
G1 X107.853 Y42.669 E0.05217
G1 X108.071 Y42.218 E0.06884
G1 X108.278 Y41.834 E0.08334
G1 X108.721 Y41.095 E0.112
G1 X108.952 Y40.733 E0.12628
G1 X109.209 Y40.368 E0.14113
G1 X109.736 Y39.689 E0.16972
G1 X110.021 Y39.342 E0.18465
G1 X110.315 Y39.015 E0.19928
G1 X110.925 Y38.395 E0.22821
G1 X111.246 Y38.087 E0.24301
G1 X111.571 Y37.801 E0.2574
G1 X112.228 Y37.275 E0.2854
G1 X112.63 Y36.972 E0.30214
G1 X113.158 Y36.624 E0.32317
G1 X113.726 Y36.346 E0.34421
G1 X114.324 Y36.141 E0.36523
G1 X114.948 Y36.013 E0.38642
G1 X115.084 Y35.994 E0.39098
G1 X115.715 Y35.946 E0.41203
G1 X116.346 Y35.979 E0.43305
G1 X116.989 Y36.095 E0.45478
G1 X117.241 Y36.158 E0.46342
G1 X117.377 Y36.194 E0.4681
G1 X118.15 Y36.412 E0.49481
G1 X118.849 Y36.62 E0.51907
G1 X119.096 Y36.7 E0.5277
G1 X119.759 Y36.936 E0.55111
G1 X120.175 Y37.092 E0.56589
G1 X120.849 Y37.355 E0.58995
G1 X121.093 Y37.458 E0.59876
G1 X121.791 Y37.775 E0.62426
G1 X122.19 Y37.964 E0.63894
G1 X122.791 Y38.257 E0.66118
G1 X123.069 Y38.403 E0.67162
G1 X124.045 Y38.959 E0.70898
G1 X124.648 Y39.32 E0.73236
G1 X125.169 Y39.678 E0.75338
G1 X125.64 Y40.1 E0.77442
G1 X126.055 Y40.577 E0.79545
G1 X126.313 Y40.948 E0.81048
G1 X126.396 Y41.08 E0.81566
G1 X126.698 Y41.636 E0.83671
G1 X126.927 Y42.225 E0.85773
G1 X127.081 Y42.838 E0.87875
G1 X127.155 Y43.466 E0.89978
G1 X127.15 Y44.098 E0.9208
G1 X127.066 Y44.724 E0.94181
G1 X126.902 Y45.335 E0.96285
G1 X126.77 Y45.686 E0.97532
G1 X126.092 Y47.276 E1.03281
G1 X125.063 Y49.775 E1.1227
G1 X124.096 Y52.325 E1.21341
G1 X123.228 Y54.833 E1.30168
G1 X122.431 Y57.359 E1.38978
G1 X121.688 Y59.969 E1.48003
G1 X121.014 Y62.62 E1.57101
G1 X120.444 Y65.17 E1.65792
G1 X119.924 Y67.836 E1.74826
G1 X119.485 Y70.491 E1.83777
G1 X119.121 Y73.156 E1.92723
G1 X118.833 Y75.823 E2.01645
G1 X118.623 Y78.47 E2.10476
G1 X118.484 Y81.189 E2.19532
G1 X118.423 Y83.875 E2.28468
G1 X118.439 Y86.564 E2.37411
G1 X118.529 Y89.246 E2.46337
G1 X118.696 Y91.925 E2.55264
G1 X118.94 Y94.612 E2.64238
G1 X119.147 Y96.421 E2.70294
G1 X127.891 Y166.567 E5.05406
G1 X128.261 Y169.229 E5.14345
G1 X128.703 Y171.862 E5.23225
G1 X129.23 Y174.533 E5.3228
G1 X129.82 Y177.135 E5.41154
G1 X130.005 Y177.858 E5.43637
G1 X130.258 Y178.9 E5.47203
G1 X130.368 Y179.523 E5.49307
G1 X130.398 Y180.154 E5.51408
G1 X130.349 Y180.784 E5.5351
G1 X130.271 Y181.206 E5.54937
G1 X130.12 Y181.851 E5.57141
G1 X129.939 Y182.542 E5.59516
G1 X129.688 Y183.44 E5.62618
G1 X129.604 Y183.71 E5.63558
G1 X129.419 Y184.247 E5.65447
G1 X129.272 Y184.64 E5.66843
G1 X129.031 Y185.184 E5.68822
G1 X128.742 Y185.743 E5.70915
G1 X128.612 Y185.978 E5.71808
G1 X128.413 Y186.317 E5.73115
G1 X128.03 Y186.879 E5.75377
G1 X127.527 Y187.518 E5.78082
G1 X127.124 Y187.97 E5.80096
G1 X126.735 Y188.357 E5.81921
G1 X126.479 Y188.594 E5.83082
G1 X126.08 Y188.939 E5.84836
G1 X125.694 Y189.241 E5.86466
G1 X125.374 Y189.465 E5.87765
G1 X125.191 Y189.586 E5.88495
G1 X124.988 Y189.713 E5.89291
G1 X124.564 Y189.965 E5.90932
G1 X124.152 Y190.185 E5.92485
G1 X123.762 Y190.37 E5.93921
G1 X123.419 Y190.517 E5.95162
G1 X122.924 Y190.708 E5.96927
G1 X122.581 Y190.826 E5.98133
G1 X122.384 Y190.886 E5.98818
G1 X122.131 Y190.956 E5.99691
G1 X121.752 Y191.05 E6.0099
G1 X121.13 Y191.163 E6.03093
G1 X120.498 Y191.197 E6.05198
G1 X119.868 Y191.151 E6.07299
G1 X119.248 Y191.025 E6.09403
G1 X118.65 Y190.823 E6.11502
G1 X118.081 Y190.546 E6.13607
G1 X117.552 Y190.2 E6.1571
G1 X117.071 Y189.79 E6.17812
G1 X116.645 Y189.323 E6.19914
G1 X116.282 Y188.805 E6.22018
G1 X115.987 Y188.246 E6.2412
G1 X115.765 Y187.654 E6.26223
G1 X115.596 Y186.891 E6.28822
G1 X115.487 Y186.109 E6.31449
G1 X100.307 Y64.324 E10.39642
G1 X100.22 Y63.526 E10.42311
G1 X100.191 Y62.895 E10.44412
G1 X100.242 Y62.265 E10.46515
G1 X100.364 Y61.675 E10.48519
G1 X100.435 Y61.413 E10.49421
G1 X100.572 Y60.984 E10.50919
G1 X101.109 Y59.539 E10.56046
G1 X107.229 Y44.108 E11.11259
G0 F6000 X107.598 Y44.261
G1 F1200 X107.895 Y43.547 E11.13831
G1 X108.213 Y42.843 E11.16401
G1 X108.431 Y42.392 E11.18067
G1 X108.622 Y42.039 E11.19402
G1 X109.058 Y41.311 E11.22224
G1 X109.289 Y40.949 E11.23652
G1 X109.526 Y40.612 E11.25023
G1 X110.045 Y39.942 E11.27841
G1 X110.33 Y39.595 E11.29335
G1 X110.6 Y39.295 E11.30677
G1 X111.202 Y38.684 E11.3353
G1 X111.523 Y38.376 E11.3501
G1 X111.822 Y38.113 E11.36334
G1 X112.469 Y37.595 E11.39091
G1 X112.871 Y37.292 E11.40765
G1 X113.378 Y36.959 E11.42783
G1 X113.925 Y36.697 E11.448
G1 X114.501 Y36.508 E11.46816
G1 X115.004 Y36.409 E11.48521
G1 X115.14 Y36.39 E11.48978
G1 X115.744 Y36.346 E11.50992
G1 X116.349 Y36.382 E11.53008
G1 X116.892 Y36.483 E11.54845
G1 X117.144 Y36.546 E11.55709
G1 X117.269 Y36.58 E11.5614
G1 X118.036 Y36.795 E11.58789
G1 X118.735 Y37.003 E11.61215
G1 X118.962 Y37.077 E11.62009
G1 X119.619 Y37.311 E11.64329
G1 X120.029 Y37.465 E11.65785
G1 X120.703 Y37.728 E11.68192
G1 X120.928 Y37.823 E11.69004
G1 X121.621 Y38.137 E11.71535
G1 X122.015 Y38.323 E11.72984
G1 X122.616 Y38.616 E11.75207
G1 X122.871 Y38.751 E11.76167
G1 X123.84 Y39.302 E11.79875
G1 X124.443 Y39.663 E11.82212
G1 X124.941 Y40.008 E11.84227
G1 X125.39 Y40.416 E11.86245
G1 X125.782 Y40.879 E11.88263
G1 X125.974 Y41.161 E11.89397
G1 X126.057 Y41.293 E11.89916
G1 X126.345 Y41.827 E11.91934
G1 X126.561 Y42.394 E11.93952
G1 X126.7 Y42.984 E11.95968
G1 X126.76 Y43.587 E11.97984
G1 X126.741 Y44.193 E12
G1 X126.642 Y44.791 E12.02016
G1 X126.401 Y45.531 E12.04605
G1 X125.831 Y46.879 E12.09473
G1 X125.715 Y47.138 E12.10416
G1 X124.696 Y49.617 E12.19331
G1 X123.719 Y52.189 E12.28482
G1 X122.855 Y54.687 E12.37273
G1 X122.039 Y57.276 E12.46302
G1 X121.301 Y59.865 E12.55256
G1 X120.632 Y62.499 E12.64295
G1 X120.047 Y65.112 E12.73201
G1 X119.529 Y67.772 E12.82214
G1 X119.093 Y70.403 E12.91084
G1 X118.725 Y73.095 E13.00121
G1 X118.436 Y75.784 E13.09116
G1 X118.221 Y78.489 E13.18142
G1 X118.085 Y81.158 E13.2703
G1 X118.023 Y83.869 E13.36049
G1 X118.039 Y86.58 E13.45066
G1 X118.128 Y89.249 E13.53948
G1 X118.297 Y91.953 E13.6296
G1 X118.542 Y94.646 E13.71953
G1 X118.751 Y96.47 E13.7806
G1 X127.494 Y166.615 E16.13168
G1 X127.864 Y169.273 E16.22094
G1 X128.316 Y171.968 E16.31183
G1 X128.833 Y174.593 E16.40081
G1 X129.436 Y177.251 E16.49147
G1 X129.616 Y177.953 E16.51557
G1 X129.869 Y178.995 E16.55123
G1 X129.973 Y179.592 E16.57139
G1 X129.997 Y180.198 E16.59156
G1 X129.942 Y180.802 E16.61173
G1 X129.881 Y181.116 E16.62237
G1 X129.732 Y181.751 E16.64407
G1 X129.554 Y182.434 E16.66754
G1 X129.303 Y183.332 E16.69855
G1 X129.226 Y183.581 E16.70722
G1 X129.044 Y184.107 E16.72573
G1 X128.897 Y184.5 E16.73969
G1 X128.675 Y185.001 E16.75792
G1 X128.386 Y185.56 E16.77885
G1 X128.267 Y185.776 E16.78705
G1 X128.068 Y186.115 E16.80012
G1 X127.716 Y186.631 E16.8209
G1 X127.213 Y187.27 E16.84795
G1 X126.842 Y187.686 E16.86649
G1 X126.453 Y188.073 E16.88474
G1 X126.218 Y188.292 E16.89542
G1 X125.819 Y188.637 E16.91296
G1 X125.464 Y188.915 E16.92796
G1 X125.153 Y189.131 E16.94055
G1 X124.97 Y189.252 E16.94785
G1 X124.783 Y189.369 E16.95519
G1 X124.359 Y189.621 E16.97159
G1 X123.98 Y189.823 E16.98588
G1 X123.59 Y190.008 E17.00023
G1 X123.275 Y190.144 E17.01165
G1 X122.78 Y190.335 E17.02929
G1 X122.464 Y190.443 E17.0404
G1 X122.267 Y190.503 E17.04725
G1 X122.034 Y190.568 E17.05529
G1 X121.655 Y190.662 E17.06828
G1 X121.059 Y190.769 E17.08842
G1 X120.453 Y190.796 E17.1086
G1 X119.849 Y190.744 E17.12876
G1 X119.257 Y190.612 E17.14893
G1 X118.687 Y190.404 E17.16912
G1 X118.15 Y190.123 E17.18927
G1 X117.655 Y189.773 E17.20944
G1 X117.21 Y189.362 E17.22959
G1 X116.822 Y188.895 E17.24978
G1 X116.5 Y188.382 E17.26992
G1 X116.248 Y187.83 E17.29011
G1 X116.07 Y187.251 E17.31025
G1 X115.993 Y186.836 E17.32429
G1 X115.884 Y186.06 E17.35036
G1 X100.704 Y64.275 E21.43229
G1 X100.617 Y63.483 E21.45879
G1 X100.591 Y62.877 E21.47896
G1 X100.645 Y62.273 E21.49913
G1 X100.75 Y61.78 E21.51589
G1 X100.821 Y61.518 E21.52492
G1 X100.947 Y61.123 E21.53871
G1 X101.481 Y59.686 E21.5897
G1 X107.598 Y44.261 E22.14161
G0 F6000 X107.968 Y44.413
G1 F1200 X108.26 Y43.711 E22.1669
G1 X108.574 Y43.017 E22.19223
G1 X108.792 Y42.566 E22.20889
G1 X108.965 Y42.244 E22.22105
G1 X109.395 Y41.526 E22.24888
G1 X109.626 Y41.164 E22.26317
G1 X109.842 Y40.857 E22.27565
G1 X110.354 Y40.196 E22.30346
G1 X110.639 Y39.849 E22.3184
G1 X110.886 Y39.575 E22.33067
G1 X111.479 Y38.972 E22.3588
G1 X111.8 Y38.664 E22.37359
G1 X112.073 Y38.424 E22.38568
G1 X112.71 Y37.914 E22.41282
G1 X113.112 Y37.611 E22.42957
G1 X113.598 Y37.295 E22.44885
G1 X114.122 Y37.049 E22.4681
G1 X114.675 Y36.877 E22.48736
G1 X115.059 Y36.805 E22.50036
G1 X115.195 Y36.786 E22.50492
G1 X115.773 Y36.746 E22.52419
G1 X116.351 Y36.786 E22.54346
G1 X116.795 Y36.871 E22.5585
G1 X117.047 Y36.934 E22.56714
G1 X117.161 Y36.965 E22.57107
G1 X117.922 Y37.178 E22.59735
G1 X118.621 Y37.386 E22.62161
G1 X118.828 Y37.454 E22.62886
G1 X119.479 Y37.686 E22.65184
G1 X119.884 Y37.837 E22.66622
G1 X120.558 Y38.1 E22.69028
G1 X120.763 Y38.187 E22.69769
G1 X121.45 Y38.498 E22.72277
G1 X121.84 Y38.683 E22.73713
G1 X122.441 Y38.976 E22.75937
G1 X122.674 Y39.099 E22.76813
G1 X123.634 Y39.645 E22.80486
G1 X124.237 Y40.006 E22.82824
G1 X124.713 Y40.338 E22.84754
G1 X125.138 Y40.731 E22.86679
G1 X125.636 Y41.374 E22.89384
G1 X125.719 Y41.506 E22.89903
G1 X125.992 Y42.017 E22.9183
G1 X126.193 Y42.56 E22.93756
G1 X126.318 Y43.126 E22.95683
G1 X126.363 Y43.704 E22.97612
G1 X126.328 Y44.282 E22.99538
G1 X126.214 Y44.85 E23.01464
G1 X126.033 Y45.375 E23.03311
G1 X125.466 Y46.716 E23.08154
G1 X125.344 Y46.989 E23.09149
G1 X124.323 Y49.471 E23.18075
G1 X123.343 Y52.053 E23.2726
G1 X122.471 Y54.573 E23.3613
G1 X121.668 Y57.119 E23.45009
G1 X120.906 Y59.796 E23.54266
G1 X120.248 Y62.386 E23.63154
G1 X119.649 Y65.062 E23.72275
G1 X119.142 Y67.661 E23.81082
G1 X118.691 Y70.39 E23.90282
G1 X118.329 Y73.035 E23.99161
G1 X118.037 Y75.743 E24.0822
G1 X117.823 Y78.438 E24.17212
G1 X117.684 Y81.165 E24.26294
G1 X117.623 Y83.862 E24.35267
G1 X117.639 Y86.56 E24.4424
G1 X117.73 Y89.288 E24.53319
G1 X117.898 Y91.978 E24.62283
G1 X118.144 Y94.688 E24.71334
G1 X118.354 Y96.52 E24.77467
G1 X127.094 Y166.644 E27.12505
G1 X127.472 Y169.358 E27.21619
G1 X127.916 Y172.006 E27.30549
G1 X128.446 Y174.695 E27.39665
G1 X129.043 Y177.325 E27.48635
G1 X129.227 Y178.047 E27.51113
G1 X129.48 Y179.089 E27.54679
G1 X129.578 Y179.66 E27.56606
G1 X129.596 Y180.239 E27.58533
G1 X129.491 Y181.026 E27.61173
G1 X129.345 Y181.65 E27.63305
G1 X129.169 Y182.327 E27.65632
G1 X128.918 Y183.225 E27.68733
G1 X128.847 Y183.452 E27.69524
G1 X128.67 Y183.966 E27.71332
G1 X128.523 Y184.359 E27.72727
G1 X128.32 Y184.817 E27.74394
G1 X128.031 Y185.376 E27.76487
G1 X127.922 Y185.573 E27.77236
G1 X127.723 Y185.912 E27.78543
G1 X127.401 Y186.384 E27.80443
G1 X126.898 Y187.023 E27.83148
G1 X126.56 Y187.402 E27.84837
G1 X126.171 Y187.789 E27.86662
G1 X125.956 Y187.989 E27.87639
G1 X125.557 Y188.334 E27.89393
G1 X125.233 Y188.588 E27.90763
G1 X124.749 Y188.918 E27.92711
G1 X124.579 Y189.025 E27.93379
G1 X124.155 Y189.277 E27.9502
G1 X123.809 Y189.462 E27.96325
G1 X123.419 Y189.647 E27.9776
G1 X123.131 Y189.77 E27.98802
G1 X122.636 Y189.961 E28.00567
G1 X122.348 Y190.061 E28.0158
G1 X122.151 Y190.121 E28.02265
G1 X121.938 Y190.179 E28.03
G1 X121.559 Y190.273 E28.04298
G1 X120.989 Y190.374 E28.06224
G1 X120.41 Y190.395 E28.08151
G1 X119.833 Y190.336 E28.1008
G1 X119.271 Y190.198 E28.12005
G1 X118.732 Y189.984 E28.13934
G1 X118.228 Y189.698 E28.15861
G1 X117.769 Y189.346 E28.17785
G1 X117.362 Y188.933 E28.19713
G1 X117.016 Y188.469 E28.21638
G1 X116.737 Y187.961 E28.23566
G1 X116.53 Y187.42 E28.25493
G1 X116.389 Y186.78 E28.27672
G1 X116.281 Y186.01 E28.30259
G1 X101.101 Y64.225 E32.38452
G1 X101.015 Y63.439 E32.41081
G1 X100.992 Y62.86 E32.43009
G1 X101.049 Y62.284 E32.44934
G1 X101.136 Y61.884 E32.46295
G1 X101.207 Y61.622 E32.47198
G1 X101.323 Y61.262 E32.48456
G1 X101.853 Y59.834 E32.53522
G1 X107.968 Y44.413 E33.08698
G1 F2700 E28.58698
;MESH:magazine_spring.stl
G0 F6000 X111.252 Y45.717
G0 X112.15 Y46.072
G0 X113.971 Y45.094
G0 X113.328 Y51.552
G0 X113.155 Y61.953
;TYPE:WALL-INNER
G1 F2700 E33.08698
G1 F600 X113.186 Y61.876 E33.08974
G1 X113.195 Y61.854 E33.09053
G1 X113.19 Y61.877
G1 X113.155 Y61.953 E33.09055
G0 F6000 X113.279 Y61.473
G1 F1200 X113.297 Y61.331 E33.09531
G1 X113.325 Y61.122 E33.10232
G1 X113.246 Y60.513 E33.12275
G1 X113.059 Y60.059 E33.13908
G1 X113.011 Y59.943 E33.14325
G1 X112.636 Y59.456 E33.1637
G1 X112.147 Y59.08 E33.18421
G1 X111.579 Y58.846 E33.20464
G1 X110.969 Y58.766 E33.22511
G1 X110.36 Y58.846 E33.24554
G1 X109.79 Y59.081 E33.26604
G1 X109.303 Y59.457 E33.28651
G1 X108.929 Y59.943 E33.3069
G1 X108.693 Y60.513 E33.32742
G1 X108.612 Y61.122 E33.34786
G1 X108.693 Y61.731 E33.36829
G1 X108.929 Y62.301 E33.38881
G1 X109.303 Y62.787 E33.4092
G1 X109.79 Y63.163 E33.42967
G1 X110.173 Y63.322 E33.44346
G1 X110.297 Y63.373 E33.44792
G1 X110.36 Y63.399 E33.45019
G1 X110.431 Y63.408 E33.45257
G1 X110.969 Y63.478 E33.47061
G1 X111.211 Y63.447 E33.47873
G1 X111.336 Y63.431 E33.48292
G1 X111.213 Y63.46 E33.48299
G1 X110.971 Y63.49 E33.48321
G1 X110.412 Y63.56 E33.48747
G1 X110.195 Y63.62 E33.4927
G1 X110.078 Y63.686 E33.4965
G1 X109.962 Y63.751 E33.50093
G1 X109.76 Y63.948 E33.51031
G1 X109.625 Y64.187 E33.51944
G1 X109.55 Y64.445 E33.52838
G1 X109.549 Y64.673 E33.53596
G1 X116.173 Y117.836 E35.31784
G1 X122.79 Y170.925 E37.09725
G1 X122.791 Y170.95 E37.09808
G1 X122.82 Y171.452 E37.11481
G1 X122.822 Y171.479 E37.11571
G1 X122.787 Y172.018 E37.13367
G1 X122.678 Y172.557 E37.15196
G1 X121.126 Y178.347 E37.35134
G1 X121.07 Y178.778 E37.36579
G1 X121.132 Y179.257 E37.38186
G1 X121.317 Y179.706 E37.39801
G1 X121.613 Y180.09 E37.41414
G1 X121.998 Y180.386 E37.43029
G1 X122.4 Y180.552 E37.44475
G1 X123.201 Y180.767 E37.47234
G1 X123.536 Y180.833 E37.4837
G1 X123.901 Y180.859 E37.49587
G1 X124.206 Y180.839 E37.50603
G1 X124.244 Y180.837 E37.5073
G1 X124.572 Y180.797 E37.51829
G1 X124.61 Y180.792 E37.51956
G1 X124.584 Y180.894 E37.51975
G1 X124.576 Y180.925
G1 X124.567 Y180.961 E37.52092
G1 X124.319 Y181.889 E37.55286
G1 X124.019 Y182.725 E37.58241
G1 X123.838 Y183.06 E37.59507
G1 X123.612 Y183.455 E37.61021
G1 X123.368 Y183.772 E37.62351
G1 X123.08 Y184.122 E37.63859
G1 X122.797 Y184.391 E37.65157
G1 X122.446 Y184.691 E37.66693
G1 X122.123 Y184.912 E37.67995
G1 X121.745 Y185.14 E37.69463
G1 X121.416 Y185.296 E37.70674
G1 X121.387 Y185.309 E37.7078
G1 X121.047 Y185.441 E37.71993
G1 X121.037 Y185.353
G1 X121.034 Y185.322 E37.72091
G1 X105.789 Y63.025 E41.82001
G1 X105.951 Y62.518 E41.83771
G1 X106.308 Y61.62 E41.86986
G1 X112.646 Y45.636 E42.44175
G1 X113.112 Y44.635 E42.47848
G1 X113.678 Y43.721 E42.51423
G1 X114.356 Y42.871 E42.5504
G1 X115.12 Y42.118 E42.58608
G1 X115.819 Y41.574 E42.61554
G1 X117.234 Y41.971 E42.66442
G1 X118.805 Y42.558 E42.7202
G1 X120.217 Y43.226 E42.77215
G1 X120.335 Y43.281 E42.77648
G1 X120.595 Y43.432 E42.78648
G1 X120.771 Y43.534 E42.79325
G1 X120.505 Y43.588 E42.79655
G1 X120.373 Y43.603 E42.79841
G1 X120.243 Y43.617 E42.80237
G1 X119.498 Y43.703 E42.82731
G1 X119.086 Y43.751 E42.84111
