;FLAVOR:Marlin
;TIME:2733
;Filament used: 2.59297m
;Layer height: 0.2
;MINX:82.649
;MINY:83.876
;MINZ:0.2
;MAXX:152.37
;MAXY:151.13
;MAXZ:12
;Generated with Cura_SteamEngine 4.5.0
M140 S60
M105
M190 S60
M104 S205
M105
M109 S205
M82 ;absolute extrusion mode
; Ender 3 Custom Start G-code
G92 E0 ; Reset Extruder
G28 ; Home all axes
G29 L1 A ; Activate unified bed levelling
G29 J
G1 Z2.0 F3000 ; Move Z Axis up little to prevent scratching of Heat Bed
G1 X0.1 Y20 Z0.3 F5000.0 ; Move to start position
G1 X0.1 Y200.0 Z0.3 F1500.0 E15 ; Draw the first line
G1 X0.4 Y200.0 Z0.3 F5000.0 ; Move to side a little
G1 X0.4 Y20 Z0.3 F1500.0 E30 ; Draw the second line
G92 E0 ; Reset Extruder
G1 Z2.0 F3000 ; Move Z Axis up little to prevent scratching of Heat Bed
G1 X5 Y20 Z0.3 F5000.0 ; Move over to prevent blob squish
G92 E0
G92 E0
G1 F2700 E-4.5
;LAYER_COUNT:60
;LAYER:0
M107
G0 F6000 X85.454 Y85.376 Z0.2
;TYPE:SKIRT
G1 F2700 E0
G1 F1200 X85.924 Y84.953 E0.02103
G1 X86.444 Y84.593 E0.04207
G1 X87.005 Y84.301 E0.0631
G1 X87.598 Y84.083 E0.08412
G1 X88.214 Y83.941 E0.10514
G1 X88.731 Y83.883 E0.12244
G1 X88.849 Y83.876 E0.12638
G1 X89.481 Y83.878 E0.1474
G1 X90.108 Y83.961 E0.16843
G1 X90.719 Y84.121 E0.18944
G1 X91.161 Y84.291 E0.20519
G1 X91.661 Y84.512 E0.22337
G1 X92.666 Y84.976 E0.26019
G1 X93.504 Y85.349 E0.2907
G1 X94.121 Y85.633 E0.31329
G1 X94.805 Y85.925 E0.33803
G1 X95.4 Y86.189 E0.35968
G1 X96.548 Y86.67 E0.40107
G1 X99.678 Y87.892 E0.51283
G1 X102.23 Y88.797 E0.60289
G1 X104.748 Y89.61 E0.6909
G1 X107.376 Y90.377 E0.78195
G1 X109.639 Y90.972 E0.85978
G1 X112.25 Y91.586 E0.94899
G1 X114.024 Y91.959 E1.00928
G1 X114.847 Y92.125 E1.03721
G1 X115.668 Y92.302 E1.06514
G1 X115.913 Y92.362 E1.07353
G1 X116.374 Y92.486 E1.08941
G1 X116.933 Y92.672 E1.109
G1 X117.52 Y92.907 E1.13003
G1 X117.968 Y93.113 E1.14643
G1 X118.17 Y93.218 E1.154
G1 X118.416 Y93.354 E1.16335
G1 X118.667 Y93.503 E1.17306
G1 X118.902 Y93.652 E1.18232
G1 X119.837 Y94.281 E1.2198
G1 X120.12 Y94.48 E1.2313
G1 X120.84 Y95.001 E1.26086
G1 X121.376 Y95.409 E1.28327
G1 X121.883 Y95.806 E1.30469
G1 X122.536 Y96.337 E1.33268
G1 X123.091 Y96.811 E1.35695
G1 X123.56 Y97.222 E1.37769
G1 X124.185 Y97.79 E1.40578
G1 X124.694 Y98.275 E1.42917
G1 X125.14 Y98.712 E1.44994
G1 X125.737 Y99.316 E1.47818
G1 X126.217 Y99.827 E1.5015
G1 X126.602 Y100.248 E1.52048
G1 X127.217 Y100.942 E1.55132
G1 X127.652 Y101.459 E1.57379
G1 X128.028 Y101.92 E1.59358
G1 X128.604 Y102.646 E1.6244
G1 X129.006 Y103.183 E1.64671
G1 X129.344 Y103.645 E1.66575
G1 X129.856 Y104.369 E1.69524
G1 X130.293 Y105.023 E1.7214
G1 X130.582 Y105.467 E1.73902
G1 X131.074 Y106.254 E1.76989
G1 X131.404 Y106.812 E1.79146
G1 X131.718 Y107.358 E1.81241
G1 X132.934 Y109.554 E1.89589
G1 X134.258 Y111.845 E1.9839
G1 X135.686 Y114.162 E2.07443
G1 X137.157 Y116.405 E2.16364
G1 X138.692 Y118.606 E2.25289
G1 X140.288 Y120.762 E2.34211
G1 X141.951 Y122.881 E2.4317
G1 X143.656 Y124.932 E2.52041
G1 X145.44 Y126.959 E2.61022
G1 X147.277 Y128.93 E2.69984
G1 X149.182 Y130.86 E2.79003
G1 X150.129 Y131.78 E2.83394
G1 X150.554 Y132.248 E2.85497
G1 X150.877 Y132.703 E2.87353
G1 X151.013 Y132.919 E2.88202
G1 X151.315 Y133.474 E2.90303
G1 X151.624 Y134.335 E2.93346
G1 X151.836 Y135.167 E2.96202
G1 X151.993 Y135.881 E2.98633
G1 X152.053 Y136.196 E2.997
G1 X152.196 Y137.035 E3.0253
G1 X152.268 Y137.54 E3.04227
G1 X152.335 Y138.106 E3.06123
G1 X152.37 Y138.737 E3.08225
G1 X152.324 Y139.368 E3.10329
G1 X152.2 Y139.988 E3.12432
G1 X152.046 Y140.47 E3.14115
G1 X151.8 Y141.052 E3.16217
G1 X151.483 Y141.599 E3.18319
G1 X151.1 Y142.102 E3.20422
G1 X150.656 Y142.552 E3.22525
G1 X149.971 Y143.066 E3.25373
G1 X149.163 Y143.569 E3.28539
G1 X144.624 Y146.293 E3.46145
G1 X144.027 Y146.639 E3.4844
G1 X143.461 Y146.921 E3.50544
G1 X142.864 Y147.129 E3.52646
G1 X142.533 Y147.209 E3.53779
G1 X139.944 Y147.745 E3.62573
G1 X137.311 Y148.36 E3.71566
G1 X134.679 Y149.055 E3.8062
G1 X132.118 Y149.808 E3.89498
G1 X131.081 Y150.146 E3.93126
G1 X129.44 Y150.654 E3.98839
G1 X128.988 Y150.771 E4.00392
G1 X128.707 Y150.83 E4.01347
G1 X128.482 Y150.872 E4.02109
G1 X128.236 Y150.912 E4.02938
G1 X127.91 Y150.954 E4.04031
G1 X127.544 Y150.989 E4.05254
G1 X127.285 Y151.007 E4.06117
G1 X127.032 Y151.018 E4.0696
G1 X126.795 Y151.023 E4.07748
G1 X126.398 Y151.019 E4.09068
G1 X125.609 Y150.992 E4.11694
G1 X124.726 Y150.947 E4.14635
G1 X122.036 Y150.886 E4.23584
G1 X119.349 Y150.902 E4.32521
G1 X116.671 Y150.993 E4.41434
G1 X115.076 Y151.093 E4.46749
G1 X114.34 Y151.13 E4.492
G1 X113.708 Y151.121 E4.51302
G1 X113.082 Y151.034 E4.53404
G1 X112.472 Y150.867 E4.55508
G1 X111.888 Y150.626 E4.57609
G1 X111.339 Y150.312 E4.59713
G1 X110.834 Y149.932 E4.61815
G1 X110.381 Y149.491 E4.63917
G1 X109.988 Y148.996 E4.6602
G1 X109.66 Y148.456 E4.68121
G1 X109.429 Y147.948 E4.69977
G1 X109.078 Y147.037 E4.73224
G1 X108.968 Y146.72 E4.7434
G1 X108.885 Y146.458 E4.75254
G1 X108.67 Y145.699 E4.77878
G1 X108.477 Y144.918 E4.80554
G1 X107.951 Y142.371 E4.89204
G1 X107.348 Y139.817 E4.97932
G1 X106.648 Y137.193 E5.06965
G1 X105.885 Y134.62 E5.15891
G1 X105.047 Y132.064 E5.24838
G1 X104.137 Y129.533 E5.33783
G1 X103.161 Y127.046 E5.42669
G1 X102.094 Y124.536 E5.51741
G1 X100.983 Y122.113 E5.60606
G1 X99.802 Y119.719 E5.69485
G1 X98.547 Y117.346 E5.78413
G1 X97.203 Y114.973 E5.87484
G1 X95.834 Y112.706 E5.96292
G1 X94.372 Y110.433 E6.05281
G1 X92.864 Y108.226 E6.14172
G1 X91.282 Y106.048 E6.23125
G1 X89.64 Y103.916 E6.32075
G1 X87.937 Y101.83 E6.41032
G1 X86.175 Y99.792 E6.49992
G1 X84.562 Y98.024 E6.57952
G1 X84.051 Y97.478 E6.6044
G1 X83.696 Y97.053 E6.62281
G1 X83.64 Y96.978 E6.62593
G1 X83.294 Y96.449 E6.64695
G1 X83.018 Y95.88 E6.66798
G1 X82.816 Y95.281 E6.68901
G1 X82.692 Y94.662 E6.71001
G1 X82.649 Y93.828 E6.73778
G1 X82.654 Y93.671 E6.74301
G1 X82.714 Y93.042 E6.76402
G1 X82.804 Y92.604 E6.77889
G1 X82.954 Y92.012 E6.79921
G1 X83.966 Y88.232 E6.92936
G1 X84.141 Y87.613 E6.95075
G1 X84.351 Y87.017 E6.97177
G1 X84.634 Y86.452 E6.99279
G1 X84.967 Y85.954 E7.01271
G1 X85.042 Y85.855 E7.01684
G1 X85.454 Y85.376 E7.03786
G0 F6000 X85.758 Y85.638
G1 F1200 X86.212 Y85.236 E7.05803
G1 X86.714 Y84.898 E7.07816
G1 X87.257 Y84.628 E7.09833
G1 X87.831 Y84.432 E7.1185
G1 X88.426 Y84.313 E7.13868
G1 X88.873 Y84.275 E7.1536
G1 X89.479 Y84.279 E7.17376
G1 X90.079 Y84.363 E7.19391
G1 X90.664 Y84.525 E7.2141
G1 X90.999 Y84.657 E7.22607
G1 X91.493 Y84.876 E7.24405
G1 X92.476 Y85.33 E7.28006
G1 X93.337 Y85.713 E7.3114
G1 X93.946 Y85.993 E7.3337
G1 X94.643 Y86.291 E7.35891
G1 X95.241 Y86.557 E7.38068
G1 X96.409 Y87.046 E7.42279
G1 X99.525 Y88.262 E7.53404
G1 X102.069 Y89.165 E7.62383
G1 X104.661 Y90.001 E7.71441
G1 X107.277 Y90.764 E7.80505
G1 X109.525 Y91.356 E7.88236
G1 X112.203 Y91.985 E7.97386
G1 X113.903 Y92.343 E8.03164
G1 X114.762 Y92.516 E8.06079
G1 X115.583 Y92.693 E8.08872
G1 X115.809 Y92.748 E8.09646
G1 X116.27 Y92.872 E8.11233
G1 X116.785 Y93.044 E8.13039
G1 X117.372 Y93.279 E8.15142
G1 X117.784 Y93.467 E8.16648
G1 X117.986 Y93.572 E8.17406
G1 X118.212 Y93.698 E8.18266
G1 X118.463 Y93.847 E8.19237
G1 X118.679 Y93.984 E8.20088
G1 X119.607 Y94.608 E8.23807
G1 X119.886 Y94.804 E8.24941
G1 X120.598 Y95.319 E8.27864
G1 X121.13 Y95.725 E8.3009
G1 X121.631 Y96.117 E8.32206
G1 X122.276 Y96.641 E8.3497
G1 X122.827 Y97.112 E8.37381
G1 X123.291 Y97.519 E8.39433
G1 X123.909 Y98.08 E8.42209
G1 X124.414 Y98.561 E8.44529
G1 X124.856 Y98.994 E8.46587
G1 X125.446 Y99.589 E8.49374
G1 X125.922 Y100.097 E8.51689
G1 X126.303 Y100.514 E8.53568
G1 X126.911 Y101.2 E8.56617
G1 X127.342 Y101.713 E8.58845
G1 X127.715 Y102.169 E8.60805
G1 X128.284 Y102.887 E8.63852
G1 X128.684 Y103.419 E8.66066
G1 X129.018 Y103.877 E8.67951
G1 X129.524 Y104.592 E8.70864
G1 X129.958 Y105.242 E8.73464
G1 X130.243 Y105.68 E8.75202
G1 X130.73 Y106.457 E8.78252
G1 X131.057 Y107.011 E8.80392
G1 X131.368 Y107.552 E8.82467
G1 X132.572 Y109.726 E8.90733
G1 X133.93 Y112.075 E8.99757
G1 X135.328 Y114.345 E9.08624
G1 X136.838 Y116.647 E9.17781
G1 X138.363 Y118.834 E9.26649
G1 X139.963 Y120.996 E9.35595
G1 X141.645 Y123.138 E9.44653
G1 X143.35 Y125.189 E9.53524
G1 X145.164 Y127.25 E9.62656
G1 X146.966 Y129.183 E9.71445
G1 X148.924 Y131.168 E9.80719
G1 X149.85 Y132.067 E9.85011
G1 X150.256 Y132.517 E9.87027
G1 X150.539 Y132.916 E9.88654
G1 X150.675 Y133.132 E9.89503
G1 X150.963 Y133.665 E9.91518
G1 X151.236 Y134.435 E9.94235
G1 X151.445 Y135.254 E9.97047
G1 X151.601 Y135.958 E9.99445
G1 X151.659 Y136.264 E10.00481
G1 X151.801 Y137.093 E10.03278
G1 X151.871 Y137.587 E10.04938
G1 X151.938 Y138.153 E10.06833
G1 X151.97 Y138.759 E10.08852
G1 X151.921 Y139.363 E10.10867
G1 X151.713 Y140.209 E10.13765
G1 X151.668 Y140.338 E10.14219
G1 X151.431 Y140.896 E10.16236
G1 X151.123 Y141.418 E10.18252
G1 X150.749 Y141.895 E10.20268
G1 X150.315 Y142.319 E10.22286
G1 X149.759 Y142.726 E10.24577
G1 X148.957 Y143.226 E10.27721
G1 X144.424 Y145.947 E10.45305
G1 X143.827 Y146.293 E10.476
G1 X143.283 Y146.562 E10.49619
G1 X142.452 Y146.818 E10.52511
G1 X139.813 Y147.364 E10.61474
G1 X137.223 Y147.969 E10.7032
G1 X134.569 Y148.67 E10.7945
G1 X132.007 Y149.423 E10.88332
G1 X130.962 Y149.764 E10.91988
G1 X129.321 Y150.272 E10.97702
G1 X128.906 Y150.38 E10.99128
G1 X128.625 Y150.439 E11.00083
G1 X128.418 Y150.477 E11.00783
G1 X128.172 Y150.517 E11.01612
G1 X127.872 Y150.556 E11.02618
G1 X127.506 Y150.591 E11.03841
G1 X127.268 Y150.608 E11.04634
G1 X127.015 Y150.619 E11.05477
G1 X126.796 Y150.623 E11.06205
G1 X126.412 Y150.619 E11.07483
G1 X125.63 Y150.592 E11.10085
G1 X124.756 Y150.548 E11.12996
G1 X122.042 Y150.486 E11.22025
G1 X119.333 Y150.502 E11.31035
G1 X116.668 Y150.592 E11.39904
G1 X115.056 Y150.693 E11.45276
G1 X114.32 Y150.73 E11.47727
G1 X113.714 Y150.721 E11.49743
G1 X113.114 Y150.631 E11.51761
G1 X112.531 Y150.464 E11.53778
G1 X111.976 Y150.222 E11.55792
G1 X111.457 Y149.908 E11.57809
G1 X110.983 Y149.529 E11.59828
G1 X110.564 Y149.091 E11.61844
G1 X110.206 Y148.602 E11.63859
G1 X109.802 Y147.803 E11.66837
G1 X109.456 Y146.906 E11.70035
G1 X109.346 Y146.589 E11.71151
G1 X109.27 Y146.348 E11.71992
G1 X109.058 Y145.601 E11.74574
G1 X108.869 Y144.837 E11.77192
G1 X108.347 Y142.312 E11.85768
G1 X107.735 Y139.719 E11.94629
G1 X107.032 Y137.081 E12.03709
G1 X106.262 Y134.486 E12.12712
G1 X105.427 Y131.94 E12.21624
G1 X104.514 Y129.399 E12.30604
G1 X103.525 Y126.879 E12.39608
G1 X102.473 Y124.406 E12.48547
G1 X101.34 Y121.935 E12.57588
G1 X100.156 Y119.534 E12.66492
G1 X98.882 Y117.126 E12.75553
G1 X97.559 Y114.79 E12.84482
G1 X96.17 Y112.488 E12.93424
G1 X94.717 Y110.229 E13.02358
G1 X93.174 Y107.972 E13.11451
G1 X91.595 Y105.797 E13.20391
G1 X89.965 Y103.681 E13.29274
G1 X88.233 Y101.561 E13.3838
G1 X86.473 Y99.524 E13.47333
G1 X84.897 Y97.797 E13.5511
G1 X84.343 Y97.205 E13.57806
G1 X84.016 Y96.814 E13.59502
G1 X83.96 Y96.739 E13.59813
G1 X83.63 Y96.23 E13.61831
G1 X83.37 Y95.683 E13.63845
G1 X83.184 Y95.106 E13.65861
G1 X83.076 Y94.509 E13.67879
G1 X83.048 Y93.841 E13.70103
G1 X83.053 Y93.684 E13.70625
G1 X83.113 Y93.08 E13.72644
G1 X83.191 Y92.702 E13.73928
G1 X83.34 Y92.115 E13.75942
G1 X84.35 Y88.341 E13.88936
G1 X84.525 Y87.722 E13.91076
G1 X84.729 Y87.15 E13.93096
G1 X85.005 Y86.611 E13.9511
G1 X85.285 Y86.195 E13.96778
G1 X85.36 Y86.096 E13.97191
G1 X85.758 Y85.638 E13.99209
G0 F6000 X86.06 Y85.901
G1 F1200 X86.497 Y85.521 E14.01135
G1 X86.983 Y85.205 E14.03063
G1 X87.507 Y84.959 E14.04988
G1 X88.06 Y84.787 E14.06914
G1 X88.778 Y84.681 E14.09328
G1 X88.896 Y84.674 E14.09722
G1 X89.476 Y84.68 E14.11651
G1 X90.049 Y84.765 E14.13577
G1 X90.838 Y85.023 E14.16338
G1 X91.326 Y85.239 E14.18113
G1 X92.363 Y85.718 E14.21913
G1 X93.17 Y86.076 E14.24849
G1 X93.801 Y86.366 E14.27159
G1 X94.481 Y86.656 E14.29618
G1 X95.065 Y86.915 E14.31742
G1 X96.272 Y87.421 E14.36095
G1 X99.411 Y88.646 E14.47303
G1 X101.949 Y89.547 E14.5626
G1 X104.531 Y90.38 E14.65284
G1 X107.143 Y91.142 E14.74333
G1 X109.438 Y91.746 E14.82227
G1 X112.116 Y92.375 E14.91376
G1 X113.859 Y92.742 E14.973
G1 X114.678 Y92.907 E15.00079
G1 X115.499 Y93.084 E15.02873
G1 X115.705 Y93.134 E15.03578
G1 X116.166 Y93.258 E15.05165
G1 X116.636 Y93.415 E15.06814
G1 X117.223 Y93.65 E15.08917
G1 X117.599 Y93.822 E15.10292
G1 X117.801 Y93.927 E15.11049
G1 X118.008 Y94.042 E15.11837
G1 X118.259 Y94.191 E15.12807
G1 X118.456 Y94.316 E15.13583
G1 X119.377 Y94.936 E15.17276
G1 X119.612 Y95.101 E15.18231
G1 X120.355 Y95.637 E15.21278
G1 X120.883 Y96.04 E15.23487
G1 X121.38 Y96.429 E15.25587
G1 X122.016 Y96.945 E15.28311
G1 X122.526 Y97.381 E15.30542
G1 X123.023 Y97.816 E15.32739
G1 X123.634 Y98.37 E15.35482
G1 X124.134 Y98.847 E15.37781
G1 X124.573 Y99.276 E15.39822
G1 X125.154 Y99.863 E15.42569
G1 X125.595 Y100.333 E15.44713
G1 X126.004 Y100.779 E15.46725
G1 X126.605 Y101.458 E15.49741
G1 X127.033 Y101.966 E15.51951
G1 X127.402 Y102.418 E15.53891
G1 X127.964 Y103.127 E15.56901
G1 X128.361 Y103.655 E15.59098
G1 X128.692 Y104.108 E15.60964
G1 X129.191 Y104.814 E15.63839
G1 X129.623 Y105.46 E15.66424
G1 X129.904 Y105.893 E15.68141
G1 X130.386 Y106.661 E15.71157
G1 X130.686 Y107.168 E15.73116
G1 X131.018 Y107.746 E15.75333
G1 X132.199 Y109.879 E15.83442
G1 X133.577 Y112.264 E15.92604
G1 X135.023 Y114.61 E16.0177
G1 X136.481 Y116.833 E16.10612
G1 X138.042 Y119.071 E16.19687
G1 X139.66 Y121.257 E16.28733
G1 X141.324 Y123.378 E16.37699
G1 X143.073 Y125.481 E16.46797
G1 X144.837 Y127.485 E16.55676
G1 X146.689 Y129.472 E16.64711
G1 X148.621 Y131.43 E16.7386
G1 X149.572 Y132.354 E16.7827
G1 X149.958 Y132.785 E16.80194
G1 X150.2 Y133.129 E16.81593
G1 X150.336 Y133.345 E16.82442
G1 X150.61 Y133.856 E16.84371
G1 X150.849 Y134.535 E16.86765
G1 X151.055 Y135.342 E16.89535
G1 X151.208 Y136.034 E16.91892
G1 X151.265 Y136.332 E16.92901
G1 X151.405 Y137.151 E16.95665
G1 X151.474 Y137.634 E16.97287
G1 X151.541 Y138.2 E16.99183
G1 X151.569 Y138.779 E17.01111
G1 X151.518 Y139.356 E17.03038
G1 X151.336 Y140.077 E17.05511
G1 X151.291 Y140.206 E17.05965
G1 X151.063 Y140.739 E17.07894
G1 X150.763 Y141.235 E17.09822
G1 X150.399 Y141.685 E17.11747
G1 X149.976 Y142.081 E17.13674
G1 X149.548 Y142.387 E17.15424
G1 X148.751 Y142.883 E17.18546
G1 X144.223 Y145.601 E17.36111
G1 X143.626 Y145.947 E17.38406
G1 X143.106 Y146.202 E17.40332
G1 X142.371 Y146.426 E17.42888
G1 X139.757 Y146.967 E17.51766
G1 X137.102 Y147.588 E17.60835
G1 X134.493 Y148.276 E17.6981
G1 X131.876 Y149.045 E17.78882
G1 X130.844 Y149.382 E17.82493
G1 X129.203 Y149.89 E17.88206
G1 X128.824 Y149.988 E17.89508
G1 X128.354 Y150.083 E17.91103
G1 X128.108 Y150.123 E17.91932
G1 X127.834 Y150.158 E17.92851
G1 X127.468 Y150.193 E17.94074
G1 X127.25 Y150.208 E17.948
G1 X126.798 Y150.223 E17.96305
G1 X126.425 Y150.22 E17.97545
G1 X125.65 Y150.193 E18.00124
G1 X124.749 Y150.147 E18.03125
G1 X122.049 Y150.086 E18.12108
G1 X119.353 Y150.102 E18.21075
G1 X116.629 Y150.194 E18.3014
G1 X115.036 Y150.294 E18.35449
G1 X114.3 Y150.331 E18.379
G1 X113.721 Y150.32 E18.39826
G1 X113.148 Y150.229 E18.41755
G1 X112.594 Y150.061 E18.43681
G1 X112.068 Y149.818 E18.45608
G1 X111.581 Y149.505 E18.47534
G1 X111.141 Y149.128 E18.49461
G1 X110.758 Y148.694 E18.51386
G1 X110.437 Y148.211 E18.53315
G1 X110.175 Y147.658 E18.5535
G1 X109.834 Y146.775 E18.58498
G1 X109.724 Y146.458 E18.59614
G1 X109.654 Y146.237 E18.60385
G1 X109.446 Y145.502 E18.62926
G1 X109.261 Y144.756 E18.65482
G1 X108.742 Y142.245 E18.74011
G1 X108.117 Y139.597 E18.8306
G1 X107.417 Y136.969 E18.92105
G1 X106.653 Y134.396 E19.01032
G1 X105.797 Y131.786 E19.10168
G1 X104.887 Y129.255 E19.19114
G1 X103.902 Y126.743 E19.28088
G1 X102.834 Y124.231 E19.37167
G1 X101.705 Y121.77 E19.46173
G1 X100.511 Y119.349 E19.55151
G1 X99.241 Y116.948 E19.64185
G1 X97.916 Y114.608 E19.73129
G1 X96.505 Y112.271 E19.82209
G1 X95.024 Y109.967 E19.91318
G1 X93.505 Y107.746 E20.00268
G1 X91.92 Y105.564 E20.09238
G1 X90.276 Y103.43 E20.18198
G1 X88.545 Y101.31 E20.27301
G1 X86.772 Y99.259 E20.36318
G1 X85.189 Y97.524 E20.4413
G1 X84.635 Y96.932 E20.46826
G1 X84.337 Y96.575 E20.48373
G1 X84.281 Y96.5 E20.48684
G1 X83.967 Y96.013 E20.50612
