;FLAVOR:Marlin
;TIME:1540
;Filament used: 0.938188m
;Layer height: 0.2
;MINX:87.107
;MINY:107.955
;MINZ:0.2
;MAXX:131.9
;MAXY:153.335
;MAXZ:8
;Generated with Cura_SteamEngine 4.5.0
M140 S60
M105
M190 S60
M104 S205
M105
M109 S205
M82 ;absolute extrusion mode
; Ender 3 Custom Start G-code
G92 E0 ; Reset Extruder
G28 ; Home all axes
G29 L1 A ; Activate unified bed levelling
G29 J
G1 Z2.0 F3000 ; Move Z Axis up little to prevent scratching of Heat Bed
G1 X0.1 Y20 Z0.3 F5000.0 ; Move to start position
G1 X0.1 Y200.0 Z0.3 F1500.0 E15 ; Draw the first line
G1 X0.4 Y200.0 Z0.3 F5000.0 ; Move to side a little
G1 X0.4 Y20 Z0.3 F1500.0 E30 ; Draw the second line
G92 E0 ; Reset Extruder
G1 Z2.0 F3000 ; Move Z Axis up little to prevent scratching of Heat Bed
G1 X5 Y20 Z0.3 F5000.0 ; Move over to prevent blob squish
G92 E0
G92 E0
G1 F2700 E-4.5
;LAYER_COUNT:40
;LAYER:0
M107
G0 F6000 X93.437 Y110.058 Z0.2
;TYPE:SKIRT
G1 F2700 E0
G1 F1200 X94.156 Y109.542 E0.02944
G1 X94.919 Y109.094 E0.05886
G1 X95.719 Y108.716 E0.08829
G1 X96.551 Y108.411 E0.11777
G1 X97.406 Y108.183 E0.1472
G1 X98.279 Y108.033 E0.17666
G1 X99.161 Y107.963 E0.20609
G1 X100.245 Y107.985 E0.24215
G1 X104.745 Y108.328 E0.39225
G1 X105.624 Y108.435 E0.4217
G1 X106.489 Y108.621 E0.45113
G1 X107.334 Y108.885 E0.48058
G1 X108.152 Y109.223 E0.51001
G1 X108.936 Y109.634 E0.53946
G1 X109.499 Y109.997 E0.56174
G1 X109.603 Y109.921 E0.56602
G1 X110.363 Y109.468 E0.59545
G1 X111.161 Y109.084 E0.6249
G1 X111.99 Y108.775 E0.65433
G1 X112.844 Y108.541 E0.68378
G1 X113.715 Y108.386 E0.7132
G1 X114.246 Y108.33 E0.73096
G1 X118.743 Y107.983 E0.88098
G1 X119.628 Y107.955 E0.91043
G1 X120.512 Y108.007 E0.93988
G1 X121.387 Y108.138 E0.96931
G1 X122.247 Y108.348 E0.99875
G1 X123.084 Y108.634 E1.02817
G1 X123.893 Y108.995 E1.05764
G1 X124.665 Y109.428 E1.08708
G1 X125.395 Y109.928 E1.11651
G1 X126.078 Y110.492 E1.14597
G1 X126.706 Y111.115 E1.17539
G1 X127.276 Y111.793 E1.20485
G1 X127.782 Y112.519 E1.23428
G1 X128.22 Y113.288 E1.26372
G1 X128.588 Y114.094 E1.29319
G1 X128.881 Y114.929 E1.32262
G1 X129.098 Y115.787 E1.35205
G1 X129.236 Y116.661 E1.38148
G1 X129.297 Y117.747 E1.41766
G1 X129.304 Y127.323 E1.73616
G1 X131.638 Y137.212 E2.07411
G1 X131.802 Y138.082 E2.10355
G1 X131.887 Y138.963 E2.13299
G1 X131.9 Y139.463 E2.14963
G1 X131.9 Y140.071 E2.16985
G1 X131.86 Y140.955 E2.19928
G1 X131.74 Y141.832 E2.22872
G1 X131.542 Y142.695 E2.25817
G1 X131.267 Y143.536 E2.2876
G1 X130.953 Y144.276 E2.31434
G1 X130.549 Y145.064 E2.34379
G1 X130.075 Y145.812 E2.37324
G1 X129.536 Y146.514 E2.40268
G1 X128.936 Y147.164 E2.4321
G1 X128.279 Y147.758 E2.46156
G1 X127.572 Y148.29 E2.49099
G1 X126.819 Y148.756 E2.52044
G1 X126.028 Y149.152 E2.54986
G1 X125.679 Y149.289 E2.56233
G1 X125.099 Y150.017 E2.59329
G1 X124.484 Y150.654 E2.62274
G1 X123.814 Y151.232 E2.65217
G1 X123.095 Y151.748 E2.68161
G1 X122.332 Y152.197 E2.71105
G1 X121.531 Y152.575 E2.74051
G1 X120.7 Y152.879 E2.76994
G1 X119.845 Y153.107 E2.79937
G1 X118.972 Y153.257 E2.82883
G1 X117.759 Y153.334 E2.86926
G1 X116.644 Y153.335 E2.90635
G1 X115.759 Y153.296 E2.93581
G1 X114.882 Y153.177 E2.96525
G1 X114.019 Y152.979 E2.9947
G1 X113.178 Y152.705 E3.02411
G1 X112.113 Y152.229 E3.06291
G1 X109.497 Y150.864 E3.16105
G1 X108.802 Y151.233 E3.18723
G1 X106.982 Y152.193 E3.25566
G1 X106.181 Y152.57 E3.28511
G1 X105.35 Y152.873 E3.31453
G1 X104.494 Y153.1 E3.34398
G1 X103.622 Y153.249 E3.37341
G1 X102.571 Y153.323 E3.40845
G1 X101.815 Y153.334 E3.4336
G1 X101.268 Y153.335 E3.45179
G1 X100.384 Y153.297 E3.48122
G1 X99.506 Y153.179 E3.51068
G1 X98.643 Y152.982 E3.54013
G1 X97.801 Y152.708 E3.56958
G1 X96.988 Y152.36 E3.59899
G1 X96.209 Y151.939 E3.62844
G1 X95.471 Y151.45 E3.65789
G1 X94.78 Y150.896 E3.68734
G1 X94.143 Y150.282 E3.71677
G1 X93.563 Y149.613 E3.74622
G1 X93.335 Y149.296 E3.75921
G1 X92.805 Y149.072 E3.77834
G1 X92.024 Y148.654 E3.80781
G1 X91.351 Y148.217 E3.8345
G1 X90.646 Y147.682 E3.86393
G1 X89.992 Y147.085 E3.89338
G1 X89.395 Y146.432 E3.92281
G1 X88.859 Y145.727 E3.95227
G1 X88.388 Y144.977 E3.98172
G1 X87.988 Y144.188 E4.01115
G1 X87.66 Y143.366 E4.04058
G1 X87.408 Y142.517 E4.07004
G1 X87.233 Y141.65 E4.09945
G1 X87.12 Y140.327 E4.14362
G1 X87.107 Y139.6 E4.1678
G1 X87.131 Y138.715 E4.19725
G1 X87.235 Y137.836 E4.22669
G1 X87.367 Y137.175 E4.24911
G1 X89.699 Y127.287 E4.58701
G1 X89.7 Y117.756 E4.90401
G1 X89.74 Y116.872 E4.93344
G1 X89.86 Y115.995 E4.96288
G1 X90.058 Y115.132 E4.99233
G1 X90.333 Y114.291 E5.02176
G1 X90.684 Y113.478 E5.05121
G1 X91.106 Y112.7 E5.08065
G1 X91.596 Y111.963 E5.11009
G1 X92.151 Y111.273 E5.13954
G1 X92.767 Y110.637 E5.16899
G1 X93.437 Y110.058 E5.19844
G0 F6000 X93.826 Y110.263
G1 F1200 X94.54 Y109.772 E5.22726
G1 X95.297 Y109.349 E5.2561
G1 X96.089 Y108.998 E5.28492
G1 X96.911 Y108.721 E5.31377
G1 X97.754 Y108.52 E5.34259
G1 X98.613 Y108.399 E5.37144
G1 X99.479 Y108.357 E5.40028
G1 X100.214 Y108.384 E5.42474
G1 X104.714 Y108.727 E5.57485
G1 X105.575 Y108.833 E5.6037
G1 X106.422 Y109.017 E5.63253
G1 X107.248 Y109.279 E5.66135
G1 X108.047 Y109.616 E5.69019
G1 X108.812 Y110.025 E5.71905
G1 X109.506 Y110.484 E5.74672
G1 X109.988 Y110.148 E5.76626
G1 X110.742 Y109.721 E5.79508
G1 X111.533 Y109.364 E5.82395
G1 X112.352 Y109.082 E5.85276
G1 X113.195 Y108.876 E5.88162
G1 X114.277 Y108.729 E5.91794
G1 X118.774 Y108.382 E6.06795
G1 X119.64 Y108.355 E6.09677
G1 X120.506 Y108.408 E6.12563
G1 X121.362 Y108.541 E6.15444
G1 X122.203 Y108.752 E6.18328
G1 X123.021 Y109.04 E6.21212
G1 X123.809 Y109.401 E6.24095
G1 X124.56 Y109.834 E6.26978
G1 X125.268 Y110.334 E6.29861
G1 X125.927 Y110.898 E6.32746
G1 X126.532 Y111.519 E6.3563
G1 X127.076 Y112.194 E6.38513
G1 X127.556 Y112.916 E6.41397
G1 X127.968 Y113.679 E6.44281
G1 X128.307 Y114.477 E6.47165
G1 X128.572 Y115.302 E6.50047
G1 X128.759 Y116.149 E6.52932
G1 X128.867 Y117.009 E6.55814
G1 X128.897 Y117.747 E6.58271
G1 X128.904 Y127.368 E6.90271
G1 X131.249 Y137.304 E7.24226
G1 X131.409 Y138.156 E7.27109
G1 X131.49 Y139.019 E7.29992
G1 X131.5 Y139.463 E7.31469
G1 X131.5 Y140.071 E7.33491
G1 X131.46 Y140.937 E7.36375
G1 X131.34 Y141.796 E7.3926
G1 X131.142 Y142.64 E7.42143
G1 X130.867 Y143.462 E7.45026
G1 X130.589 Y144.11 E7.47371
G1 X130.193 Y144.881 E7.50254
G1 X129.727 Y145.612 E7.53137
G1 X129.196 Y146.297 E7.5602
G1 X128.603 Y146.93 E7.58905
G1 X127.956 Y147.506 E7.61786
G1 X127.257 Y148.02 E7.64672
G1 X126.515 Y148.467 E7.67553
G1 X125.734 Y148.844 E7.70437
G1 X125.412 Y148.965 E7.71581
G1 X125.257 Y149.191 E7.72493
G1 X124.704 Y149.859 E7.75377
G1 X124.091 Y150.473 E7.78263
G1 X123.425 Y151.028 E7.81146
G1 X122.711 Y151.518 E7.84027
G1 X121.954 Y151.942 E7.86912
G1 X121.161 Y152.293 E7.89797
G1 X120.34 Y152.57 E7.92679
G1 X119.496 Y152.77 E7.95564
G1 X118.638 Y152.892 E7.98446
G1 X117.758 Y152.934 E8.01376
G1 X116.643 Y152.935 E8.05085
G1 X115.777 Y152.896 E8.07968
G1 X114.919 Y152.777 E8.10849
G1 X114.074 Y152.58 E8.13735
G1 X113.252 Y152.305 E8.16618
G1 X112.297 Y151.874 E8.20103
G1 X110.459 Y150.918 E8.26993
G1 X109.496 Y150.411 E8.30613
G1 X108.614 Y150.88 E8.33936
G1 X106.796 Y151.839 E8.40772
G1 X106.011 Y152.207 E8.43656
G1 X105.196 Y152.502 E8.46538
G1 X104.357 Y152.72 E8.49422
G1 X103.501 Y152.861 E8.52307
G1 X102.564 Y152.923 E8.5543
G1 X101.814 Y152.934 E8.57925
G1 X101.267 Y152.935 E8.59744
G1 X100.401 Y152.897 E8.62627
G1 X99.542 Y152.779 E8.65511
G1 X98.698 Y152.582 E8.68394
G1 X97.875 Y152.308 E8.71279
G1 X97.081 Y151.96 E8.74162
G1 X96.323 Y151.54 E8.77045
G1 X95.606 Y151.052 E8.79929
G1 X94.938 Y150.5 E8.82811
G1 X94.323 Y149.889 E8.85695
G1 X93.767 Y149.224 E8.88578
G1 X93.594 Y148.974 E8.89589
G1 X92.929 Y148.688 E8.91997
G1 X92.167 Y148.274 E8.94881
G1 X91.578 Y147.888 E8.97223
G1 X90.888 Y147.363 E9.00107
G1 X90.249 Y146.777 E9.02991
G1 X89.667 Y146.134 E9.05875
G1 X89.147 Y145.441 E9.08757
G1 X88.693 Y144.702 E9.11642
G1 X88.309 Y143.925 E9.14524
G1 X87.998 Y143.116 E9.17407
G1 X87.762 Y142.282 E9.2029
G1 X87.605 Y141.429 E9.23175
G1 X87.52 Y140.32 E9.26874
G1 X87.507 Y139.593 E9.29292
G1 X87.531 Y138.726 E9.32177
G1 X87.635 Y137.866 E9.35058
G1 X87.756 Y137.267 E9.37091
G1 X90.099 Y127.333 E9.71038
G1 X90.1 Y117.756 E10.02891
G1 X90.14 Y116.89 E10.05775
G1 X90.26 Y116.031 E10.08659
G1 X90.458 Y115.187 E10.11543
G1 X90.733 Y114.365 E10.14426
G1 X91.083 Y113.572 E10.17309
G1 X91.504 Y112.814 E10.20193
G1 X91.994 Y112.099 E10.23076
G1 X92.547 Y111.431 E10.2596
G1 X93.159 Y110.818 E10.28841
G1 X93.826 Y110.263 E10.31727
G0 F6000 X94.214 Y110.473
G1 F1200 X94.923 Y110.008 E10.34547
G1 X95.673 Y109.611 E10.37369
G1 X96.457 Y109.287 E10.40191
G1 X97.268 Y109.038 E10.43013
G1 X98.099 Y108.867 E10.45834
G1 X98.942 Y108.774 E10.48655
G1 X100.184 Y108.783 E10.52786
G1 X104.684 Y109.126 E10.67797
G1 X105.526 Y109.23 E10.70619
G1 X106.354 Y109.413 E10.73439
G1 X107.162 Y109.674 E10.76263
G1 X107.941 Y110.009 E10.79083
G1 X108.685 Y110.416 E10.81904
G1 X109.388 Y110.891 E10.84726
G1 X109.503 Y110.985 E10.8522
G1 X109.667 Y110.852 E10.85922
G1 X110.373 Y110.382 E10.88743
G1 X111.12 Y109.98 E10.91565
G1 X111.902 Y109.651 E10.94386
G1 X112.711 Y109.397 E10.97207
G1 X113.541 Y109.22 E11.00029
G1 X114.308 Y109.128 E11.02599
G1 X118.805 Y108.781 E11.176
G1 X119.653 Y108.755 E11.20422
G1 X120.499 Y108.81 E11.23242
G1 X121.337 Y108.944 E11.26064
G1 X122.158 Y109.156 E11.28885
G1 X122.956 Y109.445 E11.31707
G1 X123.723 Y109.808 E11.3453
G1 X124.452 Y110.241 E11.3735
G1 X125.137 Y110.741 E11.40171
G1 X125.773 Y111.303 E11.42993
G1 X126.352 Y111.922 E11.45813
G1 X126.871 Y112.594 E11.48637
G1 X127.324 Y113.311 E11.51457
G1 X127.707 Y114.067 E11.54276
G1 X128.018 Y114.857 E11.571
G1 X128.253 Y115.672 E11.59921
G1 X128.41 Y116.505 E11.62741
G1 X128.497 Y117.747 E11.66882
G1 X128.504 Y127.418 E11.99047
G1 X130.859 Y137.396 E12.33146
G1 X131.015 Y138.23 E12.35968
G1 X131.1 Y139.463 E12.40079
G1 X131.1 Y140.071 E12.42101
G1 X131.06 Y140.918 E12.44921
G1 X130.94 Y141.758 E12.47744
G1 X130.742 Y142.583 E12.50565
G1 X130.467 Y143.386 E12.53389
G1 X130.226 Y143.943 E12.55407
G1 X129.837 Y144.697 E12.58229
G1 X129.379 Y145.411 E12.6105
G1 X128.856 Y146.079 E12.63872
G1 X128.272 Y146.694 E12.66693
G1 X127.633 Y147.252 E12.69515
G1 X126.944 Y147.747 E12.72336
G1 X126.211 Y148.175 E12.75159
G1 X125.442 Y148.533 E12.77981
G1 X125.153 Y148.635 E12.79
G1 X124.86 Y149.052 E12.80695
G1 X124.309 Y149.697 E12.83517
G1 X123.699 Y150.287 E12.86339
G1 X123.037 Y150.817 E12.8916
G1 X122.328 Y151.283 E12.91982
G1 X121.578 Y151.679 E12.94802
G1 X120.794 Y152.004 E12.97625
G1 X119.983 Y152.253 E13.00447
G1 X119.152 Y152.424 E13.03269
G1 X118.309 Y152.517 E13.0609
G1 X117.758 Y152.534 E13.07923
G1 X116.643 Y152.535 E13.11632
G1 X115.796 Y152.496 E13.14452
G1 X114.956 Y152.377 E13.17273
G1 X114.131 Y152.18 E13.20095
G1 X113.328 Y151.905 E13.22918
G1 X112.482 Y151.52 E13.26009
G1 X110.644 Y150.564 E13.329
G1 X109.494 Y149.959 E13.37222
G1 X108.427 Y150.526 E13.41241
G1 X106.609 Y151.485 E13.48077
G1 X105.841 Y151.845 E13.50898
G1 X105.042 Y152.131 E13.53721
G1 X104.22 Y152.34 E13.56542
G1 X103.382 Y152.471 E13.59363
G1 X102.558 Y152.523 E13.62109
G1 X101.813 Y152.534 E13.64587
G1 X101.266 Y152.535 E13.66406
G1 X100.419 Y152.497 E13.69226
G1 X99.579 Y152.379 E13.72047
G1 X98.754 Y152.182 E13.74869
G1 X97.951 Y151.908 E13.77691
G1 X97.177 Y151.561 E13.80512
G1 X96.44 Y151.142 E13.83332
G1 X95.745 Y150.655 E13.86154
G1 X95.099 Y150.105 E13.88976
G1 X94.508 Y149.497 E13.91796
G1 X93.976 Y148.835 E13.94621
G1 X93.854 Y148.649 E13.95361
G1 X93.054 Y148.304 E13.98258
G1 X92.312 Y147.893 E14.0108
G1 X91.805 Y147.559 E14.03099
G1 X91.131 Y147.045 E14.05918
G1 X90.507 Y146.469 E14.08743
G1 X89.941 Y145.837 E14.11564
G1 X89.437 Y145.155 E14.14385
G1 X88.999 Y144.429 E14.17205
G1 X88.632 Y143.664 E14.20027
G1 X88.338 Y142.868 E14.22849
G1 X88.12 Y142.049 E14.25668
G1 X87.981 Y141.212 E14.2849
G1 X87.919 Y140.313 E14.31487
G1 X87.906 Y139.586 E14.33906
G1 X87.931 Y138.738 E14.36727
G1 X88.036 Y137.896 E14.3955
G1 X88.145 Y137.359 E14.41372
G1 X90.499 Y127.378 E14.7548
G1 X90.5 Y117.756 E15.07483
G1 X90.54 Y116.909 E15.10303
G1 X90.66 Y116.069 E15.13125
G1 X90.858 Y115.244 E15.15947
G1 X91.133 Y114.442 E15.18767
G1 X91.482 Y113.669 E15.21588
G1 X91.903 Y112.932 E15.24411
G1 X92.391 Y112.238 E15.27233
G1 X92.942 Y111.593 E15.30054
G1 X93.551 Y111.003 E15.32874
G1 X94.214 Y110.473 E15.35698
G0 F6000 X93.943 Y111.194
G1 F1200 X94.601 Y110.689 E15.38456
G1 X95.304 Y110.25 E15.41213
G1 X96.047 Y109.881 E15.43972
G1 X96.821 Y109.585 E15.46728
G1 X97.621 Y109.365 E15.49488
G1 X98.438 Y109.223 E15.52246
G1 X99.265 Y109.16 E15.55005
G1 X100.154 Y109.182 E15.57962
G1 X104.654 Y109.525 E15.72973
G1 X105.476 Y109.628 E15.75728
G1 X106.286 Y109.809 E15.78489
G1 X107.073 Y110.068 E15.81244
G1 X107.833 Y110.401 E15.84004
G1 X108.556 Y110.806 E15.8676
G1 X109.238 Y111.279 E15.89521
G1 X109.497 Y111.499 E15.90651
G1 X110.055 Y111.065 E15.93002
G1 X110.756 Y110.621 E15.95762
G1 X111.496 Y110.247 E15.9852
G1 X112.268 Y109.946 E16.01276
G1 X113.066 Y109.721 E16.04034
G1 X113.882 Y109.574 E16.06791
G1 X114.338 Y109.526 E16.08316
G1 X118.835 Y109.179 E16.23318
G1 X119.664 Y109.156 E16.26076
G1 X120.492 Y109.212 E16.28836
G1 X121.31 Y109.347 E16.31594
G1 X122.111 Y109.561 E16.34352
G1 X122.888 Y109.851 E16.3711
G1 X123.633 Y110.214 E16.39866
G1 X124.34 Y110.647 E16.42624
G1 X125.002 Y111.147 E16.45383
G1 X125.613 Y111.708 E16.48142
G1 X126.167 Y112.325 E16.509
G1 X126.659 Y112.992 E16.53657
G1 X127.084 Y113.704 E16.56415
G1 X127.439 Y114.454 E16.59174
G1 X127.719 Y115.234 E16.61931
G1 X127.924 Y116.038 E16.6469
G1 X128.05 Y116.857 E16.67446
G1 X128.097 Y117.748 E16.70414
G1 X128.104 Y127.463 E17.02726
G1 X130.47 Y137.488 E17.36986
G1 X130.621 Y138.303 E17.39742
G1 X130.7 Y139.463 E17.4361
G1 X130.7 Y140.071 E17.45632
G1 X130.66 Y140.899 E17.48389
G1 X130.54 Y141.72 E17.51149
G1 X130.342 Y142.525 E17.53906
G1 X129.921 Y143.648 E17.57895
G1 X129.862 Y143.777 E17.58367
G1 X129.481 Y144.514 E17.61126
G1 X129.031 Y145.21 E17.63883
G1 X128.516 Y145.86 E17.66641
G1 X127.941 Y146.457 E17.69398
G1 X127.311 Y146.996 E17.72155
G1 X126.632 Y147.472 E17.74913
G1 X125.91 Y147.881 E17.77673
G1 X125.152 Y148.217 E17.80431
G1 X124.904 Y148.3 E17.81301
G1 X124.463 Y148.909 E17.83802
G1 X123.914 Y149.531 E17.86561
G1 X123.308 Y150.097 E17.89319
G1 X122.65 Y150.602 E17.92078
G1 X121.947 Y151.041 E17.94834
G1 X121.204 Y151.41 E17.97594
G1 X120.429 Y151.706 E18.00353
G1 X119.63 Y151.926 E18.03109
G1 X118.813 Y152.068 E18.05867
G1 X117.758 Y152.134 E18.09383
G1 X116.643 Y152.135 E18.13092
G1 X115.814 Y152.096 E18.15852
G1 X114.994 Y151.977 E18.18608
G1 X114.188 Y151.78 E18.21368
G1 X113.406 Y151.506 E18.24124
G1 X112.667 Y151.165 E18.26831
G1 X110.829 Y150.209 E18.33721
G1 X109.494 Y149.506 E18.38739
G1 X108.239 Y150.173 E18.43467
G1 X106.423 Y151.131 E18.50296
G1 X105.671 Y151.482 E18.53056
G1 X104.89 Y151.759 E18.55812
G1 X104.085 Y151.959 E18.58571
G1 X103.265 Y152.082 E18.61329
G1 X102.551 Y152.123 E18.63707
G1 X101.813 Y152.134 E18.66162
G1 X101.266 Y152.135 E18.67981
G1 X100.437 Y152.097 E18.70742
G1 X99.617 Y151.978 E18.73498
G1 X98.811 Y151.782 E18.76256
G1 X98.028 Y151.509 E18.79014
G1 X97.275 Y151.161 E18.81773
G1 X96.559 Y150.743 E18.84531
G1 X95.887 Y150.258 E18.87287
G1 X95.264 Y149.71 E18.90047
G1 X94.697 Y149.105 E18.92805
G1 X94.191 Y148.448 E18.95563
G1 X94.105 Y148.31 E18.96104
G1 X93.939 Y148.255 E18.96685
G1 X93.181 Y147.92 E18.99442
G1 X92.146 Y147.308 E19.03441
G1 X92.033 Y147.23 E19.03898
G1 X91.374 Y146.726 E19.06657
G1 X90.766 Y146.162 E19.09415
G1 X90.216 Y145.541 E19.12174
G1 X89.728 Y144.871 E19.14931
G1 X89.307 Y144.156 E19.17691
G1 X88.957 Y143.405 E19.20447
G1 X88.681 Y142.623 E19.23205
G1 X88.481 Y141.818 E19.25964
G1 X88.36 Y140.998 E19.28721
G1 X88.319 Y140.306 E19.31026
G1 X88.306 Y139.579 E19.33445
G1 X88.332 Y138.75 E19.36203
G1 X88.436 Y137.927 E19.38962
G1 X88.535 Y137.451 E19.4058
G1 X90.899 Y127.428 E19.74831
G1 X90.9 Y117.756 E20.07
G1 X90.94 Y116.928 E20.09757
