;FLAVOR:Marlin
;TIME:5370
;Filament used: 4.33147m
;Layer height: 0.2
;MINX:98.453
;MINY:100.749
;MINZ:0.2
;MAXX:133.611
;MAXY:134.25
;MAXZ:37.8
;Generated with Cura_SteamEngine 4.5.0
M140 S60
M105
M190 S60
M104 S205
M105
M109 S205
M82 ;absolute extrusion mode
; Ender 3 Custom Start G-code
G92 E0 ; Reset Extruder
G28 ; Home all axes
G29 L1 A ; Activate unified bed levelling
G29 J
G1 Z2.0 F3000 ; Move Z Axis up little to prevent scratching of Heat Bed
G1 X0.1 Y20 Z0.3 F5000.0 ; Move to start position
G1 X0.1 Y200.0 Z0.3 F1500.0 E15 ; Draw the first line
G1 X0.4 Y200.0 Z0.3 F5000.0 ; Move to side a little
G1 X0.4 Y20 Z0.3 F1500.0 E30 ; Draw the second line
G92 E0 ; Reset Extruder
G1 Z2.0 F3000 ; Move Z Axis up little to prevent scratching of Heat Bed
G1 X5 Y20 Z0.3 F5000.0 ; Move over to prevent blob squish
G92 E0
G92 E0
G1 F2700 E-4.5
;LAYER_COUNT:189
;LAYER:0
M107
G0 F6000 X99.88 Y102.271 Z0.2
;TYPE:SKIRT
G1 F2700 E0
G1 F1200 X100.349 Y101.847 E0.02103
G1 X100.867 Y101.485 E0.04205
G1 X101.427 Y101.192 E0.06307
G1 X102.02 Y100.972 E0.08411
G1 X102.635 Y100.828 E0.10511
G1 X103.318 Y100.761 E0.12794
G1 X103.771 Y100.75 E0.14301
G1 X105.164 Y100.749 E0.18934
G1 X105.89 Y100.759 E0.21349
G1 X108.857 Y100.844 E0.31221
G1 X111.53 Y100.844 E0.40112
G1 X113.179 Y100.788 E0.456
G1 X115.02 Y100.75 E0.51724
G1 X127.969 Y100.75 E0.94793
G1 X128.667 Y100.759 E0.97114
G1 X129.298 Y100.808 E0.99219
G1 X129.917 Y100.935 E1.01321
G1 X130.515 Y101.139 E1.03423
G1 X131.083 Y101.417 E1.05526
G1 X131.611 Y101.765 E1.07629
G1 X132.091 Y102.176 E1.09731
G1 X132.515 Y102.645 E1.11834
G1 X132.877 Y103.163 E1.13936
G1 X133.17 Y103.723 E1.16038
G1 X133.39 Y104.316 E1.18142
G1 X133.534 Y104.931 E1.20242
G1 X133.601 Y105.613 E1.22522
G1 X133.611 Y106.04 E1.23942
G1 X133.603 Y110.571 E1.39012
G1 X133.585 Y111.381 E1.41707
G1 X133.503 Y112.979 E1.47029
G1 X133.412 Y115.658 E1.55945
G1 X133.396 Y118.348 E1.64892
G1 X133.457 Y121.056 E1.73901
G1 X133.575 Y123.521 E1.82109
G1 X133.605 Y124.738 E1.86158
G1 X133.609 Y125.339 E1.88157
G1 X133.611 Y128.604 E1.99016
G1 X133.602 Y129.304 E2.01345
G1 X133.554 Y129.935 E2.0345
G1 X133.426 Y130.554 E2.05552
G1 X133.222 Y131.152 E2.07653
G1 X132.944 Y131.72 E2.09757
G1 X132.596 Y132.248 E2.1186
G1 X132.185 Y132.728 E2.13962
G1 X131.716 Y133.152 E2.16065
G1 X131.198 Y133.513 E2.18165
G1 X130.638 Y133.807 E2.20268
G1 X130.045 Y134.027 E2.22372
G1 X129.43 Y134.171 E2.24473
G1 X128.751 Y134.238 E2.26742
G1 X128.301 Y134.249 E2.28239
G1 X115.337 Y134.25 E2.71358
G1 X114.587 Y134.239 E2.73852
G1 X111.703 Y134.155 E2.83449
G1 X109.015 Y134.155 E2.92389
G1 X105.469 Y134.25 E3.04187
G1 X104.053 Y134.25 E3.08897
G1 X103.402 Y134.241 E3.11062
G1 X102.772 Y134.192 E3.13164
G1 X102.153 Y134.064 E3.15266
G1 X101.555 Y133.859 E3.17369
G1 X100.987 Y133.58 E3.19474
G1 X100.459 Y133.232 E3.21577
G1 X99.98 Y132.82 E3.23679
G1 X99.556 Y132.351 E3.25781
G1 X99.195 Y131.833 E3.27881
G1 X98.902 Y131.272 E3.29986
G1 X98.682 Y130.68 E3.32087
G1 X98.539 Y130.064 E3.3419
G1 X98.477 Y129.49 E3.36111
G1 X98.46 Y129.149 E3.37246
G1 X98.454 Y128.9 E3.38075
G1 X98.453 Y106.384 E4.12963
G1 X98.462 Y105.694 E4.15258
G1 X98.511 Y105.063 E4.17363
G1 X98.638 Y104.444 E4.19465
G1 X98.842 Y103.846 E4.21566
G1 X99.121 Y103.279 E4.23668
G1 X99.468 Y102.751 E4.2577
G1 X99.88 Y102.271 E4.27874
G0 F6000 X100.272 Y102.445
G1 F1200 X100.735 Y102.054 E4.29889
G1 X101.246 Y101.728 E4.31905
G1 X101.796 Y101.471 E4.33924
G1 X102.374 Y101.289 E4.3594
G1 X102.971 Y101.185 E4.37955
G1 X103.33 Y101.161 E4.39152
G1 X103.772 Y101.15 E4.40623
G1 X105.158 Y101.149 E4.45232
G1 X105.884 Y101.159 E4.47647
G1 X108.846 Y101.244 E4.57503
G1 X111.543 Y101.244 E4.66473
G1 X113.188 Y101.188 E4.71948
G1 X115.02 Y101.15 E4.78042
G1 X127.964 Y101.15 E5.21094
G1 X128.662 Y101.159 E5.23416
G1 X129.267 Y101.207 E5.25435
G1 X129.86 Y101.334 E5.27452
G1 X130.431 Y101.538 E5.29468
G1 X130.97 Y101.815 E5.31484
G1 X131.468 Y102.16 E5.33499
G1 X131.917 Y102.568 E5.35517
G1 X132.307 Y103.032 E5.37533
G1 X132.634 Y103.543 E5.39551
G1 X132.89 Y104.092 E5.41565
G1 X133.072 Y104.67 E5.43581
G1 X133.177 Y105.268 E5.456
G1 X133.201 Y105.624 E5.46787
G1 X133.211 Y106.039 E5.48168
G1 X133.203 Y110.564 E5.63218
G1 X133.186 Y111.362 E5.65873
G1 X133.126 Y112.598 E5.69988
G1 X133.102 Y112.975 E5.71245
G1 X133.012 Y115.642 E5.8012
G1 X132.996 Y118.354 E5.89141
G1 X133.056 Y121.046 E5.98097
G1 X133.176 Y123.531 E6.06371
G1 X133.205 Y124.74 E6.10394
G1 X133.209 Y125.341 E6.12393
G1 X133.211 Y128.599 E6.23229
G1 X133.202 Y129.299 E6.25557
G1 X133.154 Y129.904 E6.27576
G1 X133.027 Y130.496 E6.2959
G1 X132.823 Y131.068 E6.31609
G1 X132.546 Y131.607 E6.33625
G1 X132.201 Y132.105 E6.3564
G1 X131.793 Y132.553 E6.37655
G1 X131.329 Y132.944 E6.39674
G1 X130.818 Y133.271 E6.41691
G1 X130.269 Y133.527 E6.43706
G1 X129.691 Y133.709 E6.45722
G1 X129.093 Y133.814 E6.47741
G1 X128.739 Y133.838 E6.48921
G1 X128.301 Y133.849 E6.50378
G1 X115.343 Y133.85 E6.93477
G1 X114.599 Y133.839 E6.95952
G1 X111.715 Y133.755 E7.05548
G1 X109.004 Y133.755 E7.14565
G1 X105.469 Y133.85 E7.26326
G1 X104.058 Y133.85 E7.31019
G1 X103.407 Y133.841 E7.33185
G1 X102.803 Y133.792 E7.352
G1 X102.21 Y133.665 E7.37217
G1 X101.639 Y133.461 E7.39234
G1 X101.1 Y133.183 E7.41251
G1 X100.602 Y132.837 E7.43268
G1 X100.154 Y132.429 E7.45284
G1 X99.764 Y131.965 E7.473
G1 X99.438 Y131.454 E7.49316
G1 X99.182 Y130.904 E7.51333
G1 X99.001 Y130.325 E7.53351
G1 X98.877 Y129.47 E7.56224
G1 X98.86 Y129.129 E7.5736
G1 X98.854 Y128.9 E7.58122
G1 X98.853 Y106.389 E8.32994
G1 X98.862 Y105.699 E8.35289
G1 X98.91 Y105.095 E8.37304
G1 X99.037 Y104.502 E8.39321
G1 X99.241 Y103.931 E8.41338
G1 X99.518 Y103.391 E8.43357
G1 X99.864 Y102.893 E8.45373
G1 X100.272 Y102.445 E8.47389
G0 F6000 X100.258 Y103.043
G1 F1200 X100.663 Y102.628 E8.49318
G1 X101.12 Y102.272 E8.51244
G1 X101.622 Y101.983 E8.53171
G1 X102.159 Y101.766 E8.55097
G1 X102.721 Y101.625 E8.57024
G1 X103.341 Y101.561 E8.59097
G1 X103.772 Y101.55 E8.60531
G1 X105.153 Y101.549 E8.65125
G1 X105.879 Y101.559 E8.6754
G1 X108.834 Y101.644 E8.77372
G1 X111.528 Y101.644 E8.86332
G1 X113.196 Y101.588 E8.91883
G1 X115.02 Y101.55 E8.97951
G1 X127.959 Y101.55 E9.40986
G1 X128.657 Y101.559 E9.43308
G1 X129.235 Y101.607 E9.45237
G1 X129.8 Y101.733 E9.47163
G1 X130.342 Y101.936 E9.49088
G1 X130.852 Y102.212 E9.51016
G1 X131.319 Y102.555 E9.52944
G1 X131.734 Y102.959 E9.5487
G1 X132.089 Y103.417 E9.56797
G1 X132.378 Y103.919 E9.58724
G1 X132.596 Y104.456 E9.60651
G1 X132.737 Y105.017 E9.62575
G1 X132.801 Y105.636 E9.64645
G1 X132.811 Y106.039 E9.65986
G1 X132.803 Y110.556 E9.8101
G1 X132.786 Y111.343 E9.83628
G1 X132.727 Y112.573 E9.87723
G1 X132.704 Y112.936 E9.88933
G1 X132.612 Y115.662 E9.98005
G1 X132.596 Y118.361 E10.06982
G1 X132.657 Y121.076 E10.16015
G1 X132.776 Y123.541 E10.24223
G1 X132.805 Y124.743 E10.28222
G1 X132.809 Y125.344 E10.30221
G1 X132.811 Y128.594 E10.4103
G1 X132.802 Y129.294 E10.43359
G1 X132.754 Y129.871 E10.45284
G1 X132.628 Y130.437 E10.47213
G1 X132.425 Y130.979 E10.49138
G1 X132.149 Y131.489 E10.51067
G1 X131.806 Y131.956 E10.52994
G1 X131.402 Y132.371 E10.5492
G1 X130.944 Y132.726 E10.56848
G1 X130.443 Y133.015 E10.58771
G1 X129.906 Y133.233 E10.60699
G1 X129.344 Y133.374 E10.62626
G1 X128.727 Y133.438 E10.64689
G1 X128.301 Y133.449 E10.66107
G1 X115.349 Y133.451 E11.09185
G1 X114.611 Y133.439 E11.1164
G1 X111.727 Y133.355 E11.21236
G1 X108.994 Y133.355 E11.30326
G1 X105.469 Y133.45 E11.42055
G1 X104.064 Y133.45 E11.46728
G1 X103.413 Y133.441 E11.48893
G1 X102.836 Y133.393 E11.50819
G1 X102.27 Y133.266 E11.52748
G1 X101.728 Y133.062 E11.54675
G1 X101.219 Y132.786 E11.566
G1 X100.752 Y132.442 E11.5853
G1 X100.338 Y132.038 E11.60453
G1 X99.983 Y131.58 E11.62381
G1 X99.694 Y131.078 E11.64307
G1 X99.477 Y130.541 E11.66234
G1 X99.336 Y129.979 E11.68161
G1 X99.276 Y129.45 E11.69932
G1 X99.259 Y129.109 E11.71067
G1 X99.254 Y128.9 E11.71763
G1 X99.253 Y106.394 E12.46618
G1 X99.262 Y105.704 E12.48913
G1 X99.31 Y105.127 E12.50839
G1 X99.436 Y104.562 E12.52764
G1 X99.639 Y104.019 E12.54692
G1 X99.915 Y103.51 E12.56618
G1 X100.258 Y103.043 E12.58545
G1 F2700 E8.08545
;MESH:spring_body.stl
G0 F6000 X102.789 Y106.164
G0 X103.867 Y106.163
G0 X105.373 Y117.278
G0 X115.799 Y117.722
G0 X116.77 Y127.851
;TYPE:WALL-INNER
G1 F2700 E12.58545
G1 F1200 X116.77 Y127.652 E12.59207
G1 X116.77 Y107.15 E13.27397
G1 X127.011 Y107.15 E13.61459
G1 X127.21 Y107.15 E13.62121
G1 X127.21 Y107.349 E13.62549
G1 X127.205 Y109.75 E13.70535
G1 X121.501 Y109.75 E13.89506
G1 X121.501 Y125.25 E14.41059
G1 X127.208 Y125.25 E14.60041
G1 X127.209 Y125.371 E14.60443
G1 X127.212 Y127.651 E14.68027
G1 X127.212 Y127.85 E14.68689
G1 X127.013 Y127.85 E14.69117
G1 X116.969 Y127.851 E15.02523
G1 X116.77 Y127.851 E15.02952
G0 F6000 X116.77 Y128.25
G1 F1200 X116.371 Y128.25 E15.04279
G1 X115.701 Y128.251 E15.06507
G1 X115.7 Y127.898 E15.07681
G1 X116.37 Y127.897 E15.09653
G1 X116.37 Y117.55 E15.44067
G1 X116.37 Y107.103 E15.78814
G1 X115.701 Y107.102 E15.81039
G1 X115.7 Y106.75 E15.8221
G1 X116.37 Y106.75 E15.84179
G1 X127.412 Y106.75 E16.20905
G1 X127.611 Y106.75 E16.21567
G1 X127.611 Y106.949 E16.21995
G1 X127.604 Y110.15 E16.32641
G1 X121.901 Y110.15 E16.5161
G1 X121.901 Y124.85 E17.00502
G1 X127.606 Y124.85 E17.19477
G1 X127.609 Y125.371 E17.2121
G1 X127.612 Y128.051 E17.30124
G1 X127.612 Y128.25 E17.30786
G1 X127.413 Y128.25 E17.31214
G1 X116.77 Y128.25 E17.66613
G0 F6000 X115.97 Y127.498
G1 F1200 X115.971 Y117.749 E17.99038
G1 X115.971 Y117.55 E17.997
G1 X115.772 Y117.55 E18.00128
G1 X105.4 Y117.55 E18.34625
G1 X105.201 Y117.55 E18.35287
G1 X105.201 Y117.749 E18.35715
G1 X105.202 Y128.452 E18.71314
G1 X105.202 Y128.651 E18.71976
G1 X105.003 Y128.651 E18.72404
G1 X104.054 Y128.65 E18.7556
G1 X104.053 Y106.548 E19.49072
G1 X104.053 Y106.349 E19.49734
G1 X104.252 Y106.349 E19.50162
G1 X105.202 Y106.349 E19.53322
G1 X105.201 Y117.45 E19.90244
G1 X115.97 Y117.45 E20.26062
G1 X115.97 Y107.502 E20.59149
G1 X115.301 Y107.501 E20.61374
G1 X115.3 Y106.549 E20.6454
G1 X115.3 Y106.35 E20.65202
G1 X115.499 Y106.35 E20.6563
G1 X127.813 Y106.35 E21.06587
G1 X128.012 Y106.35 E21.07249
G1 X128.012 Y106.549 E21.07677
G1 X128.003 Y110.55 E21.20984
G1 X122.301 Y110.55 E21.39949
G1 X122.301 Y124.45 E21.86181
G1 X128.003 Y124.45 E22.05146
G1 X128.009 Y125.371 E22.08209
G1 X128.012 Y128.451 E22.18453
G1 X128.012 Y128.65 E22.19115
G1 X127.813 Y128.65 E22.19543
G1 X115.301 Y128.651 E22.61158
G1 X115.3 Y127.499 E22.6499
G1 X115.97 Y127.498 E22.67218
G1 F2700 E18.17218
G0 F6000 X115.799 Y117.722
G0 X105.373 Y117.722
G0 X104.802 Y128.251
G1 F2700 E22.67218
G1 F1200 X104.454 Y128.25 E22.68376
G1 X104.454 Y117.151 E23.05291
G1 X104.453 Y106.749 E23.39889
G1 X104.802 Y106.749 E23.41049
G1 X104.801 Y117.15 E23.71221
G1 X104.802 Y128.251 E24.03378
G1 F2700 E19.53378
G0 F6000 X105.373 Y117.722
G0 X115.799 Y117.722
G0 X115.798 Y127.327
G0 X115.171 Y128.781
G0 X114.901 Y129.051
;TYPE:WALL-OUTER
G1 F2700 E24.03378
G1 F1200 X114.9 Y127.1 E24.09867
G1 X115.57 Y127.099 E24.12096
G1 X115.571 Y117.95 E24.42525
G1 X105.601 Y117.95 E24.75686
G1 X105.602 Y129.051 E25.12608
G1 X103.654 Y129.05 E25.19087
G1 X103.653 Y105.949 E25.95921
G1 X105.602 Y105.949 E26.02403
G1 X105.601 Y117.05 E26.39325
G1 X115.57 Y117.05 E26.72482
G1 X115.57 Y107.901 E27.02912
G1 X114.901 Y107.9 E27.05137
G1 X114.9 Y105.95 E27.11623
G1 X128.412 Y105.95 E27.56564
G1 X128.408 Y109.629 E27.68801
G1 X128.401 Y110.95 E27.73194
G1 X122.701 Y110.95 E27.92153
G1 X122.701 Y124.05 E28.35723
G1 X128.4 Y124.05 E28.54678
G1 X128.409 Y125.371 E28.59072
G1 X128.412 Y129.05 E28.71308
G1 X114.901 Y129.051 E29.16246
G0 F6000 X115.171 Y128.781
G0 X116.88 Y127.461
G0 X117.16 Y127.461
;TYPE:SKIN
G1 F1200 X117.16 Y107.54 E29.82504
G1 X126.82 Y107.54 E30.14633
G1 X126.815 Y109.36 E30.20686
G1 X121.111 Y109.36 E30.39658
G1 X121.111 Y125.64 E30.93805
G1 X126.819 Y125.64 E31.1279
G1 X126.822 Y127.46 E31.18844
G1 X117.16 Y127.461 E31.5098
G0 F6000 X117.683 Y127.299
G1 F1200 X117.319 Y126.936 E31.52689
G0 F6000 X117.319 Y126.37
G1 F1200 X118.248 Y127.299 E31.57059
G0 F6000 X118.814 Y127.299
G1 F1200 X117.319 Y125.804 E31.64091
G0 F6000 X117.319 Y125.239
G1 F1200 X119.38 Y127.299 E31.73783
G0 F6000 X119.945 Y127.299
G1 F1200 X117.319 Y124.673 E31.86135
G0 F6000 X117.319 Y124.107
G1 F1200 X120.511 Y127.299 E32.01149
G0 F6000 X121.077 Y127.299
G1 F1200 X117.319 Y123.542 E32.18823
G0 F6000 X117.319 Y122.976
G1 F1200 X121.642 Y127.299 E32.39157
G0 F6000 X122.208 Y127.299
G1 F1200 X117.319 Y122.41 E32.62154
G0 F6000 X117.319 Y121.845
G1 F1200 X120.951 Y125.476 E32.79235
G0 F6000 X121.274 Y125.799
G1 F1200 X122.774 Y127.299 E32.86291
G0 F6000 X123.339 Y127.299
G1 F1200 X121.84 Y125.799 E32.93344
G0 F6000 X122.405 Y125.799
G1 F1200 X123.905 Y127.299 E33.004
G0 F6000 X124.471 Y127.299
G1 F1200 X122.971 Y125.799 E33.07455
G0 F6000 X123.537 Y125.799
G1 F1200 X125.036 Y127.299 E33.14508
G0 F6000 X125.602 Y127.299
G1 F1200 X124.102 Y125.799 E33.21564
G0 F6000 X124.668 Y125.799
G1 F1200 X126.168 Y127.299 E33.28619
G0 F6000 X126.661 Y127.227
G1 F1200 X125.234 Y125.799 E33.35334
G0 F6000 X125.799 Y125.799
G1 F1200 X126.66 Y126.66 E33.39384
G0 F6000 X126.659 Y126.093
G1 F1200 X126.365 Y125.799 E33.40767
G0 F6000 X126.365 Y125.36
G0 X121.391 Y124.911
G0 X120.951 Y124.911
G1 F1200 X117.319 Y121.279 E33.5785
G0 F6000 X117.319 Y120.713
G1 F1200 X120.951 Y124.345 E33.74934
G0 F6000 X120.951 Y123.779
G1 F1200 X117.319 Y120.148 E33.92016
G0 F6000 X117.319 Y119.582
G1 F1200 X120.951 Y123.214 E34.091
G0 F6000 X120.951 Y122.648
G1 F1200 X117.319 Y119.016 E34.26183
G0 F6000 X117.319 Y118.45
G1 F1200 X120.951 Y122.082 E34.43267
G0 F6000 X120.951 Y121.517
G1 F1200 X117.319 Y117.885 E34.60351
G0 F6000 X117.319 Y117.319
G1 F1200 X120.951 Y120.951 E34.77435
G0 F6000 X120.951 Y120.385
G1 F1200 X117.319 Y116.753 E34.94519
G0 F6000 X117.319 Y116.188
G1 F1200 X120.951 Y119.819 E35.116
G0 F6000 X120.951 Y119.254
G1 F1200 X117.319 Y115.622 E35.28684
G0 F6000 X117.319 Y115.056
G1 F1200 X120.951 Y118.688 E35.45768
G0 F6000 X120.951 Y118.122
G1 F1200 X117.319 Y114.491 E35.62849
G0 F6000 X117.319 Y113.925
G1 F1200 X120.951 Y117.557 E35.79933
G0 F6000 X120.951 Y116.991
G1 F1200 X117.319 Y113.359 E35.97017
G0 F6000 X117.319 Y112.794
G1 F1200 X120.951 Y116.425 E36.14098
G0 F6000 X120.951 Y115.86
G1 F1200 X117.319 Y112.228 E36.31182
G0 F6000 X117.319 Y111.662
G1 F1200 X120.951 Y115.294 E36.48266
G0 F6000 X120.951 Y114.728
G1 F1200 X117.319 Y111.097 E36.65347
G0 F6000 X117.319 Y110.531
G1 F1200 X120.951 Y114.163 E36.82431
G0 F6000 X120.951 Y113.597
G1 F1200 X117.319 Y109.965 E36.99515
G0 F6000 X117.319 Y109.4
G1 F1200 X120.951 Y113.031 E37.16596
G0 F6000 X120.951 Y112.466
G1 F1200 X117.319 Y108.834 E37.3368
G0 F6000 X117.319 Y108.268
G1 F1200 X120.951 Y111.9 E37.50764
G0 F6000 X120.951 Y111.334
G1 F1200 X117.319 Y107.702 E37.67848
G0 F6000 X117.882 Y107.7
G1 F1200 X120.951 Y110.768 E37.82281
G0 F6000 X120.951 Y110.203
G1 F1200 X118.448 Y107.7 E37.94054
G0 F6000 X119.013 Y107.7
G1 F1200 X120.951 Y109.637 E38.03168
G0 F6000 X121.079 Y109.199
G1 F1200 X119.579 Y107.7 E38.10221
G0 F6000 X120.145 Y107.7
G1 F1200 X121.644 Y109.199 E38.17272
G0 F6000 X122.21 Y109.199
G1 F1200 X120.71 Y107.7 E38.24325
G0 F6000 X121.276 Y107.7
G1 F1200 X122.776 Y109.199 E38.31378
G0 F6000 X123.342 Y109.199
G1 F1200 X121.842 Y107.7 E38.38431
G0 F6000 X122.407 Y107.7
G1 F1200 X123.907 Y109.199 E38.45485
G0 F6000 X124.473 Y109.199
G1 F1200 X122.973 Y107.7 E38.52538
G0 F6000 X123.539 Y107.7
G1 F1200 X125.039 Y109.199 E38.59591
G0 F6000 X125.604 Y109.199
G1 F1200 X124.105 Y107.7 E38.66642
G0 F6000 X124.67 Y107.7
G1 F1200 X126.17 Y109.199 E38.73695
G0 F6000 X126.656 Y109.12
G1 F1200 X125.236 Y107.7 E38.80374
G0 F6000 X125.802 Y107.7
G1 F1200 X126.656 Y108.555 E38.84394
G0 F6000 X126.658 Y107.99
G1 F1200 X126.367 Y107.7 E38.8576
G0 F6000 X126.367 Y106.96
G1 F2700 E34.3576
;MESH:NONMESH
G0 F300 X126.367 Y106.96 Z0.4
G0 F6000 X116.952 Y107.332
G0 X116.951 Y116.124
G0 X115.31 Y117.722
