;FLAVOR:Marlin
;TIME:1314
;Filament used: 0.825329m
;Layer height: 0.2
;MINX:91.907
;MINY:112.775
;MINZ:0.2
;MAXX:127.092
;MAXY:148.534
;MAXZ:8
;Generated with Cura_SteamEngine 4.5.0
M140 S60
M105
M190 S60
M104 S205
M105
M109 S205
M82 ;absolute extrusion mode
; Ender 3 Custom Start G-code
G92 E0 ; Reset Extruder
G28 ; Home all axes
G29 L1 A ; Activate unified bed levelling
G29 J
G1 Z2.0 F3000 ; Move Z Axis up little to prevent scratching of Heat Bed
G1 X0.1 Y20 Z0.3 F5000.0 ; Move to start position
G1 X0.1 Y200.0 Z0.3 F1500.0 E15 ; Draw the first line
G1 X0.4 Y200.0 Z0.3 F5000.0 ; Move to side a little
G1 X0.4 Y20 Z0.3 F1500.0 E30 ; Draw the second line
G92 E0 ; Reset Extruder
G1 Z2.0 F3000 ; Move Z Axis up little to prevent scratching of Heat Bed
G1 X5 Y20 Z0.3 F5000.0 ; Move over to prevent blob squish
G92 E0
G92 E0
G1 F2700 E-4.5
;LAYER_COUNT:40
;LAYER:0
M107
G0 F6000 X96.415 Y113.846 Z0.2
;TYPE:SKIRT
G1 F2700 E0
G1 F1200 X96.936 Y113.486 E0.02106
G1 X97.497 Y113.196 E0.04207
G1 X98.09 Y112.978 E0.06308
G1 X98.707 Y112.837 E0.08413
G1 X99.336 Y112.775 E0.10515
G1 X99.807 Y112.781 E0.12082
G1 X100.715 Y112.835 E0.15107
G1 X102.235 Y112.95 E0.20177
G1 X104.99 Y113.12 E0.29358
G1 X107.643 Y113.209 E0.38187
G1 X110.33 Y113.224 E0.47124
G1 X113.017 Y113.162 E0.56063
G1 X116.852 Y112.943 E0.68839
G1 X118.452 Y112.82 E0.74177
G1 X119.168 Y112.775 E0.76563
G1 X119.801 Y112.775 E0.78668
G1 X120.428 Y112.855 E0.80771
G1 X121.039 Y113.014 E0.8287
G1 X121.627 Y113.248 E0.84975
G1 X122.179 Y113.555 E0.87076
G1 X122.689 Y113.929 E0.8918
G1 X123.147 Y114.364 E0.91281
G1 X123.547 Y114.854 E0.93384
G1 X123.882 Y115.39 E0.95487
G1 X124.146 Y115.964 E0.97588
G1 X124.336 Y116.567 E0.99691
G1 X124.449 Y117.189 E1.01793
G1 X124.481 Y117.676 E1.03417
G1 X124.495 Y118.437 E1.05948
G1 X124.581 Y121.119 E1.14873
G1 X124.747 Y123.85 E1.23973
G1 X124.98 Y126.475 E1.32738
G1 X125.301 Y129.197 E1.41855
G1 X125.681 Y131.799 E1.50601
G1 X126.151 Y134.476 E1.59641
G1 X126.738 Y137.332 E1.69338
G1 X126.967 Y138.37 E1.72874
G1 X127.064 Y138.995 E1.74977
G1 X127.084 Y139.358 E1.76186
G1 X127.092 Y139.801 E1.7766
G1 X127.088 Y140.121 E1.78725
G1 X127.078 Y140.338 E1.79447
G1 X127.009 Y140.967 E1.81552
G1 X126.861 Y141.581 E1.83652
G1 X126.637 Y142.172 E1.85754
G1 X126.269 Y142.842 E1.88297
G1 X126.205 Y142.94 E1.88686
G1 X125.827 Y143.446 E1.90787
G1 X125.388 Y143.901 E1.9289
G1 X125.07 Y144.167 E1.94269
G1 X124.74 Y144.421 E1.95654
G1 X123.13 Y145.631 E2.02352
G1 X121.506 Y146.914 E2.09236
G1 X120.887 Y147.414 E2.11883
G1 X120.371 Y147.779 E2.13985
G1 X119.814 Y148.076 E2.16084
G1 X119.223 Y148.301 E2.18188
G1 X118.608 Y148.449 E2.20291
G1 X117.895 Y148.522 E2.22675
G1 X117.352 Y148.534 E2.24482
G1 X116.573 Y148.525 E2.27073
G1 X113.393 Y148.349 E2.37666
G1 X110.708 Y148.276 E2.46599
G1 X108.021 Y148.278 E2.55536
G1 X105.324 Y148.357 E2.64511
G1 X103.261 Y148.479 E2.71384
G1 X102.169 Y148.528 E2.7502
G1 X101.708 Y148.532 E2.76553
G1 X101.199 Y148.526 E2.78246
G1 X100.569 Y148.478 E2.80348
G1 X99.949 Y148.352 E2.82452
G1 X99.351 Y148.148 E2.84553
G1 X98.783 Y147.87 E2.86657
G1 X98.203 Y147.484 E2.88974
G1 X97.793 Y147.166 E2.907
G1 X96.306 Y145.971 E2.97045
G1 X94.818 Y144.831 E3.03279
G1 X93.969 Y144.194 E3.0681
G1 X93.489 Y143.784 E3.08909
G1 X93.064 Y143.316 E3.11012
G1 X92.701 Y142.798 E3.13116
G1 X92.443 Y142.317 E3.14931
G1 X92.383 Y142.189 E3.15401
G1 X92.151 Y141.601 E3.17504
G1 X91.996 Y140.988 E3.19607
G1 X91.911 Y140.149 E3.22411
G1 X91.907 Y139.707 E3.23882
G1 X91.916 Y139.316 E3.25182
G1 X91.971 Y138.686 E3.27286
G1 X92.032 Y138.356 E3.28402
G1 X92.242 Y137.401 E3.31654
G1 X92.803 Y134.696 E3.40842
G1 X93.266 Y132.099 E3.49616
G1 X93.667 Y129.397 E3.58702
G1 X93.987 Y126.743 E3.67593
G1 X94.231 Y124.074 E3.76507
G1 X94.399 Y121.414 E3.85372
G1 X94.512 Y117.684 E3.97784
G1 X94.563 Y117.054 E3.99886
G1 X94.693 Y116.435 E4.01989
G1 X94.9 Y115.838 E4.04091
G1 X95.181 Y115.272 E4.06193
G1 X95.531 Y114.745 E4.08297
G1 X95.945 Y114.267 E4.104
G1 X96.415 Y113.846 E4.12499
G0 F6000 X96.801 Y114.055
G1 F1200 X97.314 Y113.731 E4.14517
G1 X97.864 Y113.477 E4.16532
G1 X98.443 Y113.298 E4.18548
G1 X99.041 Y113.196 E4.20565
G1 X99.783 Y113.18 E4.23034
G1 X100.685 Y113.234 E4.26039
G1 X102.253 Y113.353 E4.31269
G1 X104.952 Y113.519 E4.40263
G1 X107.627 Y113.609 E4.49165
G1 X110.337 Y113.624 E4.58179
G1 X113.02 Y113.562 E4.67105
G1 X116.906 Y113.34 E4.80051
G1 X118.477 Y113.219 E4.85292
G1 X119.193 Y113.174 E4.87678
G1 X119.8 Y113.176 E4.89697
G1 X120.401 Y113.258 E4.91714
G1 X120.985 Y113.418 E4.93728
G1 X121.544 Y113.653 E4.95745
G1 X122.067 Y113.96 E4.97762
G1 X122.545 Y114.333 E4.99779
G1 X122.97 Y114.766 E5.01797
G1 X123.334 Y115.25 E5.03811
G1 X123.631 Y115.779 E5.05829
G1 X123.856 Y116.342 E5.07845
G1 X124.005 Y116.929 E5.09859
G1 X124.081 Y117.683 E5.1238
G1 X124.094 Y118.4 E5.14765
G1 X124.184 Y121.19 E5.2405
G1 X124.345 Y123.837 E5.3287
G1 X124.586 Y126.554 E5.41942
G1 X124.898 Y129.199 E5.508
G1 X125.291 Y131.889 E5.59842
G1 X125.76 Y134.561 E5.68865
G1 X126.332 Y137.347 E5.78325
G1 X126.577 Y138.457 E5.82106
G1 X126.668 Y139.056 E5.84121
G1 X126.684 Y139.365 E5.8515
G1 X126.692 Y139.808 E5.86623
G1 X126.688 Y140.103 E5.87605
G1 X126.678 Y140.32 E5.88327
G1 X126.61 Y140.922 E5.90342
G1 X126.464 Y141.511 E5.92361
G1 X126.241 Y142.075 E5.94378
G1 X125.934 Y142.623 E5.96467
G1 X125.87 Y142.721 E5.96856
G1 X125.506 Y143.206 E5.98873
G1 X125.081 Y143.638 E6.00889
G1 X124.826 Y143.85 E6.01992
G1 X124.5 Y144.101 E6.0336
G1 X122.882 Y145.317 E6.10092
G1 X121.296 Y146.57 E6.16815
G1 X120.636 Y147.103 E6.19636
G1 X120.14 Y147.452 E6.21653
G1 X119.603 Y147.733 E6.23669
G1 X119.033 Y147.94 E6.25686
G1 X118.441 Y148.071 E6.27703
G1 X117.883 Y148.122 E6.29566
G1 X117.357 Y148.134 E6.31316
G1 X116.578 Y148.125 E6.33908
G1 X116.162 Y148.103 E6.35293
G1 X113.392 Y147.949 E6.4452
G1 X110.719 Y147.876 E6.53414
G1 X108.008 Y147.878 E6.62431
G1 X105.321 Y147.957 E6.71372
G1 X103.242 Y148.08 E6.78299
G1 X102.164 Y148.128 E6.81888
G1 X101.713 Y148.132 E6.83388
G1 X101.204 Y148.126 E6.85081
G1 X100.599 Y148.079 E6.87099
G1 X100.006 Y147.952 E6.89116
G1 X99.435 Y147.749 E6.91132
G1 X98.895 Y147.473 E6.93149
G1 X98.448 Y147.168 E6.94949
G1 X98.044 Y146.855 E6.96648
G1 X96.56 Y145.663 E7.02979
G1 X95.061 Y144.514 E7.09261
G1 X94.209 Y143.875 E7.12803
G1 X93.749 Y143.479 E7.14822
G1 X93.345 Y143.027 E7.16839
G1 X93.004 Y142.526 E7.18854
G1 X92.805 Y142.147 E7.20278
G1 X92.745 Y142.019 E7.20748
G1 X92.524 Y141.455 E7.22763
G1 X92.38 Y140.866 E7.2478
G1 X92.311 Y140.142 E7.27199
G1 X92.307 Y139.716 E7.28616
G1 X92.316 Y139.325 E7.29916
G1 X92.423 Y138.442 E7.32875
G1 X92.643 Y137.443 E7.36277
G1 X93.187 Y134.817 E7.45197
G1 X93.667 Y132.123 E7.54298
G1 X94.061 Y129.468 E7.63225
G1 X94.383 Y126.795 E7.7218
G1 X94.63 Y124.097 E7.81191
G1 X94.799 Y121.422 E7.90106
G1 X94.912 Y117.691 E8.02521
G1 X94.962 Y117.087 E8.04537
G1 X95.092 Y116.495 E8.06553
G1 X95.298 Y115.925 E8.08568
G1 X95.578 Y115.387 E8.10586
G1 X95.926 Y114.89 E8.12604
G1 X96.336 Y114.443 E8.14621
G1 X96.801 Y114.055 E8.16635
G0 F6000 X96.726 Y114.628
G1 F1200 X97.185 Y114.275 E8.18561
G1 X97.688 Y113.988 E8.20487
G1 X98.226 Y113.773 E8.22414
G1 X98.789 Y113.635 E8.24342
G1 X99.365 Y113.575 E8.26269
G1 X99.76 Y113.579 E8.27582
G1 X100.655 Y113.633 E8.30565
G1 X102.202 Y113.75 E8.35725
G1 X104.912 Y113.917 E8.44755
G1 X107.648 Y114.009 E8.5386
G1 X110.344 Y114.024 E8.62827
G1 X113.052 Y113.961 E8.71837
G1 X116.859 Y113.744 E8.84519
G1 X118.503 Y113.618 E8.90003
G1 X119.219 Y113.573 E8.9239
G1 X119.798 Y113.577 E8.94315
G1 X120.371 Y113.66 E8.96241
G1 X120.928 Y113.822 E8.9817
G1 X121.456 Y114.058 E9.00094
G1 X121.948 Y114.365 E9.02023
G1 X122.392 Y114.737 E9.03949
G1 X122.781 Y115.166 E9.05875
G1 X123.107 Y115.645 E9.07803
G1 X123.365 Y116.164 E9.0973
G1 X123.548 Y116.713 E9.11655
G1 X123.654 Y117.283 E9.13583
G1 X123.681 Y117.69 E9.1494
G1 X123.694 Y118.413 E9.17345
G1 X123.784 Y121.193 E9.26596
G1 X123.946 Y123.862 E9.3549
G1 X124.189 Y126.601 E9.44636
G1 X124.503 Y129.267 E9.53564
G1 X124.896 Y131.951 E9.62586
G1 X125.367 Y134.633 E9.71643
G1 X125.951 Y137.477 E9.813
G1 X126.186 Y138.543 E9.8493
G1 X126.284 Y139.372 E9.87707
G1 X126.292 Y139.815 E9.8918
G1 X126.289 Y140.084 E9.90075
G1 X126.279 Y140.301 E9.90798
G1 X126.212 Y140.877 E9.92726
G1 X126.067 Y141.438 E9.94654
G1 X125.846 Y141.973 E9.96579
G1 X125.6 Y142.405 E9.98232
G1 X125.536 Y142.503 E9.98622
G1 X125.186 Y142.965 E10.00549
G1 X124.582 Y143.533 E10.03307
G1 X124.259 Y143.782 E10.04664
G1 X122.653 Y144.989 E10.11345
G1 X121.01 Y146.287 E10.1831
G1 X120.385 Y146.792 E10.20982
G1 X119.91 Y147.124 E10.2291
G1 X119.394 Y147.387 E10.24836
G1 X118.847 Y147.577 E10.26762
G1 X118.279 Y147.69 E10.28688
G1 X117.871 Y147.722 E10.30049
G1 X117.361 Y147.734 E10.31746
G1 X116.582 Y147.725 E10.34337
G1 X116.187 Y147.704 E10.35653
G1 X113.39 Y147.548 E10.4497
G1 X110.73 Y147.476 E10.53821
G1 X107.996 Y147.478 E10.62914
G1 X105.319 Y147.557 E10.71822
G1 X103.223 Y147.68 E10.78805
G1 X102.16 Y147.728 E10.82344
G1 X101.717 Y147.732 E10.83817
G1 X101.208 Y147.726 E10.85511
G1 X100.631 Y147.679 E10.87436
G1 X100.066 Y147.553 E10.89361
G1 X99.523 Y147.351 E10.91288
G1 X99.013 Y147.076 E10.93215
G1 X98.692 Y146.851 E10.94519
G1 X98.294 Y146.543 E10.96193
G1 X96.773 Y145.321 E11.02682
G1 X95.338 Y144.222 E11.08694
G1 X94.449 Y143.555 E11.12391
G1 X94.011 Y143.176 E11.14317
G1 X93.629 Y142.74 E11.16245
G1 X93.311 Y142.256 E11.18171
G1 X93.167 Y141.978 E11.19213
G1 X93.107 Y141.85 E11.19683
G1 X92.898 Y141.309 E11.21612
G1 X92.765 Y140.745 E11.23539
G1 X92.711 Y140.136 E11.25573
G1 X92.707 Y139.725 E11.2694
G1 X92.716 Y139.334 E11.28241
G1 X92.813 Y138.528 E11.30941
G1 X93.033 Y137.529 E11.34343
G1 X93.585 Y134.862 E11.43401
G1 X94.063 Y132.18 E11.52462
G1 X94.456 Y129.538 E11.61346
G1 X94.784 Y126.808 E11.70492
G1 X95.027 Y124.16 E11.79336
G1 X95.199 Y121.427 E11.88444
G1 X95.312 Y117.698 E12.00852
G1 X95.362 Y117.121 E12.02779
G1 X95.491 Y116.556 E12.04706
G1 X95.696 Y116.015 E12.0663
G1 X95.974 Y115.506 E12.08559
G1 X96.32 Y115.041 E12.10487
G1 X96.726 Y114.628 E12.12413
G1 F2700 E7.62413
;MESH:spring_body_clip2.stl
G0 F6000 X99.994 Y117.129
G0 X99.913 Y118.201
G0 X100.882 Y128.616
G0 X101.075 Y129.256
G0 X101.445 Y129.811
G0 X102.104 Y130.318
G0 X102.745 Y130.512
G0 X103.83 Y130.635
;TYPE:WALL-INNER
G1 F2700 E12.12413
G1 F1200 X103.939 Y130.602 E12.12792
G1 X104.111 Y130.536 E12.13405
G1 X104.265 Y130.463 E12.13972
G1 X104.428 Y130.374 E12.14589
G1 X104.572 Y130.277 E12.15167
G1 X104.621 Y130.24 E12.15371
G1 X104.718 Y130.166 E12.15777
G1 X104.847 Y130.048 E12.16358
G1 X104.975 Y129.917 E12.16968
G1 X105.086 Y129.782 E12.17549
G1 X105.11 Y129.749 E12.17685
G1 X105.193 Y129.635 E12.18154
G1 X105.282 Y129.487 E12.18728
G1 X105.373 Y129.315 E12.19375
G1 X105.5 Y128.976 E12.20579
G1 X105.5 Y129.315 E12.20743
G1 X105.5 Y129.487 E12.2098
G1 X105.5 Y129.635 E12.21297
G1 X105.5 Y129.776 E12.21714
G1 X105.5 Y130.634 E12.24568
G1 X104.634 Y130.634 E12.27448
G1 X104.572 Y130.634 E12.27644
G1 X104.428 Y130.634 E12.28007
G1 X104.265 Y130.634 E12.28291
G1 X104.111 Y130.634 E12.28455
G1 X103.94 Y130.634 E12.28538
G1 X103.83 Y130.635 E12.28551
G0 F6000 X103.023 Y130.728
G1 F1200 X102.925 Y130.769 E12.28904
G1 X102.823 Y130.846 E12.2933
G1 X102.729 Y130.917 E12.29721
G1 X102.706 Y130.935 E12.29818
G1 X102.536 Y131.156 E12.30746
G1 X102.43 Y131.412 E12.31667
G1 X102.401 Y131.635 E12.32415
G1 X102.4 Y139.638 E12.59033
G1 X102.432 Y139.861 E12.59783
G1 X102.537 Y140.112 E12.60688
G1 X102.703 Y140.33 E12.61599
G1 X102.922 Y140.499 E12.62519
G1 X103.178 Y140.604 E12.63439
G1 X103.401 Y140.633 E12.64187
G1 X105.4 Y140.633 E12.70836
G1 X105.4 Y141.263 E12.72931
G1 X103.922 Y142.048 E12.78498
G1 X102.257 Y142.926 E12.84758
G1 X102.051 Y142.929 E12.85443
G1 X101.85 Y142.931 E12.86112
G1 X101.85 Y142.73 E12.86544
G1 X101.85 Y141.308 E12.91273
G1 X101.827 Y141.107 E12.91946
G1 X101.739 Y140.872 E12.92781
G1 X101.603 Y140.669 E12.93593
G1 X101.432 Y140.511 E12.94368
G1 X101.219 Y140.382 E12.95196
G1 X101.021 Y140.326 E12.9588
G1 X97.603 Y139.722 E13.07425
G1 X97.503 Y139.705 E13.07762
G1 X97.505 Y139.5 E13.08444
G1 X97.528 Y139.401 E13.08782
G1 X100.099 Y128.495 E13.4605
G1 X100.1 Y118.619 E13.78898
G1 X100.1 Y118.618 E13.78901
G1 X100.1 Y118.404 E13.79613
G1 X100.314 Y118.42 E13.80065
G1 X102.653 Y118.599 E13.87867
G1 X103.084 Y118.632 E13.89305
G1 X102.778 Y118.938 E13.9009
G1 X102.471 Y119.246 E13.91536
G1 X101.869 Y119.85 E13.94373
G1 X101.768 Y119.983 E13.94928
G1 X101.661 Y120.193 E13.95712
G1 X101.604 Y120.44 E13.96555
G1 X101.6 Y124.129 E14.08825
G1 X101.627 Y124.422 E14.09804
G1 X101.712 Y124.734 E14.10879
G1 X101.847 Y125.02 E14.11931
G1 X101.945 Y125.166 E14.12516
G1 X102.039 Y125.291 E14.13036
G1 X102.156 Y125.414 E14.13601
G1 X102.271 Y125.519 E14.14119
G1 X102.408 Y125.623 E14.14691
G1 X102.526 Y125.694 E14.15149
G1 X102.539 Y125.702 E14.15199
G1 X102.617 Y125.744 E14.15494
G1 X102.698 Y125.787 E14.15799
G1 X102.733 Y125.799 E14.15922
G1 X102.881 Y125.85 E14.16443
G1 X102.708 Y125.874 E14.16539
G1 X102.586 Y125.902 E14.16705
G1 X102.526 Y125.916 E14.16776
G1 X102.501 Y125.923
G1 X102.363 Y125.966 E14.17136
G1 X102.192 Y126.03 E14.17743
G1 X102.034 Y126.104 E14.18324
G1 X101.87 Y126.195 E14.18947
G1 X101.728 Y126.292 E14.19519
G1 X101.582 Y126.402 E14.20127
G1 X101.453 Y126.52 E14.20709
G1 X101.325 Y126.651 E14.21318
G1 X101.214 Y126.786 E14.21899
G1 X101.107 Y126.933 E14.22504
G1 X101.019 Y127.081 E14.23077
G1 X100.927 Y127.252 E14.23723
G1 X100.803 Y127.579 E14.24886
G1 X100.725 Y127.928 E14.26075
G1 X100.7 Y128.283 E14.27259
G1 X100.723 Y128.639 E14.28445
G1 X100.782 Y128.905 E14.29352
G1 X100.802 Y128.99 E14.29642
G1 X100.93 Y129.324 E14.30832
G1 X101.106 Y129.637 E14.32026
G1 X101.324 Y129.919 E14.33212
G1 X101.573 Y130.159 E14.34362
G1 X101.729 Y130.277 E14.35012
G1 X101.874 Y130.374 E14.35593
G1 X102.03 Y130.46 E14.36185
G1 X102.19 Y130.538 E14.36777
G1 X102.363 Y130.601 E14.37389
G1 X102.527 Y130.652 E14.37961
G1 X102.707 Y130.693 E14.38418
G1 X102.74 Y130.697
G1 X102.88 Y130.718 E14.38598
G1 X102.928 Y130.721 E14.38613
G1 X103.023 Y130.728 E14.38624
G0 F6000 X102.184 Y130.962
G1 F1200 X102.168 Y131.002 E14.38767
G1 X102.04 Y131.308 E14.3987
G1 X102.001 Y131.609 E14.4088
G1 X102 Y139.667 E14.67681
G1 X102.043 Y139.968 E14.68692
G1 X102.179 Y140.293 E14.69864
G1 X102.188 Y140.314 E14.6994
G1 X102.334 Y140.506 E14.70742
G1 X102.417 Y140.614 E14.71195
G1 X102.519 Y140.693 E14.71624
G1 X102.72 Y140.849 E14.7247
G1 X103.075 Y140.994 E14.73746
G1 X103.375 Y141.033 E14.74752
G1 X104.177 Y141.033 E14.7742
G1 X104.178 Y141.033 E14.77423
G1 X104.98 Y141.033 E14.8009
G1 X104.271 Y141.408 E14.81464
G1 X102.542 Y142.323 E14.8797
G1 X102.25 Y142.477 E14.89068
G1 X102.25 Y142.147 E14.89696
G1 X102.25 Y142.146 E14.897
G1 X102.25 Y141.285 E14.92563
G1 X102.219 Y141.013 E14.93474
G1 X102.158 Y140.85 E14.94053
G1 X102.113 Y140.729 E14.94437
G1 X102.097 Y140.688 E14.94518
G1 X101.953 Y140.472 E14.95155
G1 X101.909 Y140.407 E14.95369
G1 X101.674 Y140.19 E14.96433
G1 X101.38 Y140.012 E14.97576
G1 X101.11 Y139.936 E14.98509
G1 X98.152 Y139.413 E15.085
G1 X97.945 Y139.377 E15.09199
G1 X97.993 Y139.172 E15.09645
G1 X100.257 Y129.573 E15.42447
G1 X100.29 Y129.43 E15.42935
G1 X100.369 Y129.095 E15.4408
G1 X100.393 Y128.993 E15.44428
G1 X100.418 Y129.106 E15.44476
G1 X100.567 Y129.495 E15.45158
G1 X100.639 Y129.623 E15.4558
G1 X100.772 Y129.859 E15.46481
G1 X101.025 Y130.187 E15.47859
G1 X101.313 Y130.464 E15.49188
G1 X101.497 Y130.603 E15.49955
G1 X101.666 Y130.716 E15.50631
G1 X101.846 Y130.815 E15.51314
G1 X102.033 Y130.907 E15.52008
G1 X102.168 Y130.956 E15.52291
G1 X102.184 Y130.962
G0 F6000 X102.649 Y141.252
G1 F1200 X102.972 Y141.384 E15.53451
G1 X103.326 Y141.427 E15.54637
G1 X103.368 Y141.433 E15.54778
G1 X103.079 Y141.586 E15.55296
G1 X102.65 Y141.813 E15.5691
G1 X102.65 Y141.385 E15.58085
G1 X102.649 Y141.252 E15.58113
G1 F2700 E11.08113
G0 F6000 X102.561 Y139.625
