;FLAVOR:Marlin
;TIME:23
;Filament used: 0.00564549m
;Layer height: 0.2
;MINX:18.04
;MINY:17.876
;MINZ:0.2
;MAXX:200.078
;MAXY:201.95
;MAXZ:0.2
;Generated with Cura_SteamEngine 4.4.1
M140 S60
M105
M190 S60
M104 S205
M105
M109 S205
M82 ;absolute extrusion mode
M201 X500.00 Y500.00 Z100.00 E5000.00 ;Setup machine max acceleration
M203 X500.00 Y500.00 Z10.00 E50.00 ;Setup machine max feedrate
M204 P500.00 R1000.00 T500.00 ;Setup Print/Retract/Travel acceleration
M205 X8.00 Y8.00 Z0.40 E5.00 ;Setup Jerk
M220 S100 ;Reset Feedrate
M221 S100 ;Reset Flowrate

G28 ;Home

G92 E0 ;Reset Extruder
G1 Z2.0 F3000 ;Move Z Axis up
G1 X10.1 Y20 Z0.28 F5000.0 ;Move to start position
G1 X10.1 Y200.0 Z0.28 F1500.0 E15 ;Draw the first line
G1 X10.4 Y200.0 Z0.28 F5000.0 ;Move to side a little
G1 X10.4 Y20 Z0.28 F1500.0 E30 ;Draw the second line
G92 E0 ;Reset Extruder
G1 Z2.0 F3000 ;Move Z Axis up

G92 E0
G92 E0
G1 F1500 E-6.5
;LAYER_COUNT:1
;LAYER:0
M107
;MESH:Mesh_Test_v3.stl
G0 F6000 X192.876 Y201.869 Z0.2
;TYPE:WALL-OUTER
G1 F1500 E0
G1 F1200 X194.393 Y199.739 E0.08698
G1 X192.664 Y197.408 E0.1835
G1 X192.935 Y197.408 E0.19252
G1 X194.496 Y199.623 E0.28265
G1 X194.87 Y199.052 E0.30535
G1 X196.029 Y197.408 E0.37225
G1 X196.333 Y197.408 E0.38236
G1 X194.634 Y199.78 E0.4794
G1 X196.191 Y201.869 E0.56606
G1 X195.989 Y201.869 E0.57278
G1 X194.778 Y200.247 E0.6401
G1 X194.529 Y199.857 E0.65549
G1 X193.969 Y200.712 E0.68949
G1 X193.151 Y201.869 E0.73662
G1 X192.876 Y201.869 E0.74576
G1 F1500 E-5.75424
G0 F6000 X192.713 Y201.95
G0 X192.719 Y201.762
G0 X192.169 Y201.371
G0 X196.323 Y198.852
G0 X197.289 Y198.301
G1 F1500 E0.74576
G1 F1200 X197.327 Y198.138 E0.75133
G1 X197.373 Y198.025 E0.75539
G1 X197.428 Y197.927 E0.75913
G1 X197.494 Y197.837 E0.76284
G1 X197.659 Y197.648 E0.77118
G1 X197.871 Y197.506 E0.77967
G1 X197.982 Y197.447 E0.78385
G1 X198.095 Y197.399 E0.78793
G1 X198.218 Y197.367 E0.79216
G1 X198.339 Y197.347 E0.79624
G1 X198.601 Y197.326 E0.80498
G1 X198.949 Y197.367 E0.81664
G1 X199.094 Y197.399 E0.82158
G1 X199.231 Y197.448 E0.82641
G1 X199.366 Y197.524 E0.83157
G1 X199.483 Y197.612 E0.83644
G1 X199.73 Y197.845 E0.84773
G1 X199.872 Y198.069 E0.85655
G1 X199.942 Y198.204 E0.86161
G1 X199.987 Y198.314 E0.86556
G1 X200.021 Y198.441 E0.86993
G1 X200.042 Y198.566 E0.87415
G1 X200.068 Y198.855 E0.8838
G1 X200.042 Y199.135 E0.89315
G1 X200.016 Y199.278 E0.89799
G1 X199.978 Y199.4 E0.90224
G1 X199.927 Y199.51 E0.90627
G1 X199.857 Y199.624 E0.91072
G1 X199.688 Y199.849 E0.92008
G1 X199.472 Y200.019 E0.92922
G1 X199.379 Y200.08 E0.93292
G1 X199.263 Y200.137 E0.93722
G1 X199.148 Y200.175 E0.94125
G1 X199.032 Y200.198 E0.94518
G1 X198.756 Y200.229 E0.95442
G1 X198.437 Y200.188 E0.96512
G1 X198.292 Y200.142 E0.97018
G1 X198.14 Y200.072 E0.97574
G1 X197.828 Y199.888 E0.98779
G1 X197.617 Y200.038 E0.9964
G1 X197.937 Y201.632 E1.05047
G1 X199.84 Y201.632 E1.11377
G1 X199.84 Y201.802 E1.11942
G1 X197.789 Y201.802 E1.18764
G1 X197.389 Y199.677 E1.25956
G1 X197.623 Y199.646 E1.26741
G1 X197.635 Y199.662 E1.26807
G1 X197.741 Y199.776 E1.27325
G1 X197.977 Y199.947 E1.28295
G1 X198.129 Y200.015 E1.28848
G1 X198.28 Y200.067 E1.2938
G1 X198.438 Y200.093 E1.29912
G1 X198.6 Y200.105 E1.30452
G1 X198.835 Y200.082 E1.31238
G1 X198.957 Y200.059 E1.31651
G1 X199.077 Y200.022 E1.32068
G1 X199.194 Y199.968 E1.32497
G1 X199.298 Y199.901 E1.32908
G1 X199.495 Y199.749 E1.33736
G1 X199.646 Y199.536 E1.34604
G1 X199.71 Y199.424 E1.35033
G1 X199.762 Y199.302 E1.35475
G1 X199.797 Y199.175 E1.35913
G1 X199.818 Y199.049 E1.36338
G1 X199.837 Y198.8 E1.37168
G1 X199.796 Y198.417 E1.38449
G1 X199.76 Y198.278 E1.38927
G1 X199.706 Y198.15 E1.39389
G1 X199.641 Y198.031 E1.3984
G1 X199.489 Y197.807 E1.4074
G1 X199.303 Y197.647 E1.41556
G1 X199.202 Y197.576 E1.41967
G1 X199.09 Y197.515 E1.42391
G1 X198.97 Y197.473 E1.42814
G1 X198.85 Y197.445 E1.43224
G1 X198.61 Y197.415 E1.44028
G1 X198.411 Y197.435 E1.44693
G1 X198.31 Y197.455 E1.45036
G1 X198.21 Y197.484 E1.45382
G1 X198.113 Y197.528 E1.45736
G1 X198.025 Y197.58 E1.46076
G1 X197.857 Y197.7 E1.46763
G1 X197.713 Y197.879 E1.47527
G1 X197.649 Y197.975 E1.47911
G1 X197.593 Y198.078 E1.48301
G1 X197.551 Y198.186 E1.48686
G1 X197.514 Y198.32 E1.49149
G1 X197.289 Y198.301 E1.499
G0 F6000 X197.944 Y197.625
G1 F1500 E-5.001
G0 F6000 X198.174 Y197.192
G0 X198.174 Y195.192
G0 X197.554 Y193.068
G0 X197.399 Y192.887
G1 F1500 E1.499
G1 F1200 X197.633 Y192.856 E1.50685
G1 X197.645 Y192.872 E1.50751
G1 X197.751 Y192.986 E1.51269
G1 X197.987 Y193.157 E1.52238
G1 X198.139 Y193.225 E1.52792
G1 X198.29 Y193.277 E1.53323
G1 X198.448 Y193.303 E1.53856
G1 X198.61 Y193.315 E1.54396
G1 X198.845 Y193.292 E1.55182
G1 X198.966 Y193.269 E1.55591
G1 X199.087 Y193.232 E1.56012
G1 X199.204 Y193.178 E1.56441
G1 X199.308 Y193.111 E1.56852
G1 X199.505 Y192.959 E1.5768
G1 X199.656 Y192.746 E1.58548
G1 X199.72 Y192.634 E1.58977
G1 X199.772 Y192.512 E1.59418
G1 X199.807 Y192.385 E1.59856
G1 X199.828 Y192.259 E1.60281
G1 X199.847 Y192.01 E1.61112
G1 X199.806 Y191.626 E1.62396
G1 X199.769 Y191.488 E1.62872
G1 X199.717 Y191.36 E1.63331
G1 X199.65 Y191.241 E1.63785
G1 X199.498 Y191.017 E1.64686
G1 X199.313 Y190.857 E1.65499
G1 X199.212 Y190.786 E1.6591
G1 X199.1 Y190.725 E1.66334
G1 X198.98 Y190.683 E1.66757
G1 X198.86 Y190.655 E1.67167
G1 X198.62 Y190.625 E1.67971
G1 X198.421 Y190.645 E1.68636
G1 X198.32 Y190.665 E1.68979
G1 X198.22 Y190.694 E1.69325
G1 X198.123 Y190.738 E1.69679
G1 X198.035 Y190.79 E1.70019
G1 X197.867 Y190.91 E1.70706
G1 X197.723 Y191.089 E1.7147
G1 X197.659 Y191.185 E1.71854
G1 X197.603 Y191.288 E1.72244
G1 X197.561 Y191.396 E1.72629
G1 X197.524 Y191.53 E1.73092
G1 X197.299 Y191.511 E1.73843
G1 X197.337 Y191.348 E1.74399
G1 X197.383 Y191.235 E1.74805
G1 X197.438 Y191.137 E1.75179
G1 X197.504 Y191.047 E1.7555
G1 X197.669 Y190.858 E1.76384
G1 X197.882 Y190.716 E1.77236
G1 X197.994 Y190.655 E1.7766
G1 X198.102 Y190.61 E1.78049
G1 X198.228 Y190.577 E1.78482
G1 X198.349 Y190.557 E1.7889
G1 X198.611 Y190.536 E1.79765
G1 X198.959 Y190.577 E1.8093
G1 X199.104 Y190.609 E1.81424
G1 X199.241 Y190.658 E1.81908
G1 X199.376 Y190.734 E1.82423
G1 X199.493 Y190.822 E1.8291
G1 X199.74 Y191.055 E1.84039
G1 X199.882 Y191.279 E1.84922
G1 X199.952 Y191.414 E1.85427
G1 X199.997 Y191.524 E1.85823
G1 X200.031 Y191.651 E1.8626
G1 X200.052 Y191.776 E1.86681
G1 X200.078 Y192.065 E1.87647
G1 X200.052 Y192.345 E1.88582
G1 X200.026 Y192.488 E1.89065
G1 X199.988 Y192.61 E1.8949
G1 X199.937 Y192.72 E1.89894
G1 X199.867 Y192.833 E1.90336
G1 X199.697 Y193.059 E1.91276
G1 X199.482 Y193.229 E1.92188
G1 X199.389 Y193.29 E1.92558
G1 X199.273 Y193.347 E1.92988
G1 X199.158 Y193.385 E1.93391
G1 X199.042 Y193.408 E1.93784
G1 X198.766 Y193.439 E1.94708
G1 X198.447 Y193.398 E1.95777
G1 X198.302 Y193.352 E1.96283
G1 X198.15 Y193.282 E1.9684
G1 X197.838 Y193.098 E1.98045
G1 X197.627 Y193.248 E1.98906
G1 X197.947 Y194.842 E2.04313
G1 X199.85 Y194.842 E2.10643
G1 X199.85 Y195.012 E2.11208
G1 X197.799 Y195.012 E2.1803
G1 X197.399 Y192.887 E2.25221
G0 F6000 X197.627 Y193.509
G1 F1500 E-4.24779
G0 F6000 X197.709 Y193.543
G0 X197.468 Y194.226
G0 X196.818 Y194.305
G0 X195.435 Y189.765
G0 X193.486 Y189.765
G0 X191.499 Y195.242
G0 X191.871 Y195.938
G0 X192.614 Y195.944
G0 X192.614 Y195.259
G0 X192.474 Y195.164
G0 X192.64 Y195.079
G1 F1500 E2.25221
G1 F1200 X194.339 Y192.538 E2.35388
G1 X194.339 Y190.618 E2.41774
G1 X194.582 Y190.618 E2.42582
G1 X194.582 Y192.539 E2.48971
G1 X196.341 Y195.079 E2.59248
G1 X196.079 Y195.079 E2.60119
G1 X194.93 Y193.321 E2.67104
G1 X194.5 Y192.602 E2.69891
G1 X193.839 Y193.704 E2.74165
G1 X192.94 Y195.079 E2.79629
G1 X192.64 Y195.079 E2.80627
G1 F1500 E-3.69373
G0 F6000 X192.474 Y195.164
G0 X192.478 Y194.98
G0 X191.916 Y194.605
G0 X25.485 Y29.519
G0 X24.979 Y29.061
G0 X24.897 Y28.645
G1 F1500 E2.80627
G1 F1200 X25.059 Y28.223 E2.8213
G1 X25.122 Y28.011 E2.82866
G1 X25.166 Y27.795 E2.83599
G1 X25.19 Y27.58 E2.84318
G1 X25.202 Y27.363 E2.85041
G1 X25.197 Y26.425 E2.88161
G1 X25.165 Y26.099 E2.8925
G1 X25.122 Y25.882 E2.89986
G1 X25.059 Y25.671 E2.90719
G1 X24.897 Y25.249 E2.92222
G1 X24.729 Y25.055 E2.93076
G1 X24.636 Y24.968 E2.93499
G1 X24.529 Y24.892 E2.93936
G1 X24.437 Y24.848 E2.94275
G1 X24.288 Y24.799 E2.94797
G1 X24.031 Y24.753 E2.95665
G1 X23.778 Y24.798 E2.9652
G1 X23.654 Y24.835 E2.9695
G1 X23.534 Y24.892 E2.97392
G1 X23.427 Y24.968 E2.97828
G1 X23.335 Y25.054 E2.98247
G1 X23.166 Y25.247 E2.99101
G1 X23.002 Y25.67 E3.00609
G1 X22.941 Y25.881 E3.0134
G1 X22.897 Y26.096 E3.0207
G1 X22.873 Y26.312 E3.02793
G1 X22.861 Y26.528 E3.03512
G1 X22.869 Y27.484 E3.06692
G1 X22.905 Y27.822 E3.07823
G1 X22.953 Y28.045 E3.08581
G1 X23.022 Y28.262 E3.09339
G1 X23.196 Y28.694 E3.10888
G1 X23.362 Y28.875 E3.11705
G1 X23.452 Y28.955 E3.12105
G1 X23.558 Y29.023 E3.12524
G1 X23.673 Y29.072 E3.1294
G1 X23.79 Y29.102 E3.13341
G1 X24.027 Y29.138 E3.14139
G1 X24.28 Y29.094 E3.14993
G1 X24.404 Y29.057 E3.15423
G1 X24.523 Y29.001 E3.15861
G1 X24.631 Y28.927 E3.16296
G1 X24.725 Y28.84 E3.16722
G1 X24.897 Y28.645 E3.17587
G0 F6000 X24.625 Y29.093
G1 F1200 X24.48 Y29.153 E3.18109
G1 X24.342 Y29.196 E3.1859
G1 X24.19 Y29.218 E3.191
G1 X24.034 Y29.228 E3.1962
G1 X23.711 Y29.194 E3.20701
G1 X23.622 Y29.172 E3.21005
G1 X23.543 Y29.141 E3.21288
G1 X23.456 Y29.097 E3.21612
G1 X23.279 Y28.987 E3.22305
G1 X23.052 Y28.744 E3.23411
G1 X23.002 Y28.674 E3.23697
G1 X22.899 Y28.477 E3.24437
G1 X22.814 Y28.269 E3.25184
G1 X22.738 Y27.955 E3.26259
G1 X22.679 Y27.618 E3.27396
G1 X22.654 Y27.293 E3.28481
G1 X22.647 Y26.95 E3.29622
G1 X22.661 Y26.428 E3.31358
G1 X22.683 Y26.195 E3.32137
G1 X22.724 Y25.963 E3.3292
G1 X22.789 Y25.733 E3.33715
G1 X22.875 Y25.517 E3.34489
G1 X23.09 Y25.091 E3.36076
G1 X23.291 Y24.904 E3.36989
G1 X23.394 Y24.828 E3.37415
G1 X23.503 Y24.766 E3.37832
G1 X23.617 Y24.726 E3.38234
G1 X23.738 Y24.7 E3.38645
G1 X24.032 Y24.666 E3.3963
G1 X24.349 Y24.699 E3.4069
G1 X24.528 Y24.755 E3.41313
G1 X24.607 Y24.796 E3.41609
G1 X24.785 Y24.907 E3.42307
G1 X25.011 Y25.15 E3.43411
G1 X25.065 Y25.226 E3.43721
G1 X25.168 Y25.423 E3.4446
G1 X25.25 Y25.625 E3.45185
G1 X25.326 Y25.938 E3.46257
G1 X25.384 Y26.276 E3.47397
G1 X25.408 Y26.598 E3.48471
G1 X25.415 Y27.076 E3.50061
G1 X25.396 Y27.512 E3.51513
G1 X25.362 Y27.773 E3.52388
G1 X25.312 Y28.048 E3.53318
G1 X25.2 Y28.39 E3.54515
G1 X25.121 Y28.557 E3.55129
G1 X25.039 Y28.704 E3.55689
G1 X24.943 Y28.831 E3.56219
G1 X24.857 Y28.927 E3.56647
G1 X24.745 Y29.015 E3.57121
G1 X24.625 Y29.093 E3.57597
G0 F6000 X24.695 Y29.125
G1 F1500 E-2.92403
G0 F6000 X22.848 Y28.768
G0 X21.971 Y29.401
G0 X21.591 Y29.209
G1 F1500 E3.57597
G1 F1200 X21.389 Y29.209 E3.58269
G1 X20.178 Y27.587 E3.65001
G1 X19.929 Y27.197 E3.6654
G1 X19.369 Y28.052 E3.6994
G1 X18.551 Y29.209 E3.74653
G1 X18.276 Y29.209 E3.75567
G1 X19.793 Y27.079 E3.84265
G1 X18.064 Y24.748 E3.93918
G1 X18.335 Y24.748 E3.94819
G1 X19.896 Y26.963 E4.03832
G1 X20.27 Y26.392 E4.06102
G1 X21.429 Y24.748 E4.12792
G1 X21.733 Y24.748 E4.13803
G1 X20.034 Y27.12 E4.23508
G1 X21.591 Y29.209 E4.32173
G0 F6000 X21.43 Y29.009
G1 F1500 E-2.17827
G0 F6000 X20.089 Y26.891
G0 X21.096 Y27.111
G0 X21.746 Y23.284
G0 X21.746 Y22.61
G0 X21.902 Y22.505
G0 X21.741 Y22.419
G1 F1500 E4.32173
G1 F1200 X21.479 Y22.419 E4.33045
G1 X20.33 Y20.661 E4.4003
G1 X19.9 Y19.942 E4.42816
G1 X19.239 Y21.044 E4.47091
G1 X18.34 Y22.419 E4.52555
G1 X18.04 Y22.419 E4.53552
G1 X19.739 Y19.878 E4.63719
G1 X19.739 Y17.958 E4.70105
G1 X19.982 Y17.958 E4.70913
G1 X19.982 Y19.879 E4.77302
G1 X21.741 Y22.419 E4.87578
G1 F1500 E-1.62422
G0 F6000 X21.902 Y22.505
G0 X22.105 Y22.61
G0 X22.923 Y22.07
G0 X24.034 Y22.184
G0 X24.27 Y22.121
G0 X24.907 Y21.855
G1 F1500 E4.87578
G1 F1200 X25.069 Y21.433 E4.89082
G1 X25.132 Y21.221 E4.89817
G1 X25.176 Y21.005 E4.90551
G1 X25.2 Y20.79 E4.9127
G1 X25.212 Y20.573 E4.91993
G1 X25.207 Y19.635 E4.95113
G1 X25.175 Y19.309 E4.96202
G1 X25.132 Y19.092 E4.96938
G1 X25.069 Y18.881 E4.97671
G1 X24.907 Y18.459 E4.99174
G1 X24.739 Y18.265 E5.00028
G1 X24.646 Y18.178 E5.00451
G1 X24.539 Y18.102 E5.00888
G1 X24.447 Y18.058 E5.01227
G1 X24.298 Y18.009 E5.01749
G1 X24.041 Y17.963 E5.02617
G1 X23.788 Y18.008 E5.03472
G1 X23.664 Y18.045 E5.03902
G1 X23.544 Y18.102 E5.04344
G1 X23.437 Y18.178 E5.0478
G1 X23.345 Y18.264 E5.05199
G1 X23.176 Y18.457 E5.06052
G1 X23.012 Y18.88 E5.07561
G1 X22.951 Y19.091 E5.08292
G1 X22.907 Y19.306 E5.09022
G1 X22.883 Y19.522 E5.09745
G1 X22.871 Y19.738 E5.10464
G1 X22.879 Y20.694 E5.13644
G1 X22.915 Y21.032 E5.14775
G1 X22.963 Y21.255 E5.15533
G1 X23.032 Y21.472 E5.16291
G1 X23.206 Y21.904 E5.1784
G1 X23.372 Y22.085 E5.18656
G1 X23.462 Y22.165 E5.19057
G1 X23.568 Y22.233 E5.19476
G1 X23.683 Y22.282 E5.19892
G1 X23.8 Y22.312 E5.20293
G1 X24.037 Y22.348 E5.21091
G1 X24.29 Y22.304 E5.21945
G1 X24.414 Y22.267 E5.22375
G1 X24.533 Y22.211 E5.22813
G1 X24.641 Y22.137 E5.23248
G1 X24.735 Y22.05 E5.23674
G1 X24.907 Y21.855 E5.24539
G0 F6000 X24.635 Y22.303
G1 F1200 X24.49 Y22.363 E5.25061
G1 X24.352 Y22.406 E5.25542
G1 X24.2 Y22.428 E5.26052
G1 X24.044 Y22.438 E5.26572
G1 X23.721 Y22.404 E5.27652
G1 X23.632 Y22.382 E5.27957
G1 X23.553 Y22.351 E5.2824
G1 X23.466 Y22.307 E5.28564
G1 X23.289 Y22.197 E5.29257
G1 X23.062 Y21.954 E5.30363
G1 X23.012 Y21.884 E5.30649
G1 X22.909 Y21.687 E5.31389
G1 X22.824 Y21.479 E5.32136
G1 X22.748 Y21.165 E5.3321
G1 X22.689 Y20.828 E5.34348
G1 X22.664 Y20.503 E5.35432
G1 X22.657 Y20.16 E5.36574
G1 X22.671 Y19.638 E5.3831
G1 X22.693 Y19.405 E5.39089
G1 X22.734 Y19.173 E5.39872
G1 X22.799 Y18.943 E5.40667
G1 X22.885 Y18.727 E5.41441
G1 X23.1 Y18.301 E5.43028
G1 X23.301 Y18.114 E5.43941
G1 X23.404 Y18.038 E5.44367
G1 X23.513 Y17.976 E5.44784
G1 X23.627 Y17.936 E5.45185
G1 X23.748 Y17.91 E5.45597
G1 X24.042 Y17.876 E5.46581
G1 X24.359 Y17.909 E5.47641
G1 X24.448 Y17.932 E5.47947
G1 X24.541 Y17.968 E5.48279
G1 X24.625 Y18.011 E5.48593
G1 X24.795 Y18.117 E5.49259
G1 X25.021 Y18.36 E5.50363
G1 X25.075 Y18.436 E5.50673
G1 X25.178 Y18.633 E5.51412
G1 X25.26 Y18.835 E5.52137
G1 X25.336 Y19.148 E5.53209
G1 X25.394 Y19.486 E5.54349
G1 X25.418 Y19.808 E5.55423
G1 X25.425 Y20.286 E5.57013
G1 X25.406 Y20.722 E5.58465
G1 X25.372 Y20.983 E5.5934
G1 X25.322 Y21.258 E5.6027
G1 X25.21 Y21.6 E5.61467
G1 X25.131 Y21.767 E5.62081
G1 X25.049 Y21.914 E5.62641
G1 X24.953 Y22.041 E5.63171
G1 X24.867 Y22.137 E5.63599
G1 X24.755 Y22.225 E5.64073
G1 X24.635 Y22.303 E5.64549
G0 F6000 X24.705 Y22.335
;TIME_ELAPSED:23.058923
G1 F1500 E-0.85451
M140 S0
G91 ;Relative positioning
G1 E-2 F2700 ;Retract a bit
G1 E-2 Z0.2 F2400 ;Retract and raise Z
G1 X5 Y5 F3000 ;Wipe out
G1 Z10 ;Raise Z more
G90 ;Absolute positionning

G1 X0 Y220 ;Present print
M106 S0 ;Turn-off fan
M104 S0 ;Turn-off hotend
M140 S0 ;Turn-off bed

M84 X Y E ;Disable all steppers but Z

M82 ;absolute extrusion mode
M104 S0
;End of Gcode
;SETTING_3 {"global_quality": "[general]\\nversion = 4\\nname = Build Plate Leve
;SETTING_3 l Test\\ndefinition = creality_ender3\\n\\n[metadata]\\nquality_type 
;SETTING_3 = standard\\nsetting_version = 10\\ntype = quality_changes\\n\\n[valu
;SETTING_3 es]\\nadhesion_type = none\\nsupport_enable = False\\nsupport_type = 
;SETTING_3 buildplate\\n\\n", "extruder_quality": ["[general]\\nversion = 4\\nna
;SETTING_3 me = Build Plate Level Test\\ndefinition = creality_ender3\\n\\n[meta
;SETTING_3 data]\\nquality_type = standard\\nintent_category = default\\nsetting
;SETTING_3 _version = 10\\nposition = 0\\ntype = quality_changes\\n\\n[values]\\
;SETTING_3 ninfill_pattern = gyroid\\ninfill_sparse_density = 8\\nmaterial_print
;SETTING_3 _temperature = =default_material_print_temperature\\nskirt_line_count
;SETTING_3  = 5\\nspeed_print = 100\\nsupport_angle = 55\\n\\n"]}
